;FLAVOR:Marlin
;TIME:550
;Filament used: 0.327672m
;Layer height: 0.2
;MINX:4.017
;MINY:4.014
;MINZ:0.2
;MAXX:215.987
;MAXY:215.986
;MAXZ:0.2
;Generated with Cura_SteamEngine 4.12.1
M140 S55
M105
M190 S55
M104 S220
M105
M109 S220
M82 ;absolute extrusion mode
; Ender 3 Custom Start G-code
G92 E0 ; Reset Extruder
G28 ; Home all axes
G1 Z2.0 F3000 ; Move Z Axis up little to prevent scratching of Heat Bed
G1 X0.1 Y20 Z0.3 F5000.0 ; Move to start position
G1 X0.1 Y200.0 Z0.3 F1500.0 E15 ; Draw the first line
G1 X0.4 Y200.0 Z0.3 F5000.0 ; Move to side a little
G1 X0.4 Y20 Z0.3 F1500.0 E30 ; Draw the second line
G92 E0 ; Reset Extruder
G1 Z2.0 F3000 ; Move Z Axis up little to prevent scratching of Heat Bed
G1 X5 Y20 Z0.3 F5000.0 ; Move over to prevent blob squish
G92 E0
G92 E0
G1 F1500 E-6.5
;LAYER_COUNT:1
;LAYER:0
M107
G0 F6000 X10.09 Y10.232 Z0.2
;TYPE:SKIRT
G1 F1500 E0
G1 F1200 X10.365 Y9.96 E0.01286
G1 X10.618 Y9.718 E0.02451
G1 X10.882 Y9.473 E0.03649
G1 X11.141 Y9.241 E0.04805
G1 X11.405 Y9.012 E0.05968
G1 X11.58 Y8.865 E0.06728
G1 X11.879 Y8.623 E0.08007
G1 X12.278 Y8.311 E0.09692
G1 X12.572 Y8.089 E0.10917
G1 X12.705 Y7.992 E0.11465
G1 X13.004 Y7.781 E0.12682
G1 X13.366 Y7.535 E0.14138
G1 X13.667 Y7.338 E0.15334
G1 X13.972 Y7.145 E0.16535
G1 X14.339 Y6.922 E0.17963
G1 X14.572 Y6.787 E0.18859
G1 X14.857 Y6.628 E0.19944
G1 X15.092 Y6.501 E0.20832
G1 X15.403 Y6.339 E0.21999
G1 X15.933 Y6.074 E0.2397
G1 X16.623 Y5.759 E0.26492
G1 X17.168 Y5.532 E0.28456
G1 X17.522 Y5.391 E0.29723
G1 X17.785 Y5.292 E0.30658
G1 X18.156 Y5.16 E0.31968
G1 X18.403 Y5.077 E0.32834
G1 X18.694 Y4.984 E0.33851
G1 X19.064 Y4.871 E0.35137
G1 X19.466 Y4.756 E0.36528
G1 X19.78 Y4.673 E0.37608
G1 X20.099 Y4.594 E0.38701
G1 X20.443 Y4.514 E0.39876
G1 X20.84 Y4.429 E0.41226
G1 X21.139 Y4.371 E0.42239
G1 X21.462 Y4.314 E0.4333
G1 X21.756 Y4.266 E0.44321
G1 X22.166 Y4.207 E0.45699
G1 X22.687 Y4.142 E0.47445
G1 X23.089 Y4.099 E0.4879
G1 X23.438 Y4.072 E0.49954
G1 X23.983 Y4.039 E0.5177
G1 X24.385 Y4.022 E0.53108
G1 X24.594 Y4.017 E0.53804
G1 X24.956 Y4.014 E0.55008
G1 X25.4 Y4.018 E0.56484
G1 X25.786 Y4.029 E0.57769
G1 X26.103 Y4.043 E0.58824
G1 X26.447 Y4.063 E0.5997
G1 X26.725 Y4.084 E0.60897
G1 X27.098 Y4.119 E0.62144
G1 X27.471 Y4.16 E0.63392
G1 X27.781 Y4.198 E0.6443
G1 X28.026 Y4.232 E0.65253
G1 X28.463 Y4.302 E0.66725
G1 X29.013 Y4.401 E0.68584
G1 X29.706 Y4.549 E0.70941
G1 X30.389 Y4.718 E0.73281
G1 X31.086 Y4.915 E0.7569
G1 X31.56 Y5.066 E0.77344
G1 X31.932 Y5.192 E0.78651
G1 X32.292 Y5.321 E0.79923
G1 X32.658 Y5.459 E0.81224
G1 X32.866 Y5.542 E0.81969
G1 X33.197 Y5.681 E0.83163
G1 X33.588 Y5.852 E0.84582
G1 X33.895 Y5.992 E0.85704
G1 X34.188 Y6.131 E0.86783
G1 X34.561 Y6.317 E0.88169
G1 X34.768 Y6.425 E0.88946
G1 X35.064 Y6.585 E0.90065
G1 X35.513 Y6.837 E0.91777
G1 X35.904 Y7.067 E0.93286
G1 X36.242 Y7.28 E0.94615
G1 X36.667 Y7.557 E0.96302
G1 X36.996 Y7.779 E0.97622
G1 X37.243 Y7.953 E0.98627
G1 X37.563 Y8.187 E0.99946
G1 X37.742 Y8.323 E1.00693
G1 X37.991 Y8.518 E1.01745
G1 X38.383 Y8.834 E1.0342
G1 X38.711 Y9.109 E1.04844
G1 X38.907 Y9.28 E1.05709
G1 X39.125 Y9.476 E1.06684
G1 X39.301 Y9.638 E1.07479
G1 X39.604 Y9.928 E1.08874
G1 X39.919 Y10.241 E1.10351
G1 X40.157 Y10.484 E1.11483
G1 X40.385 Y10.725 E1.12586
G1 X40.665 Y11.033 E1.13971
G1 X40.85 Y11.244 E1.14904
G1 X41.064 Y11.495 E1.16001
G1 X41.236 Y11.703 E1.16899
G1 X42.866 Y13.628 E1.25288
G1 X44.577 Y15.536 E1.33812
G1 X46.29 Y17.344 E1.42096
G1 X48.1 Y19.146 E1.50591
G1 X49.899 Y20.839 E1.58807
G1 X51.798 Y22.527 E1.67258
G1 X53.714 Y24.136 E1.7558
G1 X55.711 Y25.72 E1.84057
G1 X57.712 Y27.216 E1.92367
G1 X59.788 Y28.678 E2.00812
G1 X61.85 Y30.046 E2.09043
G1 X64.003 Y31.386 E2.17477
G1 X66.185 Y32.661 E2.25883
G1 X68.394 Y33.87 E2.34258
G1 X70.604 Y34.999 E2.42512
G1 X72.9 Y36.092 E2.5097
G1 X75.218 Y37.115 E2.59397
G1 X77.532 Y38.06 E2.67711
G1 X79.889 Y38.945 E2.76085
G1 X82.269 Y39.762 E2.84454
G1 X84.663 Y40.509 E2.92795
G1 X87.098 Y41.195 E3.01209
G1 X89.556 Y41.812 E3.09638
G1 X92.003 Y42.352 E3.17973
G1 X94.489 Y42.829 E3.26392
G1 X96.931 Y43.226 E3.34621
G1 X99.456 Y43.564 E3.43094
G1 X101.946 Y43.825 E3.51421
G1 X104.476 Y44.019 E3.5986
G1 X106.962 Y44.139 E3.68139
G1 X109.481 Y44.188 E3.76518
G1 X112.009 Y44.166 E3.84927
G1 X114.529 Y44.074 E3.93314
G1 X117.046 Y43.909 E4.01703
G1 X119.538 Y43.676 E4.10028
G1 X122.041 Y43.37 E4.18415
G1 X124.525 Y42.995 E4.2677
G1 X127.024 Y42.545 E4.35216
G1 X129.448 Y42.038 E4.43453
G1 X131.912 Y41.448 E4.5188
G1 X134.361 Y40.789 E4.60315
G1 X136.759 Y40.069 E4.68642
G1 X139.144 Y39.279 E4.76999
G1 X141.509 Y38.422 E4.85365
G1 X143.886 Y37.483 E4.93866
G1 X146.165 Y36.508 E5.0211
G1 X148.447 Y35.452 E5.10473
G1 X150.71 Y34.329 E5.18876
G1 X152.944 Y33.139 E5.27295
G1 X155.115 Y31.903 E5.35604
G1 X157.267 Y30.594 E5.43981
G1 X159.391 Y29.222 E5.52392
G1 X161.464 Y27.794 E5.60764
G1 X163.5 Y26.308 E5.69148
G1 X165.466 Y24.785 E5.77419
G1 X167.463 Y23.146 E5.86012
G1 X169.314 Y21.536 E5.94171
G1 X171.181 Y19.818 E6.0261
G1 X172.987 Y18.06 E6.10992
G1 X174.721 Y16.273 E6.19274
G1 X176.42 Y14.419 E6.27638
G1 X177.865 Y12.734 E6.35021
G1 X178.069 Y12.516 E6.36014
G1 X179.212 Y11.176 E6.41872
G1 X179.469 Y10.886 E6.43161
G1 X179.589 Y10.755 E6.43752
G1 X179.808 Y10.522 E6.44815
G1 X180.076 Y10.246 E6.46095
G1 X180.365 Y9.959 E6.4745
G1 X180.617 Y9.718 E6.48609
G1 X180.879 Y9.476 E6.49796
G1 X181.139 Y9.243 E6.50957
G1 X181.409 Y9.008 E6.52147
G1 X181.583 Y8.862 E6.52903
G1 X181.875 Y8.626 E6.54152
G1 X182.275 Y8.313 E6.55841
G1 X182.584 Y8.08 E6.57128
G1 X182.716 Y7.984 E6.57671
G1 X182.998 Y7.786 E6.58817
G1 X183.361 Y7.539 E6.60277
G1 X183.667 Y7.338 E6.61495
G1 X183.972 Y7.145 E6.62696
G1 X184.309 Y6.94 E6.64007
G1 X184.542 Y6.804 E6.64905
G1 X184.855 Y6.628 E6.66099
G1 X185.088 Y6.502 E6.6698
G1 X185.43 Y6.325 E6.68261
G1 X185.962 Y6.061 E6.70236
G1 X186.607 Y5.766 E6.72595
G1 X187.152 Y5.538 E6.7456
G1 X187.522 Y5.391 E6.75884
G1 X187.785 Y5.292 E6.76819
G1 X188.156 Y5.16 E6.78129
G1 X188.403 Y5.077 E6.78995
G1 X188.694 Y4.984 E6.80012
G1 X189.064 Y4.871 E6.81298
G1 X189.466 Y4.756 E6.82689
G1 X189.78 Y4.673 E6.83769
G1 X190.099 Y4.594 E6.84862
G1 X190.443 Y4.514 E6.86037
G1 X190.84 Y4.429 E6.87387
G1 X191.139 Y4.371 E6.884
G1 X191.462 Y4.314 E6.89491
G1 X191.756 Y4.266 E6.90482
G1 X192.166 Y4.207 E6.9186
G1 X192.687 Y4.142 E6.93606
G1 X193.089 Y4.099 E6.94951
G1 X193.438 Y4.072 E6.96115
G1 X193.983 Y4.039 E6.97931
G1 X194.385 Y4.022 E6.99269
G1 X194.594 Y4.017 E6.99965
G1 X194.956 Y4.014 E7.01169
G1 X195.4 Y4.018 E7.02645
G1 X195.786 Y4.029 E7.0393
G1 X196.103 Y4.043 E7.04985
G1 X196.447 Y4.063 E7.06131
G1 X196.725 Y4.084 E7.07058
G1 X197.098 Y4.119 E7.08305
G1 X197.471 Y4.16 E7.09553
G1 X197.781 Y4.198 E7.10591
G1 X198.026 Y4.232 E7.11414
G1 X198.463 Y4.302 E7.12886
G1 X199.013 Y4.401 E7.14745
G1 X199.706 Y4.549 E7.17102
G1 X200.389 Y4.718 E7.19442
G1 X201.086 Y4.915 E7.21851
G1 X201.56 Y5.066 E7.23505
G1 X201.932 Y5.192 E7.24812
G1 X202.292 Y5.321 E7.26084
G1 X202.658 Y5.459 E7.27385
G1 X202.866 Y5.542 E7.2813
G1 X203.197 Y5.681 E7.29324
G1 X203.588 Y5.852 E7.30743
G1 X203.895 Y5.992 E7.31865
G1 X204.188 Y6.131 E7.32944
G1 X204.561 Y6.317 E7.3433
G1 X204.768 Y6.425 E7.35107
G1 X205.064 Y6.585 E7.36226
G1 X205.513 Y6.837 E7.37938
G1 X205.904 Y7.067 E7.39447
G1 X206.242 Y7.28 E7.40776
G1 X206.667 Y7.557 E7.42463
G1 X206.996 Y7.779 E7.43783
G1 X207.243 Y7.953 E7.44788
G1 X207.563 Y8.187 E7.46107
G1 X207.742 Y8.323 E7.46854
G1 X207.991 Y8.518 E7.47906
G1 X208.383 Y8.834 E7.49581
G1 X208.711 Y9.109 E7.51005
G1 X208.907 Y9.28 E7.5187
G1 X209.125 Y9.476 E7.52845
G1 X209.301 Y9.638 E7.5364
G1 X209.604 Y9.928 E7.55035
G1 X209.919 Y10.241 E7.56512
G1 X210.157 Y10.484 E7.57644
G1 X210.385 Y10.725 E7.58747
G1 X210.659 Y11.026 E7.60101
G1 X210.861 Y11.256 E7.61119
G1 X211.079 Y11.512 E7.62237
G1 X211.292 Y11.77 E7.6335
G1 X211.526 Y12.063 E7.64597
G1 X211.76 Y12.367 E7.65873
G1 X212.003 Y12.695 E7.67231
G1 X212.154 Y12.907 E7.68097
G1 X212.342 Y13.18 E7.69199
G1 X212.549 Y13.49 E7.70439
G1 X212.741 Y13.789 E7.71621
G1 X212.899 Y14.043 E7.72616
G1 X213.103 Y14.383 E7.73935
G1 X213.299 Y14.725 E7.75246
G1 X213.469 Y15.034 E7.76419
G1 X213.673 Y15.418 E7.77865
G1 X214.004 Y16.096 E7.80374
G1 X214.295 Y16.748 E7.82749
G1 X214.463 Y17.144 E7.8418
G1 X214.606 Y17.511 E7.8549
G1 X214.739 Y17.872 E7.86769
G1 X214.853 Y18.196 E7.87912
G1 X214.975 Y18.562 E7.89195
G1 X215.089 Y18.928 E7.9047
G1 X215.184 Y19.25 E7.91586
G1 X215.299 Y19.67 E7.93035
G1 X215.375 Y19.971 E7.94067
G1 X215.447 Y20.275 E7.95106
G1 X215.54 Y20.693 E7.96531
G1 X215.605 Y21.005 E7.97591
G1 X215.692 Y21.493 E7.99239
G1 X215.772 Y22.014 E8.00993
G1 X215.824 Y22.403 E8.02298
G1 X215.876 Y22.847 E8.03785
G1 X215.913 Y23.213 E8.05008
G1 X215.943 Y23.649 E8.06462
G1 X215.97 Y24.193 E8.08273
G1 X215.982 Y24.528 E8.09388
G1 X215.987 Y24.79 E8.1026
G1 X215.987 Y25.211 E8.1166
G1 X215.982 Y25.471 E8.12525
G1 X215.97 Y25.806 E8.1364
G1 X215.943 Y26.349 E8.15448
G1 X215.915 Y26.763 E8.16828
G1 X215.877 Y27.142 E8.18095
G1 X215.824 Y27.595 E8.19612
G1 X215.771 Y27.993 E8.20948
G1 X215.693 Y28.499 E8.22651
G1 X215.611 Y28.966 E8.24228
G1 X215.549 Y29.269 E8.25256
G1 X215.458 Y29.685 E8.26673
G1 X215.365 Y30.076 E8.28009
G1 X215.287 Y30.379 E8.2905
G1 X215.185 Y30.747 E8.3032
G1 X215.096 Y31.049 E8.31367
G1 X214.994 Y31.376 E8.32507
G1 X214.869 Y31.756 E8.33837
G1 X214.72 Y32.181 E8.35335
G1 X214.558 Y32.613 E8.36869
G1 X214.298 Y33.245 E8.39142
G1 X213.999 Y33.913 E8.41577
G1 X213.684 Y34.559 E8.43967
G1 X213.48 Y34.945 E8.45419
G1 X213.292 Y35.287 E8.46717
G1 X213.096 Y35.628 E8.48025
G1 X212.91 Y35.94 E8.49234
G1 X212.752 Y36.195 E8.50231
G1 X212.558 Y36.496 E8.51422
G1 X212.353 Y36.804 E8.52653
G1 X212.144 Y37.107 E8.53877
G1 X211.991 Y37.321 E8.54752
G1 X211.763 Y37.628 E8.56024
G1 X211.54 Y37.918 E8.57241
G1 X211.325 Y38.189 E8.58391
G1 X211.115 Y38.445 E8.59493
G1 X210.846 Y38.76 E8.6087
G1 X210.63 Y39.004 E8.61954
G1 X210.416 Y39.24 E8.63014
G1 X210.188 Y39.483 E8.64122
G1 X209.894 Y39.784 E8.65521
G1 X209.579 Y40.095 E8.66994
G1 X209.35 Y40.315 E8.6805
G1 X209.174 Y40.479 E8.6885
G1 X208.876 Y40.746 E8.70181
G1 X208.291 Y41.251 E8.72751
G1 X206.851 Y42.453 E8.7899
G1 X204.945 Y44.136 E8.87447
G1 X203.121 Y45.839 E8.95747
G1 X201.331 Y47.609 E9.0412
G1 X199.597 Y49.424 E9.12469
G1 X197.896 Y51.309 E9.20913
G1 X196.275 Y53.209 E9.2922
G1 X194.694 Y55.172 E9.37603
G1 X193.174 Y57.176 E9.45969
G1 X191.695 Y59.242 E9.5442
G1 X190.292 Y61.324 E9.6277
G1 X188.97 Y63.409 E9.70981
G1 X187.655 Y65.622 E9.79543
G1 X186.446 Y67.794 E9.87811
G1 X185.281 Y70.032 E9.96203
G1 X184.163 Y72.336 E10.04721
G1 X183.15 Y74.585 E10.12925
G1 X182.167 Y76.942 E10.21418
G1 X181.276 Y79.267 E10.297
G1 X180.445 Y81.629 E10.38028
G1 X179.661 Y84.076 E10.46574
G1 X178.976 Y86.441 E10.54763
G1 X178.34 Y88.894 E10.63192
G1 X177.771 Y91.373 E10.71652
G1 X177.279 Y93.845 E10.80035
G1 X176.867 Y96.272 E10.88222
G1 X176.51 Y98.796 E10.96701
G1 X176.228 Y101.294 E11.05062
G1 X176.017 Y103.818 E11.13486
G1 X175.878 Y106.312 E11.21794
G1 X175.809 Y108.836 E11.30192
G1 X175.812 Y111.366 E11.38607
G1 X175.884 Y113.845 E11.46856
G1 X176.031 Y116.399 E11.55364
G1 X176.246 Y118.89 E11.6368
G1 X176.532 Y121.387 E11.7204
G1 X176.889 Y123.875 E11.80399
G1 X177.318 Y126.361 E11.8879
G1 X177.812 Y128.813 E11.97109
G1 X178.38 Y131.27 E12.05497
G1 X179.018 Y133.711 E12.13888
G1 X179.722 Y136.127 E12.22258
G1 X180.499 Y138.533 E12.30668
G1 X181.335 Y140.893 E12.38995
G1 X182.247 Y143.254 E12.47413
G1 X183.217 Y145.566 E12.55752
G1 X184.257 Y147.863 E12.64139
G1 X185.361 Y150.129 E12.72522
G1 X186.538 Y152.378 E12.80965
G1 X187.753 Y154.549 E12.8924
G1 X189.034 Y156.695 E12.97552
G1 X190.403 Y158.845 E13.0603
G1 X191.803 Y160.913 E13.14336
G1 X193.285 Y162.976 E13.22784
G1 X194.807 Y164.97 E13.31128
G1 X196.388 Y166.927 E13.39495
G1 X198.016 Y168.828 E13.4782
G1 X199.72 Y170.708 E13.56259
G1 X201.456 Y172.517 E13.64598
G1 X203.265 Y174.298 E13.73041
G1 X205.075 Y175.982 E13.81264
G1 X207.014 Y177.687 E13.89852
G1 X208.318 Y178.773 E13.95496
G1 X208.482 Y178.912 E13.96211
G1 X208.88 Y179.257 E13.97963
G1 X209.125 Y179.476 E13.99056
G1 X209.301 Y179.638 E13.99852
G1 X209.604 Y179.928 E14.01247
G1 X209.919 Y180.241 E14.02724
G1 X210.157 Y180.484 E14.03855
G1 X210.385 Y180.725 E14.04958
G1 X210.647 Y181.012 E14.06251
G1 X210.84 Y181.231 E14.07222
G1 X211.071 Y181.502 E14.08406
G1 X211.293 Y181.771 E14.09566
G1 X211.526 Y182.063 E14.10809
G1 X211.76 Y182.367 E14.12085
G1 X212.003 Y182.695 E14.13442
G1 X212.154 Y182.907 E14.14308
G1 X212.342 Y183.18 E14.1541
G1 X212.549 Y183.49 E14.1665
G1 X212.741 Y183.789 E14.17832
G1 X212.899 Y184.043 E14.18827
G1 X213.103 Y184.383 E14.20146
G1 X213.299 Y184.725 E14.21457
G1 X213.469 Y185.034 E14.2263
G1 X213.673 Y185.418 E14.24076
G1 X214.004 Y186.096 E14.26586
G1 X214.295 Y186.748 E14.2896
G1 X214.463 Y187.144 E14.30391
G1 X214.606 Y187.511 E14.31701
G1 X214.739 Y187.872 E14.32981
G1 X214.853 Y188.196 E14.34123
G1 X214.975 Y188.562 E14.35406
G1 X215.089 Y188.928 E14.36681
G1 X215.184 Y189.25 E14.37798
G1 X215.299 Y189.67 E14.39246
G1 X215.375 Y189.971 E14.40279
G1 X215.447 Y190.275 E14.41318
G1 X215.54 Y190.693 E14.42742
G1 X215.605 Y191.005 E14.43802
G1 X215.692 Y191.493 E14.45451
G1 X215.772 Y192.014 E14.47204
G1 X215.824 Y192.403 E14.48509
G1 X215.876 Y192.847 E14.49996
G1 X215.913 Y193.213 E14.5122
G1 X215.943 Y193.649 E14.52673
G1 X215.97 Y194.193 E14.54485
G1 X215.982 Y194.528 E14.556
G1 X215.987 Y194.79 E14.56471
G1 X215.987 Y195.211 E14.57871
G1 X215.982 Y195.471 E14.58736
G1 X215.97 Y195.806 E14.59851
G1 X215.943 Y196.349 E14.6166
G1 X215.915 Y196.763 E14.6304
G1 X215.877 Y197.142 E14.64307
G1 X215.824 Y197.595 E14.65824
G1 X215.771 Y197.993 E14.67159
G1 X215.693 Y198.499 E14.68862
G1 X215.611 Y198.966 E14.70439
G1 X215.549 Y199.269 E14.71467
G1 X215.458 Y199.685 E14.72884
G1 X215.365 Y200.076 E14.74221
G1 X215.287 Y200.379 E14.75261
G1 X215.185 Y200.747 E14.76531
G1 X215.096 Y201.049 E14.77579
G1 X214.994 Y201.376 E14.78718
G1 X214.869 Y201.756 E14.80048
G1 X214.72 Y202.181 E14.81546
G1 X214.558 Y202.613 E14.83081
G1 X214.298 Y203.245 E14.85354
G1 X213.999 Y203.913 E14.87788
G1 X213.684 Y204.559 E14.90178
G1 X213.48 Y204.945 E14.9163
G1 X213.292 Y205.287 E14.92928
G1 X213.096 Y205.628 E14.94237
G1 X212.91 Y205.94 E14.95445
G1 X212.752 Y206.195 E14.96443
G1 X212.558 Y206.496 E14.97634
G1 X212.353 Y206.804 E14.98864
G1 X212.144 Y207.107 E15.00088
G1 X211.991 Y207.321 E15.00963
G1 X211.763 Y207.628 E15.02235
G1 X211.54 Y207.918 E15.03452
G1 X211.325 Y208.189 E15.04603
G1 X211.115 Y208.445 E15.05704
G1 X210.846 Y208.76 E15.07082
G1 X210.63 Y209.004 E15.08165
G1 X210.416 Y209.24 E15.09225
G1 X210.188 Y209.483 E15.10333
G1 X209.894 Y209.784 E15.11733
G1 X209.579 Y210.095 E15.13205
G1 X209.35 Y210.315 E15.14261
G1 X209.174 Y210.479 E15.15061
G1 X208.858 Y210.762 E15.16472
G1 X208.662 Y210.931 E15.17333
G1 X208.409 Y211.143 E15.18431
G1 X208.017 Y211.461 E15.2011
G1 X207.718 Y211.695 E15.21373
G1 X207.538 Y211.831 E15.22123
G1 X207.259 Y212.035 E15.23272
G1 X207.013 Y212.209 E15.24275
G1 X206.697 Y212.424 E15.25546
G1 X206.278 Y212.699 E15.27213
G1 X205.914 Y212.928 E15.28643
G1 X205.801 Y212.996 E15.29082
G1 X205.506 Y213.167 E15.30216
G1 X205.058 Y213.418 E15.31924
G1 X204.787 Y213.565 E15.32949
G1 X204.579 Y213.674 E15.3373
G1 X204.21 Y213.859 E15.35103
G1 X203.925 Y213.995 E15.36154
G1 X203.585 Y214.15 E15.37396
G1 X203.186 Y214.324 E15.38844
G1 X202.866 Y214.458 E15.39998
G1 X202.658 Y214.541 E15.40743
G1 X202.292 Y214.679 E15.42044
G1 X201.932 Y214.808 E15.43316
G1 X201.56 Y214.934 E15.44622
G1 X201.086 Y215.085 E15.46277
G1 X200.374 Y215.286 E15.48737
G1 X199.691 Y215.454 E15.51077
G1 X199.032 Y215.595 E15.53318
G1 X198.482 Y215.695 E15.55177
G1 X198.026 Y215.768 E15.56713
G1 X197.781 Y215.802 E15.57536
G1 X197.471 Y215.84 E15.58575
G1 X197.098 Y215.881 E15.59823
G1 X196.728 Y215.916 E15.61059
G1 X196.451 Y215.937 E15.61983
G1 X196.103 Y215.957 E15.63142
