;FLAVOR:Marlin
;TIME:6579
;Filament used: 3.88302m
;Layer height: 0.2
;MINX:65.866
;MINY:70.962
;MINZ:0.2
;MAXX:141.663
;MAXY:132.962
;MAXZ:33
;Generated with Cura_SteamEngine 4.12.1
M140 S60
M105
M190 S60
M104 S220
M105
M109 S220
M82 ;absolute extrusion mode
; Ender 3 Custom Start G-code
G92 E0 ; Reset Extruder
G28 ; Home all axes
G1 Z2.0 F3000 ; Move Z Axis up little to prevent scratching of Heat Bed
G1 X0.1 Y20 Z0.3 F5000.0 ; Move to start position
G1 X0.1 Y200.0 Z0.3 F1500.0 E15 ; Draw the first line
G1 X0.4 Y200.0 Z0.3 F5000.0 ; Move to side a little
G1 X0.4 Y20 Z0.3 F1500.0 E30 ; Draw the second line
G92 E0 ; Reset Extruder
G1 Z2.0 F3000 ; Move Z Axis up little to prevent scratching of Heat Bed
G1 X5 Y20 Z0.3 F5000.0 ; Move over to prevent blob squish
G92 E0
G92 E0
G1 F1500 E-6.5
;LAYER_COUNT:165
;LAYER:0
M107
G0 F6000 X76.428 Y75.716 Z0.2
;TYPE:SKIRT
G1 F1500 E0
G1 F1200 X77.241 Y74.904 E0.03822
G1 X78.281 Y73.988 E0.08431
G1 X78.489 Y73.827 E0.09306
G1 X79.241 Y73.294 E0.12372
G1 X79.471 Y73.145 E0.13283
G1 X80.387 Y72.612 E0.16808
G1 X80.655 Y72.473 E0.17812
G1 X81.714 Y71.993 E0.21679
G1 X82.003 Y71.88 E0.22711
G1 X83.033 Y71.535 E0.26324
G1 X83.307 Y71.458 E0.27271
G1 X84.285 Y71.231 E0.3061
G1 X84.534 Y71.185 E0.31452
G1 X85.462 Y71.054 E0.3457
G1 X86.004 Y71.015 E0.36377
G1 X86.732 Y70.98 E0.38801
G1 X87.108 Y70.968 E0.40052
G1 X87.619 Y70.962 E0.41752
G1 X113.948 Y70.964 E1.29323
G1 X115.089 Y70.962 E1.33118
G1 X120.063 Y70.963 E1.49661
G1 X120.424 Y70.968 E1.50862
G1 X120.812 Y70.98 E1.52153
G1 X121.544 Y71.016 E1.54591
G1 X122.692 Y71.133 E1.58429
G1 X122.795 Y71.149 E1.58775
G1 X123.805 Y71.355 E1.62204
G1 X124.137 Y71.439 E1.63343
G1 X125.097 Y71.729 E1.66678
G1 X125.409 Y71.839 E1.67779
G1 X126.544 Y72.312 E1.71868
G1 X126.796 Y72.434 E1.728
G1 X127.754 Y72.958 E1.76431
G1 X128.01 Y73.115 E1.7743
G1 X128.821 Y73.664 E1.80688
G1 X129.047 Y73.832 E1.81624
G1 X129.806 Y74.45 E1.8488
G1 X129.926 Y74.557 E1.85414
G1 X130.238 Y74.846 E1.86829
G1 X130.458 Y75.058 E1.87845
G1 X130.707 Y75.306 E1.89014
G1 X131 Y75.607 E1.90411
G1 X131.721 Y76.373 E1.9391
G1 X131.954 Y76.629 E1.95061
G1 X132.424 Y77.165 E1.97432
G1 X132.982 Y77.824 E2.00304
G1 X133.156 Y78.035 E2.01214
G1 X133.416 Y78.358 E2.02593
G1 X133.589 Y78.578 E2.03524
G1 X134.158 Y79.323 E2.06642
G1 X134.32 Y79.542 E2.07548
G1 X134.555 Y79.866 E2.08879
G1 X134.707 Y80.08 E2.09752
G1 X135.211 Y80.811 E2.12705
G1 X135.367 Y81.043 E2.13635
G1 X135.615 Y81.423 E2.15144
G1 X135.751 Y81.638 E2.15991
G1 X136.226 Y82.404 E2.18988
G1 X136.373 Y82.647 E2.19933
G1 X136.583 Y83.006 E2.21316
G1 X136.717 Y83.241 E2.22216
G1 X137.16 Y84.043 E2.25263
G1 X137.3 Y84.306 E2.26254
G1 X137.507 Y84.706 E2.27752
G1 X137.617 Y84.924 E2.28564
G1 X137.999 Y85.704 E2.31453
G1 X138.108 Y85.934 E2.323
G1 X138.251 Y86.244 E2.33435
G1 X138.362 Y86.492 E2.34339
G1 X138.754 Y87.4 E2.37628
G1 X138.867 Y87.67 E2.38602
G1 X139.032 Y88.082 E2.40078
G1 X139.131 Y88.34 E2.40997
G1 X139.425 Y89.131 E2.43804
G1 X139.511 Y89.37 E2.44649
G1 X139.671 Y89.833 E2.46278
G1 X139.765 Y90.12 E2.47282
G1 X140.053 Y91.034 E2.5047
G1 X140.137 Y91.31 E2.51429
G1 X140.241 Y91.673 E2.52685
G1 X140.305 Y91.909 E2.53498
G1 X140.528 Y92.758 E2.56418
G1 X140.594 Y93.023 E2.57326
G1 X140.693 Y93.442 E2.58758
G1 X140.752 Y93.706 E2.59658
G1 X140.942 Y94.609 E2.62727
G1 X140.989 Y94.845 E2.63528
G1 X141.05 Y95.17 E2.64627
G1 X141.1 Y95.455 E2.6559
G1 X141.259 Y96.445 E2.68925
G1 X141.304 Y96.755 E2.69967
G1 X141.388 Y97.408 E2.72156
G1 X141.478 Y98.223 E2.74884
G1 X141.506 Y98.513 E2.75853
G1 X141.548 Y99.015 E2.77528
G1 X141.567 Y99.284 E2.78425
G1 X141.624 Y100.25 E2.81643
G1 X141.637 Y100.539 E2.82606
G1 X141.648 Y100.876 E2.83727
G1 X141.653 Y101.112 E2.84512
G1 X141.663 Y102.004 E2.87479
G1 X141.662 Y102.314 E2.8851
G1 X141.648 Y103.022 E2.90866
G1 X141.615 Y103.878 E2.93715
G1 X141.6 Y104.163 E2.94664
G1 X141.573 Y104.581 E2.96057
G1 X141.553 Y104.844 E2.96934
G1 X141.468 Y105.802 E3.00133
G1 X141.436 Y106.111 E3.01167
G1 X141.361 Y106.735 E3.03257
G1 X141.242 Y107.597 E3.06151
G1 X141.197 Y107.89 E3.07137
G1 X141.12 Y108.355 E3.08705
G1 X141.075 Y108.607 E3.09556
G1 X140.911 Y109.472 E3.12484
G1 X140.855 Y109.751 E3.13431
G1 X140.766 Y110.162 E3.1483
G1 X140.712 Y110.397 E3.15632
G1 X140.499 Y111.286 E3.18672
G1 X140.419 Y111.602 E3.19756
G1 X140.31 Y112.004 E3.21142
G1 X139.988 Y113.104 E3.24954
G1 X139.904 Y113.379 E3.2591
G1 X139.769 Y113.797 E3.27371
G1 X139.688 Y114.035 E3.28207
G1 X139.396 Y114.873 E3.31159
G1 X139.292 Y115.161 E3.32177
G1 X139.14 Y115.561 E3.336
G1 X139.053 Y115.782 E3.3439
G1 X138.717 Y116.612 E3.37369
G1 X138.616 Y116.853 E3.38238
G1 X138.421 Y117.301 E3.39863
G1 X138.294 Y117.584 E3.40894
G1 X137.947 Y118.33 E3.43631
G1 X137.821 Y118.593 E3.44601
G1 X137.601 Y119.035 E3.46243
G1 X137.496 Y119.24 E3.47009
G1 X137.117 Y119.963 E3.49724
G1 X136.965 Y120.242 E3.50781
G1 X136.737 Y120.648 E3.5233
G1 X136.621 Y120.85 E3.53104
G1 X136.161 Y121.63 E3.56116
G1 X135.997 Y121.898 E3.57161
G1 X135.629 Y122.48 E3.59452
G1 X135.15 Y123.206 E3.62344
G1 X135.011 Y123.411 E3.63168
G1 X134.815 Y123.694 E3.64313
G1 X134.65 Y123.926 E3.6526
G1 X134.056 Y124.738 E3.68606
G1 X133.857 Y125.001 E3.69703
G1 X133.448 Y125.523 E3.71909
G1 X132.928 Y126.165 E3.74657
G1 X132.733 Y126.399 E3.7567
G1 X132.41 Y126.776 E3.77321
G1 X132.239 Y126.971 E3.78184
G1 X131.654 Y127.622 E3.81095
G1 X131.482 Y127.809 E3.8194
G1 X131.194 Y128.115 E3.83337
G1 X130.984 Y128.332 E3.84342
G1 X130.452 Y128.867 E3.86851
G1 X129.935 Y129.355 E3.89216
G1 X129.712 Y129.552 E3.90205
G1 X129.017 Y130.117 E3.93184
G1 X128.902 Y130.203 E3.93662
G1 X127.931 Y130.851 E3.97545
G1 X127.5 Y131.107 E3.99212
G1 X126.333 Y131.71 E4.03581
G1 X126.125 Y131.802 E4.04338
G1 X125.341 Y132.113 E4.07143
G1 X125.109 Y132.195 E4.07961
G1 X124.211 Y132.47 E4.11085
G1 X124.011 Y132.522 E4.11772
G1 X123.26 Y132.689 E4.14331
G1 X122.992 Y132.739 E4.15238
G1 X122.173 Y132.861 E4.17992
G1 X122.027 Y132.877 E4.1848
G1 X121.478 Y132.923 E4.20313
G1 X121.275 Y132.935 E4.20989
G1 X120.86 Y132.952 E4.22371
G1 X120.225 Y132.961 E4.24483
G1 X114.754 Y132.962 E4.42679
G1 X87.387 Y132.962 E5.33702
G1 X86.951 Y132.958 E5.35153
G1 X86.657 Y132.951 E5.36131
G1 X86.379 Y132.941 E5.37056
G1 X85.527 Y132.877 E5.39898
G1 X85.229 Y132.843 E5.40895
G1 X84.303 Y132.697 E5.44013
G1 X83.808 Y132.586 E5.457
G1 X83.332 Y132.467 E5.47332
G1 X82.127 Y132.091 E5.51531
G1 X81.917 Y132.012 E5.52277
G1 X81.248 Y131.735 E5.54685
G1 X81.098 Y131.667 E5.55233
G1 X80.037 Y131.114 E5.59213
G1 X79.645 Y130.882 E5.60728
G1 X78.635 Y130.206 E5.6477
G1 X78.421 Y130.045 E5.65661
G1 X77.644 Y129.403 E5.69013
G1 X77.515 Y129.286 E5.69592
G1 X77.238 Y129.026 E5.70856
G1 X76.952 Y128.748 E5.72182
G1 X76.673 Y128.467 E5.73499
G1 X76.375 Y128.155 E5.74934
G1 X75.808 Y127.551 E5.7769
G1 X75.587 Y127.308 E5.78782
G1 X75.259 Y126.937 E5.80429
G1 X75.106 Y126.76 E5.81207
G1 X74.547 Y126.1 E5.84084
G1 X74.379 Y125.897 E5.84961
G1 X74.108 Y125.561 E5.86396
G1 X73.927 Y125.33 E5.87372
G1 X73.391 Y124.628 E5.9031
G1 X73.234 Y124.417 E5.91185
G1 X72.966 Y124.048 E5.92702
G1 X72.809 Y123.826 E5.93606
G1 X72.319 Y123.115 E5.96478
G1 X72.16 Y122.878 E5.97427
G1 X71.9 Y122.479 E5.99011
G1 X71.755 Y122.251 E5.9991
G1 X71.252 Y121.436 E6.03095
G1 X71.099 Y121.18 E6.04087
G1 X70.812 Y120.682 E6.05999
G1 X70.394 Y119.927 E6.08869
G1 X70.251 Y119.659 E6.0988
G1 X70.007 Y119.188 E6.11644
G1 X69.887 Y118.949 E6.12533
G1 X69.514 Y118.184 E6.15364
G1 X69.4 Y117.944 E6.16248
G1 X69.22 Y117.551 E6.17686
G1 X69.112 Y117.308 E6.1857
G1 X68.764 Y116.497 E6.21505
G1 X68.661 Y116.249 E6.22398
G1 X68.498 Y115.842 E6.23857
G1 X68.398 Y115.582 E6.24783
G1 X68.089 Y114.75 E6.27735
G1 X67.995 Y114.487 E6.28664
G1 X67.85 Y114.064 E6.30151
G1 X67.77 Y113.82 E6.31005
G1 X67.5 Y112.968 E6.33978
G1 X67.418 Y112.697 E6.3492
G1 X67.297 Y112.278 E6.3637
G1 X67.229 Y112.031 E6.37222
G1 X67.012 Y111.208 E6.40053
G1 X66.942 Y110.928 E6.41013
G1 X66.813 Y110.381 E6.42882
G1 X66.751 Y110.105 E6.43823
G1 X66.582 Y109.296 E6.46572
G1 X66.533 Y109.047 E6.47416
G1 X66.467 Y108.69 E6.48624
G1 X66.424 Y108.441 E6.49464
G1 X66.276 Y107.523 E6.52557
G1 X66.23 Y107.206 E6.53622
G1 X66.14 Y106.506 E6.55969
G1 X66.045 Y105.639 E6.5887
G1 X66.02 Y105.374 E6.59756
G1 X65.984 Y104.951 E6.61168
G1 X65.964 Y104.674 E6.62091
G1 X65.91 Y103.77 E6.65103
G1 X65.897 Y103.504 E6.65989
G1 X65.881 Y103.053 E6.6749
G1 X65.875 Y102.777 E6.68408
G1 X65.866 Y101.912 E6.71286
G1 X65.867 Y101.611 E6.72287
G1 X65.881 Y100.903 E6.74642
G1 X65.914 Y100.047 E6.77491
G1 X65.929 Y99.764 E6.78434
G1 X65.956 Y99.345 E6.7983
G1 X65.976 Y99.079 E6.80717
G1 X66.061 Y98.122 E6.83913
G1 X66.092 Y97.821 E6.84919
G1 X66.139 Y97.418 E6.86269
G1 X66.17 Y97.178 E6.87074
G1 X66.291 Y96.307 E6.89999
G1 X66.336 Y96.009 E6.91001
G1 X66.416 Y95.53 E6.92616
G1 X66.456 Y95.305 E6.93376
G1 X66.613 Y94.472 E6.96196
G1 X66.669 Y94.196 E6.97132
G1 X66.763 Y93.759 E6.98619
G1 X66.826 Y93.484 E6.99557
G1 X67.033 Y92.629 E7.02483
G1 X67.108 Y92.337 E7.03486
G1 X67.229 Y91.891 E7.05023
G1 X67.294 Y91.66 E7.05821
G1 X67.547 Y90.802 E7.08796
G1 X67.632 Y90.528 E7.0975
G1 X67.763 Y90.123 E7.11166
G1 X67.842 Y89.889 E7.11988
G1 X68.134 Y89.051 E7.14939
G1 X68.235 Y88.771 E7.15929
G1 X68.387 Y88.37 E7.17356
G1 X68.475 Y88.145 E7.18159
G1 X68.82 Y87.292 E7.2122
G1 X68.947 Y86.992 E7.22303
G1 X69.208 Y86.402 E7.24449
G1 X69.584 Y85.591 E7.27422
G1 X69.71 Y85.328 E7.28392
G1 X69.907 Y84.931 E7.29866
G1 X70.022 Y84.706 E7.30706
G1 X70.418 Y83.952 E7.33539
G1 X70.547 Y83.715 E7.34437
G1 X70.772 Y83.311 E7.35975
G1 X70.917 Y83.058 E7.36945
G1 X71.373 Y82.288 E7.39921
G1 X71.501 Y82.078 E7.40739
G1 X71.714 Y81.736 E7.42079
G1 X71.866 Y81.499 E7.43015
G1 X72.376 Y80.725 E7.46098
G1 X72.538 Y80.486 E7.47059
G1 X72.789 Y80.126 E7.48518
G1 X72.936 Y79.92 E7.4936
G1 X73.493 Y79.159 E7.52497
G1 X73.704 Y78.879 E7.53663
G1 X74.043 Y78.449 E7.55484
G1 X74.642 Y77.71 E7.58648
G1 X74.83 Y77.484 E7.59626
G1 X75.115 Y77.151 E7.61084
G1 X75.283 Y76.96 E7.6193
G1 X75.865 Y76.311 E7.64829
G1 X76.048 Y76.111 E7.65731
G1 X76.195 Y75.955 E7.66444
G1 X76.428 Y75.716 E7.67554
G0 F6000 X76.71 Y75.999
G1 F1200 X77.523 Y75.187 E7.71375
G1 X78.526 Y74.305 E7.75818
G1 X78.734 Y74.144 E7.76693
G1 X79.459 Y73.63 E7.79649
G1 X79.689 Y73.481 E7.8056
G1 X80.572 Y72.967 E7.83958
G1 X80.84 Y72.828 E7.84962
G1 X81.86 Y72.366 E7.88687
G1 X82.149 Y72.253 E7.89719
G1 X83.141 Y71.92 E7.93199
G1 X83.415 Y71.843 E7.94146
G1 X84.357 Y71.624 E7.97362
G1 X84.606 Y71.578 E7.98205
G1 X85.518 Y71.451 E8.01267
G1 X86.023 Y71.414 E8.02951
G1 X86.751 Y71.379 E8.05375
G1 X87.113 Y71.368 E8.0658
G1 X87.619 Y71.362 E8.08263
G1 X113.947 Y71.364 E8.9583
G1 X115.089 Y71.362 E8.99629
G1 X120.058 Y71.363 E9.16156
G1 X120.419 Y71.368 E9.17356
G1 X120.793 Y71.38 E9.18601
G1 X121.525 Y71.416 E9.21039
G1 X122.631 Y71.529 E9.24736
G1 X122.734 Y71.545 E9.25083
G1 X123.707 Y71.743 E9.28386
G1 X124.039 Y71.827 E9.29525
G1 X124.964 Y72.106 E9.32738
G1 X125.276 Y72.216 E9.33838
G1 X126.37 Y72.672 E9.37781
G1 X126.622 Y72.794 E9.38712
G1 X127.545 Y73.299 E9.42211
G1 X127.801 Y73.456 E9.4321
G1 X128.583 Y73.985 E9.4635
G1 X128.809 Y74.153 E9.47287
G1 X129.54 Y74.748 E9.50422
G1 X129.66 Y74.855 E9.50956
G1 X129.96 Y75.134 E9.52319
G1 X130.18 Y75.346 E9.53335
G1 X130.421 Y75.585 E9.54464
G1 X130.846 Y76.024 E9.56496
G1 X131.43 Y76.646 E9.59334
G1 X131.654 Y76.893 E9.60443
G1 X132.119 Y77.423 E9.62788
G1 X132.677 Y78.082 E9.6566
G1 X132.844 Y78.285 E9.66534
G1 X133.104 Y78.608 E9.67914
G1 X133.271 Y78.821 E9.68814
G1 X133.84 Y79.566 E9.71932
G1 X133.997 Y79.776 E9.72804
G1 X134.232 Y80.1 E9.74135
G1 X134.378 Y80.307 E9.74978
G1 X134.882 Y81.038 E9.77931
G1 X135.032 Y81.262 E9.78827
G1 X135.28 Y81.642 E9.80337
G1 X135.412 Y81.849 E9.81153
G1 X135.887 Y82.615 E9.84151
G1 X136.028 Y82.849 E9.8506
G1 X136.238 Y83.208 E9.86443
G1 X136.367 Y83.435 E9.87311
G1 X136.81 Y84.237 E9.90359
G1 X136.945 Y84.49 E9.91312
G1 X137.152 Y84.89 E9.9281
G1 X137.258 Y85.1 E9.93593
G1 X137.64 Y85.88 E9.96482
G1 X137.888 Y86.412 E9.98434
G1 X137.995 Y86.651 E9.99305
G1 X138.387 Y87.559 E10.02594
G1 X138.495 Y87.819 E10.03531
G1 X138.66 Y88.231 E10.05007
G1 X138.756 Y88.479 E10.05891
G1 X139.05 Y89.27 E10.08698
G1 X139.133 Y89.501 E10.09514
G1 X139.293 Y89.964 E10.11144
G1 X139.384 Y90.24 E10.1211
G1 X139.672 Y91.154 E10.15298
G1 X139.752 Y91.421 E10.16225
G1 X139.856 Y91.784 E10.17481
G1 X139.918 Y92.01 E10.1826
G1 X140.141 Y92.859 E10.2118
G1 X140.205 Y93.115 E10.22057
G1 X140.304 Y93.534 E10.23489
G1 X140.361 Y93.788 E10.24355
G1 X140.551 Y94.691 E10.27424
G1 X140.657 Y95.244 E10.29297
G1 X140.705 Y95.518 E10.30222
G1 X140.864 Y96.508 E10.33557
G1 X140.908 Y96.807 E10.34562
G1 X140.964 Y97.233 E10.35991
G1 X140.99 Y97.452 E10.36725
G1 X141.08 Y98.267 E10.39452
G1 X141.107 Y98.546 E10.40384
G1 X141.149 Y99.048 E10.4206
G1 X141.168 Y99.308 E10.42927
G1 X141.225 Y100.274 E10.46145
G1 X141.237 Y100.552 E10.47071
G1 X141.248 Y100.889 E10.48192
G1 X141.253 Y101.116 E10.48948
G1 X141.263 Y102.008 E10.51915
G1 X141.262 Y102.307 E10.52909
G1 X141.254 Y102.778 E10.54476
G1 X141.248 Y103.006 E10.55234
G1 X141.215 Y103.862 E10.58084
G1 X141.201 Y104.137 E10.58999
G1 X141.174 Y104.555 E10.60393
G1 X141.155 Y104.809 E10.6124
G1 X141.07 Y105.767 E10.64439
G1 X141.039 Y106.064 E10.65432
G1 X140.992 Y106.465 E10.66775
G1 X140.964 Y106.681 E10.67499
G1 X140.845 Y107.543 E10.70393
G1 X140.803 Y107.825 E10.71342
G1 X140.726 Y108.29 E10.72909
G1 X140.682 Y108.533 E10.73731
G1 X140.518 Y109.398 E10.76659
G1 X140.464 Y109.666 E10.77568
G1 X140.375 Y110.077 E10.78967
G1 X140.323 Y110.304 E10.79741
G1 X140.11 Y111.193 E10.82782
G1 X140.033 Y111.497 E10.83825
G1 X139.924 Y111.899 E10.8521
G1 X139.862 Y112.118 E10.85967
G1 X139.605 Y112.991 E10.88994
G1 X139.523 Y113.256 E10.89917
G1 X139.388 Y113.674 E10.91378
G1 X139.311 Y113.904 E10.92184
G1 X139.019 Y114.742 E10.95136
G1 X138.918 Y115.019 E10.96117
G1 X138.766 Y115.419 E10.9754
G1 X138.682 Y115.632 E10.98301
G1 X138.346 Y116.462 E11.0128
G1 X138.249 Y116.694 E11.02116
G1 X138.003 Y117.258 E11.04163
G1 X137.584 Y118.162 E11.07477
G1 X137.463 Y118.414 E11.08406
G1 X137.243 Y118.856 E11.10048
G1 X136.762 Y119.777 E11.13504
G1 X136.616 Y120.046 E11.14522
G1 X136.388 Y120.452 E11.16071
G1 X136.276 Y120.647 E11.16819
G1 X135.816 Y121.427 E11.19831
G1 X135.659 Y121.685 E11.20835
G1 X135.295 Y122.26 E11.23099
G1 X134.816 Y122.986 E11.25992
G1 X134.486 Y123.466 E11.27929
G1 X134.327 Y123.689 E11.2884
G1 X133.733 Y124.501 E11.32186
G1 X133.541 Y124.756 E11.33248
G1 X133.137 Y125.272 E11.35427
G1 X132.617 Y125.914 E11.38175
G1 X132.43 Y126.139 E11.39148
G1 X132.107 Y126.516 E11.408
G1 X131.941 Y126.704 E11.41634
G1 X131.356 Y127.355 E11.44545
G1 X131.191 Y127.535 E11.45357
G1 X130.903 Y127.841 E11.46755
G1 X130.7 Y128.05 E11.47724
G1 X130.168 Y128.585 E11.50233
G1 X129.67 Y129.055 E11.52511
G1 X129.447 Y129.252 E11.535
G1 X128.777 Y129.797 E11.56373
G1 X128.662 Y129.883 E11.5685
G1 X127.727 Y130.508 E11.60591
G1 X127.296 Y130.764 E11.62258
G1 X126.171 Y131.344 E11.66468
G1 X125.963 Y131.436 E11.67225
G1 X125.207 Y131.736 E11.6993
G1 X124.975 Y131.818 E11.70748
G1 X124.11 Y132.083 E11.73757
G1 X123.91 Y132.135 E11.74445
G1 X123.187 Y132.296 E11.76908
G1 X122.919 Y132.346 E11.77815
G1 X122.13 Y132.463 E11.80468
G1 X121.984 Y132.479 E11.80956
G1 X121.455 Y132.524 E11.82722
G1 X121.252 Y132.536 E11.83399
G1 X120.848 Y132.552 E11.84743
G1 X120.22 Y132.561 E11.86832
G1 X114.755 Y132.562 E12.05009
G1 X87.391 Y132.562 E12.96022
G1 X86.955 Y132.558 E12.97472
G1 X86.671 Y132.551 E12.98417
G1 X86.393 Y132.541 E12.99342
G1 X85.572 Y132.48 E13.0208
G1 X85.274 Y132.446 E13.03078
G1 X84.365 Y132.302 E13.06139
G1 X83.905 Y132.198 E13.07708
G1 X83.429 Y132.079 E13.0934
G1 X82.268 Y131.716 E13.13385
G1 X82.058 Y131.637 E13.14132
G1 X81.413 Y131.37 E13.16453
G1 X81.263 Y131.302 E13.17001
G1 X80.241 Y130.77 E13.20833
G1 X79.849 Y130.538 E13.22348
G1 X78.875 Y129.886 E13.26247
