;FLAVOR:Marlin
;TIME:1729
;Filament used: 0.620507m
;Layer height: 0.15
;MINX:76.626
;MINY:73.381
;MINZ:0.2
;MAXX:127.931
;MAXY:136.044
;MAXZ:4.55
;Generated with Cura_SteamEngine 4.12.1
M140 S60
M105
M190 S60
M104 S220
M105
M109 S220
M82 ;absolute extrusion mode
; Ender 3 Custom Start G-code
G92 E0 ; Reset Extruder
G28 ; Home all axes
G1 Z2.0 F3000 ; Move Z Axis up little to prevent scratching of Heat Bed
G1 X0.1 Y20 Z0.3 F5000.0 ; Move to start position
G1 X0.1 Y200.0 Z0.3 F1500.0 E15 ; Draw the first line
G1 X0.4 Y200.0 Z0.3 F5000.0 ; Move to side a little
G1 X0.4 Y20 Z0.3 F1500.0 E30 ; Draw the second line
G92 E0 ; Reset Extruder
G1 Z2.0 F3000 ; Move Z Axis up little to prevent scratching of Heat Bed
G1 X5 Y20 Z0.3 F5000.0 ; Move over to prevent blob squish
G92 E0
G92 E0
G1 F1500 E-6.5
;LAYER_COUNT:30
;LAYER:0
M107
G0 F6000 X86.258 Y79.8 Z0.2
;TYPE:SKIRT
G1 F1500 E0
G1 F1200 X86.903 Y79.123 E0.0311
G1 X88.193 Y77.813 E0.09225
G1 X88.793 Y77.22 E0.12031
G1 X89.488 Y76.591 E0.15149
G1 X90.235 Y76.023 E0.1827
G1 X91.027 Y75.521 E0.21389
G1 X91.859 Y75.088 E0.24508
G1 X92.725 Y74.728 E0.27627
G1 X93.618 Y74.442 E0.30746
G1 X94.533 Y74.234 E0.33867
G1 X95.744 Y74.081 E0.37927
G1 X95.908 Y74.07 E0.38474
G1 X98.476 Y73.85 E0.47046
G1 X101.027 Y73.558 E0.55586
G1 X101.525 Y73.494 E0.57256
G1 X101.804 Y73.462 E0.5819
G1 X102.747 Y73.394 E0.61335
G1 X103.066 Y73.385 E0.62396
G1 X103.376 Y73.381 E0.63427
G1 X107.339 Y73.381 E0.76608
G1 X108.198 Y73.392 E0.79466
G1 X109.134 Y73.445 E0.82584
G1 X110.062 Y73.578 E0.85702
G1 X110.976 Y73.79 E0.88822
G1 X111.869 Y74.078 E0.91943
G1 X112.733 Y74.442 E0.95062
G1 X113.564 Y74.878 E0.98183
G1 X114.354 Y75.383 E1.01301
G1 X115.098 Y75.953 E1.04419
G1 X115.767 Y76.561 E1.07425
G1 X116.404 Y77.191 E1.10405
G1 X117.752 Y78.56 E1.16795
G1 X118.204 Y79.032 E1.18969
G1 X118.835 Y79.752 E1.22153
G1 X119.519 Y80.606 E1.25792
G1 X120.623 Y82.035 E1.31798
G1 X121.025 Y82.57 E1.34024
G1 X121.572 Y83.37 E1.37248
G1 X122.182 Y84.353 E1.41095
G1 X123.059 Y85.823 E1.46789
G1 X123.411 Y86.431 E1.49125
G1 X123.861 Y87.294 E1.52362
G1 X124.332 Y88.308 E1.56081
G1 X125.06 Y89.945 E1.6204
G1 X125.311 Y90.53 E1.64157
G1 X125.653 Y91.434 E1.67372
G1 X125.946 Y92.326 E1.70495
G1 X126.008 Y92.521 E1.71175
G1 X126.545 Y94.269 E1.77257
G1 X126.716 Y94.855 E1.79287
G1 X126.941 Y95.772 E1.82428
G1 X127.133 Y96.729 E1.85674
G1 X127.171 Y96.928 E1.86348
G1 X127.473 Y98.597 E1.91989
G1 X127.591 Y99.302 E1.94367
G1 X127.709 Y100.265 E1.97594
G1 X127.78 Y101.178 E2.0064
G1 X127.889 Y102.962 E2.06584
G1 X127.929 Y103.804 E2.09388
G1 X127.931 Y104.777 E2.12624
G1 X127.891 Y105.726 E2.15783
G1 X127.881 Y105.922 E2.16436
G1 X127.776 Y107.659 E2.22224
G1 X127.725 Y108.348 E2.24522
G1 X127.611 Y109.312 E2.2775
G1 X127.46 Y110.235 E2.30861
G1 X127.136 Y112.027 E2.36918
G1 X126.988 Y112.794 E2.39516
G1 X126.755 Y113.759 E2.42818
G1 X126.437 Y114.85 E2.46598
G1 X125.912 Y116.544 E2.52496
G1 X125.713 Y117.16 E2.54649
G1 X125.37 Y118.08 E2.57915
G1 X124.937 Y119.097 E2.61591
G1 X124.249 Y120.64 E2.67211
G1 X123.93 Y121.332 E2.69745
G1 X123.478 Y122.207 E2.73021
G1 X122.948 Y123.126 E2.76549
G1 X122.004 Y124.704 E2.82665
G1 X121.665 Y125.254 E2.84814
G1 X121.119 Y126.058 E2.88046
G1 X120.55 Y126.821 E2.91212
G1 X119.362 Y128.358 E2.97673
G1 X118.942 Y128.886 E2.99917
G1 X118.298 Y129.625 E3.03177
G1 X117.656 Y130.299 E3.06273
G1 X116.387 Y131.588 E3.12289
G1 X115.784 Y132.186 E3.15114
G1 X115.09 Y132.817 E3.18234
G1 X114.345 Y133.387 E3.21354
G1 X113.554 Y133.891 E3.24473
G1 X112.723 Y134.325 E3.27591
G1 X111.858 Y134.688 E3.30711
G1 X110.965 Y134.975 E3.33831
G1 X110.051 Y135.185 E3.3695
G1 X108.837 Y135.341 E3.41021
G1 X108.699 Y135.351 E3.41482
G1 X106.052 Y135.578 E3.50318
G1 X103.501 Y135.87 E3.58858
G1 X103.002 Y135.935 E3.60532
G1 X102.737 Y135.965 E3.61419
G1 X101.81 Y136.031 E3.6451
G1 X101.491 Y136.04 E3.65571
G1 X101.181 Y136.044 E3.66602
G1 X97.061 Y136.043 E3.80305
G1 X96.359 Y136.033 E3.82641
G1 X95.423 Y135.98 E3.85759
G1 X94.495 Y135.847 E3.88877
G1 X93.581 Y135.635 E3.91997
G1 X92.688 Y135.347 E3.95118
G1 X91.824 Y134.983 E3.98236
G1 X90.993 Y134.547 E4.01358
G1 X90.203 Y134.042 E4.04476
G1 X89.459 Y133.472 E4.07594
G1 X88.789 Y132.863 E4.10605
G1 X88.144 Y132.225 E4.13622
G1 X86.805 Y130.865 E4.1997
G1 X86.353 Y130.393 E4.22144
G1 X85.721 Y129.673 E4.2533
G1 X85.15 Y128.962 E4.28363
G1 X85.025 Y128.803 E4.29036
G1 X83.932 Y127.387 E4.34985
G1 X83.528 Y126.849 E4.37223
G1 X82.986 Y126.058 E4.40412
G1 X82.496 Y125.271 E4.43496
G1 X82.389 Y125.095 E4.44181
G1 X81.462 Y123.54 E4.50202
G1 X81.141 Y122.985 E4.52335
G1 X80.696 Y122.131 E4.55538
G1 X80.241 Y121.154 E4.59122
G1 X79.496 Y119.478 E4.65223
G1 X79.246 Y118.895 E4.67332
G1 X78.903 Y117.985 E4.70567
G1 X78.595 Y117.045 E4.73857
G1 X78.074 Y115.361 E4.7972
G1 X77.839 Y114.56 E4.82496
G1 X77.614 Y113.647 E4.85624
G1 X77.426 Y112.711 E4.88799
G1 X77.108 Y110.966 E4.94699
G1 X76.965 Y110.117 E4.97562
G1 X76.849 Y109.163 E5.00759
G1 X76.776 Y108.223 E5.03894
G1 X76.666 Y106.406 E5.09949
G1 X76.628 Y105.606 E5.12613
G1 X76.626 Y104.635 E5.15842
G1 X76.664 Y103.735 E5.18838
G1 X76.674 Y103.541 E5.19484
G1 X76.783 Y101.742 E5.25479
G1 X76.833 Y101.074 E5.27707
G1 X76.945 Y100.125 E5.30885
G1 X77.103 Y99.156 E5.34151
G1 X77.137 Y98.959 E5.34816
G1 X77.454 Y97.22 E5.40695
G1 X77.573 Y96.613 E5.42752
G1 X77.801 Y95.672 E5.45972
G1 X78.12 Y94.575 E5.49772
G1 X78.641 Y92.891 E5.55635
G1 X78.838 Y92.279 E5.57774
G1 X79.187 Y91.344 E5.61093
G1 X79.629 Y90.309 E5.64836
G1 X80.362 Y88.664 E5.70826
G1 X80.626 Y88.092 E5.72921
G1 X81.079 Y87.217 E5.76198
G1 X81.625 Y86.27 E5.79834
G1 X82.558 Y84.71 E5.8588
G1 X82.895 Y84.164 E5.88014
G1 X83.439 Y83.364 E5.91232
G1 X84.006 Y82.604 E5.94385
G1 X85.092 Y81.198 E6.00294
G1 X85.609 Y80.546 E6.03062
G1 X86.258 Y79.8 E6.06351
G0 F6000 X86.547 Y80.076
G1 F1200 X87.32 Y79.267 E6.10072
G1 X88.477 Y78.094 E6.15552
G1 X89.074 Y77.505 E6.18342
G1 X89.757 Y76.888 E6.21403
G1 X90.491 Y76.332 E6.24466
G1 X91.27 Y75.842 E6.27526
G1 X92.089 Y75.422 E6.30588
G1 X92.942 Y75.074 E6.33652
G1 X93.821 Y74.802 E6.36712
G1 X94.721 Y74.607 E6.39775
G1 X95.772 Y74.48 E6.43296
G1 X95.969 Y74.466 E6.43953
G1 X98.523 Y74.248 E6.52479
G1 X101.07 Y73.957 E6.61005
G1 X101.57 Y73.891 E6.62682
G1 X101.849 Y73.859 E6.63617
G1 X102.758 Y73.794 E6.66648
G1 X103.077 Y73.785 E6.67709
G1 X103.376 Y73.781 E6.68704
G1 X107.339 Y73.781 E6.81885
G1 X108.192 Y73.792 E6.84722
G1 X109.111 Y73.845 E6.87784
G1 X110.022 Y73.978 E6.90846
G1 X110.918 Y74.189 E6.93907
G1 X111.793 Y74.477 E6.96971
G1 X112.639 Y74.84 E7.00033
G1 X113.45 Y75.275 E7.03094
G1 X114.221 Y75.779 E7.06158
G1 X114.945 Y76.347 E7.09218
G1 X115.486 Y76.846 E7.11666
G1 X116.119 Y77.472 E7.14627
G1 X117.463 Y78.837 E7.20999
G1 X117.915 Y79.309 E7.23172
G1 X118.523 Y80.002 E7.26238
G1 X119.202 Y80.85 E7.29852
G1 X120.303 Y82.275 E7.35841
G1 X120.705 Y82.81 E7.38067
G1 X121.233 Y83.581 E7.41175
G1 X121.839 Y84.558 E7.44999
G1 X122.713 Y86.023 E7.50673
G1 X123.065 Y86.631 E7.53009
G1 X123.498 Y87.463 E7.56129
G1 X123.891 Y88.306 E7.59222
G1 X124.633 Y89.968 E7.65276
G1 X124.943 Y90.687 E7.6788
G1 X125.273 Y91.559 E7.70981
G1 X125.566 Y92.451 E7.74104
G1 X126.161 Y94.381 E7.80821
G1 X126.332 Y94.967 E7.82852
G1 X126.549 Y95.851 E7.85879
G1 X126.741 Y96.808 E7.89126
G1 X127.079 Y98.663 E7.95397
G1 X127.197 Y99.368 E7.97774
G1 X127.31 Y100.296 E8.00884
G1 X127.394 Y101.393 E8.04543
G1 X127.498 Y103.133 E8.10341
G1 X127.53 Y103.823 E8.12638
G1 X127.532 Y104.76 E8.15755
G1 X127.492 Y105.709 E8.18914
G1 X127.387 Y107.482 E8.24821
G1 X127.326 Y108.318 E8.27609
G1 X127.216 Y109.247 E8.30721
G1 X127.034 Y110.351 E8.34442
G1 X126.718 Y112.085 E8.40304
G1 X126.595 Y112.718 E8.42449
G1 X126.371 Y113.648 E8.45631
G1 X126.055 Y114.732 E8.49386
G1 X125.532 Y116.422 E8.5527
G1 X125.333 Y117.038 E8.57423
G1 X125.002 Y117.924 E8.60569
G1 X124.646 Y118.762 E8.63597
G1 X123.883 Y120.477 E8.6984
G1 X123.567 Y121.165 E8.72359
G1 X123.132 Y122.007 E8.75511
G1 X122.605 Y122.921 E8.7902
G1 X121.664 Y124.494 E8.85116
G1 X121.325 Y125.044 E8.87265
G1 X120.798 Y125.819 E8.90382
G1 X120.115 Y126.733 E8.94177
G1 X119.049 Y128.109 E8.99967
G1 X118.629 Y128.637 E9.02211
G1 X118.008 Y129.349 E9.05353
G1 X117.239 Y130.155 E9.09058
G1 X116.103 Y131.307 E9.14439
G1 X115.502 Y131.902 E9.17252
G1 X114.821 Y132.521 E9.20313
G1 X114.088 Y133.078 E9.23375
G1 X113.309 Y133.57 E9.26439
G1 X112.491 Y133.992 E9.29501
G1 X111.64 Y134.342 E9.32561
G1 X110.761 Y134.616 E9.35624
G1 X109.861 Y134.813 E9.38688
G1 X108.808 Y134.942 E9.42216
G1 X108.639 Y134.954 E9.4278
G1 X106.005 Y135.18 E9.51573
G1 X103.496 Y135.467 E9.59972
G1 X103.196 Y135.508 E9.60979
G1 X102.957 Y135.538 E9.6178
G1 X102.692 Y135.568 E9.62667
G1 X101.799 Y135.631 E9.65645
G1 X101.48 Y135.64 E9.66706
G1 X101.181 Y135.644 E9.67701
G1 X97.067 Y135.643 E9.81384
G1 X96.365 Y135.633 E9.83719
G1 X95.446 Y135.58 E9.86781
G1 X94.535 Y135.447 E9.89843
G1 X93.639 Y135.236 E9.92905
G1 X92.764 Y134.948 E9.95969
G1 X91.918 Y134.585 E9.9903
G1 X91.107 Y134.15 E10.02091
G1 X90.336 Y133.646 E10.05155
G1 X89.612 Y133.078 E10.08216
G1 X89.07 Y132.578 E10.10668
G1 X88.429 Y131.945 E10.13665
G1 X87.2 Y130.698 E10.19488
G1 X86.642 Y130.116 E10.2217
G1 X86.033 Y129.422 E10.25241
G1 X85.341 Y128.558 E10.28922
G1 X84.342 Y127.266 E10.34354
G1 X83.848 Y126.609 E10.37088
G1 X83.326 Y125.847 E10.4016
G1 X82.732 Y124.89 E10.43907
G1 X81.808 Y123.34 E10.49909
G1 X81.487 Y122.785 E10.52041
G1 X81.058 Y121.962 E10.55128
G1 X80.685 Y121.163 E10.58061
G1 X79.923 Y119.455 E10.64281
G1 X79.614 Y118.738 E10.66878
G1 X79.283 Y117.861 E10.69996
G1 X78.975 Y116.921 E10.73286
G1 X78.456 Y115.243 E10.79128
G1 X78.223 Y114.448 E10.81883
G1 X78.007 Y113.568 E10.84897
G1 X77.781 Y112.438 E10.8873
G1 X77.501 Y110.895 E10.93945
G1 X77.36 Y110.051 E10.96792
G1 X77.248 Y109.132 E10.99871
G1 X77.162 Y108.004 E11.03633
G1 X77.057 Y106.238 E11.09518
G1 X77.027 Y105.588 E11.11682
G1 X77.025 Y104.652 E11.14795
G1 X77.063 Y103.752 E11.17791
G1 X77.171 Y101.929 E11.23865
G1 X77.232 Y101.104 E11.26616
G1 X77.34 Y100.189 E11.29681
G1 X77.498 Y99.22 E11.32946
G1 X77.82 Y97.44 E11.38963
G1 X77.966 Y96.69 E11.41504
G1 X78.186 Y95.783 E11.44608
G1 X78.503 Y94.693 E11.48384
G1 X79.022 Y93.014 E11.54229
G1 X79.219 Y92.402 E11.56367
G1 X79.555 Y91.5 E11.59569
G1 X79.994 Y90.472 E11.63286
G1 X80.726 Y88.832 E11.6926
G1 X80.99 Y88.26 E11.71355
G1 X81.426 Y87.417 E11.74512
G1 X81.969 Y86.475 E11.78128
G1 X82.899 Y84.921 E11.84152
G1 X83.236 Y84.375 E11.86286
G1 X83.76 Y83.603 E11.89389
G1 X84.327 Y82.843 E11.92543
G1 X85.409 Y81.442 E11.9843
G1 X85.922 Y80.794 E12.01179
G1 X86.547 Y80.076 E12.04345
G0 F6000 X86.837 Y80.352
G1 F1200 X87.605 Y79.548 E12.08043
G1 X88.863 Y78.274 E12.13998
G1 X89.354 Y77.79 E12.16292
G1 X90.025 Y77.185 E12.19297
G1 X90.747 Y76.642 E12.22301
G1 X91.513 Y76.165 E12.25303
G1 X92.319 Y75.757 E12.28307
G1 X93.158 Y75.422 E12.31312
G1 X94.023 Y75.163 E12.34315
G1 X94.908 Y74.981 E12.3732
G1 X95.8 Y74.879 E12.40306
G1 X95.965 Y74.867 E12.40857
G1 X98.566 Y74.645 E12.49539
G1 X101.119 Y74.353 E12.58086
G1 X101.616 Y74.288 E12.59753
G1 X101.895 Y74.256 E12.60687
G1 X102.769 Y74.194 E12.63601
G1 X103.088 Y74.185 E12.64663
G1 X103.376 Y74.181 E12.65621
G1 X107.339 Y74.181 E12.78802
G1 X108.186 Y74.192 E12.81619
G1 X109.088 Y74.245 E12.84624
G1 X109.981 Y74.377 E12.87627
G1 X110.859 Y74.588 E12.9063
G1 X111.715 Y74.876 E12.93634
G1 X112.543 Y75.238 E12.96639
G1 X113.335 Y75.672 E12.99643
G1 X114.085 Y76.175 E13.02647
G1 X114.788 Y76.741 E13.05649
G1 X115.205 Y77.131 E13.07548
G1 X115.834 Y77.753 E13.1049
G1 X117.174 Y79.113 E13.1684
G1 X117.626 Y79.585 E13.19014
G1 X118.212 Y80.253 E13.21969
G1 X118.771 Y80.949 E13.24938
G1 X118.886 Y81.095 E13.25556
G1 X119.984 Y82.516 E13.31529
G1 X120.386 Y83.051 E13.33755
G1 X120.893 Y83.792 E13.36741
G1 X121.401 Y84.609 E13.39941
G1 X122.295 Y86.103 E13.45732
G1 X122.718 Y86.831 E13.48532
G1 X123.136 Y87.632 E13.51537
G1 X123.529 Y88.475 E13.54631
G1 X124.325 Y90.26 E13.61131
G1 X124.576 Y90.845 E13.63249
G1 X124.893 Y91.684 E13.66232
G1 X125.186 Y92.576 E13.69354
G1 X125.733 Y94.348 E13.75523
G1 X125.948 Y95.079 E13.78057
G1 X126.157 Y95.93 E13.80971
G1 X126.349 Y96.887 E13.84218
G1 X126.66 Y98.591 E13.89979
G1 X126.802 Y99.434 E13.92822
G1 X126.911 Y100.327 E13.95814
G1 X126.995 Y101.417 E13.99451
G1 X127.098 Y103.151 E14.05228
G1 X127.13 Y103.841 E14.07525
G1 X127.132 Y104.744 E14.10529
G1 X127.083 Y105.874 E14.14291
G1 X126.978 Y107.6 E14.20042
G1 X126.927 Y108.289 E14.2234
G1 X126.821 Y109.183 E14.25334
G1 X126.64 Y110.28 E14.29032
G1 X126.326 Y112.009 E14.34877
G1 X126.203 Y112.642 E14.37022
G1 X125.986 Y113.537 E14.40085
G1 X125.672 Y114.614 E14.43816
G1 X125.151 Y116.299 E14.49682
G1 X124.952 Y116.915 E14.51835
G1 X124.634 Y117.767 E14.5486
G1 X124.206 Y118.771 E14.5849
G1 X123.465 Y120.431 E14.64536
G1 X123.204 Y120.997 E14.66609
G1 X122.785 Y121.808 E14.69645
G1 X122.35 Y122.565 E14.72549
G1 X121.395 Y124.165 E14.78747
G1 X120.984 Y124.834 E14.81358
G1 X120.478 Y125.58 E14.84356
G1 X119.909 Y126.343 E14.87522
G1 X118.736 Y127.86 E14.939
G1 X118.316 Y128.388 E14.96144
G1 X117.719 Y129.073 E14.99166
G1 X116.954 Y129.874 E15.0285
G1 X115.732 Y131.112 E15.08636
G1 X115.221 Y131.618 E15.11028
G1 X114.552 Y132.224 E15.1403
G1 X113.831 Y132.769 E15.17036
G1 X113.066 Y133.248 E15.20038
G1 X112.261 Y133.658 E15.23043
G1 X111.423 Y133.994 E15.26046
G1 X110.558 Y134.255 E15.29051
G1 X109.674 Y134.439 E15.32054
G1 X108.779 Y134.543 E15.35051
G1 X108.654 Y134.552 E15.35468
G1 X105.962 Y134.783 E15.44454
G1 X103.441 Y135.071 E15.52894
G1 X103.142 Y135.112 E15.53897
G1 X102.647 Y135.17 E15.55555
G1 X101.788 Y135.231 E15.58419
G1 X101.469 Y135.24 E15.59481
G1 X101.181 Y135.244 E15.60439
G1 X97.073 Y135.243 E15.74102
G1 X96.371 Y135.233 E15.76437
G1 X95.469 Y135.18 E15.79442
G1 X94.576 Y135.048 E15.82445
G1 X93.698 Y134.837 E15.85448
G1 X92.842 Y134.549 E15.88452
G1 X92.014 Y134.187 E15.91458
G1 X91.222 Y133.753 E15.94461
G1 X90.472 Y133.25 E15.97465
G1 X89.769 Y132.684 E16.00467
G1 X89.351 Y132.294 E16.02368
G1 X88.714 Y131.664 E16.05348
G1 X87.383 Y130.312 E16.11658
G1 X86.931 Y129.84 E16.13832
G1 X86.345 Y129.172 E16.16787
G1 X85.774 Y128.461 E16.1982
G1 X84.659 Y127.021 E16.25878
G1 X84.168 Y126.369 E16.28592
G1 X83.665 Y125.635 E16.31552
G1 X83.175 Y124.848 E16.34635
G1 X82.226 Y123.261 E16.40786
G1 X82.154 Y123.14 E16.41254
G1 X81.833 Y122.585 E16.43386
G1 X81.421 Y121.793 E16.46356
G1 X80.972 Y120.828 E16.49896
G1 X80.232 Y119.163 E16.55956
G1 X79.982 Y118.58 E16.58066
G1 X79.663 Y117.736 E16.61067
G1 X79.301 Y116.627 E16.64947
G1 X78.838 Y115.126 E16.70171
G1 X78.607 Y114.336 E16.72909
G1 X78.399 Y113.49 E16.75806
G1 X78.211 Y112.554 E16.78982
G1 X78.175 Y112.366 E16.79618
G1 X77.869 Y110.677 E16.85327
G1 X77.754 Y109.986 E16.87657
G1 X77.647 Y109.101 E16.90622
G1 X77.561 Y107.98 E16.94362
G1 X77.457 Y106.219 E17.00229
G1 X77.427 Y105.569 E17.02393
G1 X77.425 Y104.669 E17.05387
G1 X77.472 Y103.589 E17.08982
G1 X77.58 Y101.802 E17.14936
G1 X77.63 Y101.134 E17.17164
G1 X77.735 Y100.254 E17.20112
G1 X77.924 Y99.102 E17.23995
G1 X78.213 Y97.512 E17.2937
G1 X78.359 Y96.767 E17.31895
G1 X78.57 Y95.894 E17.34882
G1 X78.885 Y94.811 E17.38634
G1 X79.403 Y93.137 E17.44462
G1 X79.6 Y92.525 E17.466
G1 X79.923 Y91.657 E17.4968
G1 X80.359 Y90.635 E17.53376
G1 X81.032 Y89.124 E17.58878
G1 X81.353 Y88.428 E17.61427
G1 X81.772 Y87.616 E17.64466
G1 X82.312 Y86.68 E17.6806
G1 X83.239 Y85.131 E17.74064
G1 X83.576 Y84.585 E17.76198
G1 X84.081 Y83.843 E17.79183
G1 X84.755 Y82.941 E17.82929
G1 X85.807 Y81.583 E17.88642
G1 X86.236 Y81.043 E17.90936
G1 X86.837 Y80.352 E17.93982
G1 F1500 E11.43982
;MESH:hq_cam_mount-front.stl(1)
G0 F6000 X91.392 Y104.07
G0 X91.215 Y102.615
G0 X89.945 Y103.655
G0 X89.659 Y104.071
G0 X89.479 Y104.544
G0 X89.419 Y105.044
G0 X89.479 Y105.544
G0 X89.659 Y106.016
G0 X89.945 Y106.432
G0 X90.324 Y106.766
G0 X90.576 Y106.897
G0 X91.783 Y107.282
;TYPE:WALL-INNER
