;FLAVOR:Marlin
;TIME:141337
;Filament used: 64.3896m
;Layer height: 0.15
;MINX:24.345
;MINY:14.336
;MINZ:0.336
;MAXX:191.014
;MAXY:205.664
;MAXZ:56.341
;Generated with Cura_SteamEngine 4.12.1
M140 S80
M105
M190 S80
M104 S200
M105
M109 S200
M82 ;absolute extrusion mode
; Ender 3 Custom Start G-code
G92 E0 ; Reset Extruder
G28 ; Home all axes
G1 Z2.0 F3000 ; Move Z Axis up little to prevent scratching of Heat Bed
G1 X0.1 Y20 Z0.3 F5000.0 ; Move to start position
G1 X0.1 Y200.0 Z0.3 F1500.0 E15 ; Draw the first line
G1 X0.4 Y200.0 Z0.3 F5000.0 ; Move to side a little
G1 X0.4 Y20 Z0.3 F1500.0 E30 ; Draw the second line
G92 E0 ; Reset Extruder
G1 Z2.0 F3000 ; Move Z Axis up little to prevent scratching of Heat Bed
G1 X5 Y20 Z0.3 F5000.0 ; Move over to prevent blob squish
G92 E0
G92 E0
G1 F1500 E-6.5
;LAYER_COUNT:368
;LAYER:-7
M107
G0 F9000 X28.237 Y21.157 Z0.336
;TYPE:SUPPORT-INTERFACE
G1 F1500 E0
G1 F787.5 X28.35 Y21.009 E0.02081
G1 X28.926 Y20.318 E0.12134
G1 X29.027 Y20.205 E0.13828
G1 X29.652 Y19.556 E0.23897
G1 X29.777 Y19.436 E0.25834
G1 X30.448 Y18.833 E0.35915
G1 X30.564 Y18.737 E0.37598
G1 X31.276 Y18.187 E0.47652
G1 X31.435 Y18.074 E0.49832
G1 X32.173 Y17.584 E0.59732
G1 X32.299 Y17.508 E0.61377
G1 X33.093 Y17.062 E0.71554
G1 X33.243 Y16.984 E0.73443
G1 X34.058 Y16.601 E0.83507
G1 X34.201 Y16.541 E0.8524
G1 X35.06 Y16.212 E0.9552
G1 X35.21 Y16.16 E0.97294
G1 X36.06 Y15.905 E1.07211
G1 X36.233 Y15.858 E1.09215
G1 X37.128 Y15.658 E1.19463
G1 X37.258 Y15.635 E1.20939
G1 X38.163 Y15.501 E1.31163
G1 X38.332 Y15.483 E1.33062
G1 X39.221 Y15.417 E1.43024
G1 X39.405 Y15.408 E1.45083
G1 X39.91 Y15.4 E1.50727
G1 X175.353 Y15.401 E16.64358
G1 X176.354 Y15.437 E16.75551
G1 X176.477 Y15.446 E16.7693
G1 X177.394 Y15.548 E16.87241
G1 X177.569 Y15.573 E16.89216
G1 X178.458 Y15.737 E16.99319
G1 X178.581 Y15.765 E17.00729
G1 X179.475 Y15.999 E17.11056
G1 X179.638 Y16.048 E17.12958
G1 X180.48 Y16.334 E17.22896
G1 X180.646 Y16.398 E17.24884
G1 X181.449 Y16.739 E17.34633
G1 X181.638 Y16.827 E17.36963
G1 X182.432 Y17.235 E17.4694
G1 X182.549 Y17.302 E17.48446
G1 X183.328 Y17.776 E17.58637
G1 X183.479 Y17.876 E17.60661
G1 X184.193 Y18.387 E17.70473
G1 X184.341 Y18.5 E17.72554
G1 X185.032 Y19.076 E17.82607
G1 X185.145 Y19.177 E17.84301
G1 X185.794 Y19.802 E17.9437
G1 X185.914 Y19.927 E17.96307
G1 X186.517 Y20.598 E18.06388
G1 X186.613 Y20.714 E18.08071
G1 X187.172 Y21.438 E18.18293
G1 X187.266 Y21.569 E18.20095
G1 X187.766 Y22.323 E18.30206
G1 X187.842 Y22.449 E18.3185
G1 X188.288 Y23.243 E18.42027
G1 X188.366 Y23.393 E18.43917
G1 X188.749 Y24.208 E18.5398
G1 X188.809 Y24.351 E18.55713
G1 X189.138 Y25.21 E18.65993
G1 X189.19 Y25.36 E18.67767
G1 X189.445 Y26.21 E18.77684
G1 X189.492 Y26.383 E18.79688
G1 X189.69 Y27.269 E18.89834
G1 X189.715 Y27.408 E18.91412
G1 X189.848 Y28.307 E19.01568
G1 X189.866 Y28.469 E19.03389
G1 X189.933 Y29.371 E19.13497
G1 X189.942 Y29.555 E19.15556
G1 X189.95 Y30.056 E19.21156
G1 X189.95 Y189.986 E37.08438
G1 X189.914 Y190.992 E37.19688
G1 X189.904 Y191.127 E37.21201
G1 X189.802 Y192.044 E37.31512
G1 X189.777 Y192.219 E37.33487
G1 X189.615 Y193.097 E37.43465
G1 X189.585 Y193.231 E37.45
G1 X189.354 Y194.116 E37.55221
G1 X189.302 Y194.288 E37.57229
G1 X189.026 Y195.1 E37.66814
G1 X188.946 Y195.309 E37.69315
G1 X188.611 Y196.099 E37.78904
G1 X188.53 Y196.274 E37.81059
G1 X188.115 Y197.082 E37.9121
G1 X188.048 Y197.199 E37.92717
G1 X187.574 Y197.978 E38.02908
G1 X187.474 Y198.129 E38.04932
G1 X186.963 Y198.843 E38.14744
G1 X186.85 Y198.991 E38.16825
G1 X186.274 Y199.682 E38.26878
G1 X186.173 Y199.795 E38.28572
G1 X185.548 Y200.444 E38.38641
G1 X185.423 Y200.564 E38.40577
G1 X184.753 Y201.166 E38.50643
G1 X184.636 Y201.263 E38.52342
G1 X183.924 Y201.813 E38.62396
G1 X183.765 Y201.926 E38.64576
G1 X183.027 Y202.416 E38.74476
G1 X182.901 Y202.492 E38.7612
G1 X182.107 Y202.938 E38.86298
G1 X181.956 Y203.016 E38.88197
G1 X181.142 Y203.399 E38.9825
G1 X180.999 Y203.459 E38.99983
G1 X180.14 Y203.788 E39.10263
G1 X179.99 Y203.84 E39.12037
G1 X179.14 Y204.095 E39.21955
G1 X178.967 Y204.142 E39.23958
G1 X178.072 Y204.342 E39.34207
G1 X177.942 Y204.365 E39.35682
G1 X177.037 Y204.499 E39.45906
G1 X176.869 Y204.517 E39.47794
G1 X175.979 Y204.583 E39.57768
G1 X175.795 Y204.592 E39.59826
G1 X175.29 Y204.6 E39.65471
G1 X39.847 Y204.599 E54.79101
G1 X38.846 Y204.563 E54.90295
G1 X38.723 Y204.554 E54.91673
G1 X37.806 Y204.452 E55.01984
G1 X37.631 Y204.427 E55.0396
G1 X36.742 Y204.263 E55.14062
G1 X36.619 Y204.235 E55.15472
G1 X35.725 Y204.001 E55.25799
G1 X35.562 Y203.952 E55.27702
G1 X34.72 Y203.666 E55.37639
G1 X34.554 Y203.602 E55.39628
G1 X33.751 Y203.261 E55.49377
G1 X33.562 Y203.173 E55.51707
G1 X32.768 Y202.765 E55.61683
G1 X32.651 Y202.698 E55.6319
G1 X31.872 Y202.224 E55.7338
G1 X31.721 Y202.124 E55.75404
G1 X31.007 Y201.613 E55.85217
G1 X30.859 Y201.5 E55.87298
G1 X30.168 Y200.924 E55.97351
G1 X30.055 Y200.823 E55.99044
G1 X29.406 Y200.198 E56.09114
G1 X29.286 Y200.073 E56.1105
G1 X28.683 Y199.402 E56.21132
G1 X28.586 Y199.284 E56.22839
G1 X28.028 Y198.562 E56.33036
G1 X27.924 Y198.415 E56.35049
G1 X27.431 Y197.672 E56.45014
G1 X27.358 Y197.551 E56.46593
G1 X26.906 Y196.746 E56.5691
G1 X26.834 Y196.607 E56.5866
G1 X26.437 Y195.761 E56.69103
G1 X26.391 Y195.649 E56.70456
G1 X26.062 Y194.79 E56.80736
G1 X26.005 Y194.625 E56.82687
G1 X25.755 Y193.79 E56.92428
G1 X25.708 Y193.617 E56.94431
G1 X25.507 Y192.716 E57.04748
G1 X25.485 Y192.592 E57.06155
G1 X25.35 Y191.678 E57.1648
G1 X25.333 Y191.518 E57.18278
G1 X25.267 Y190.626 E57.28274
G1 X25.258 Y190.445 E57.30299
G1 X25.25 Y189.944 E57.35899
G1 X25.25 Y30.014 E75.23181
G1 X25.286 Y29.008 E75.34431
G1 X25.296 Y28.873 E75.35944
G1 X25.398 Y27.956 E75.46255
G1 X25.423 Y27.781 E75.48231
G1 X25.585 Y26.903 E75.58208
G1 X25.615 Y26.769 E75.59743
G1 X25.846 Y25.884 E75.69964
G1 X25.898 Y25.712 E75.71972
G1 X26.184 Y24.87 E75.8191
G1 X26.248 Y24.704 E75.83898
G1 X26.589 Y23.901 E75.93648
G1 X26.67 Y23.726 E75.95803
G1 X27.085 Y22.918 E76.05954
G1 X27.152 Y22.801 E76.07461
G1 X27.626 Y22.022 E76.17651
G1 X27.726 Y21.871 E76.19675
G1 X28.237 Y21.157 E76.29487
G0 F9000 X28.8 Y20.469
G1 F787.5 X28.8 Y199.532 E96.30589
G0 F9000 X30.4 Y201.117
G1 F787.5 X30.4 Y18.876 E116.67206
G0 F9000 X32 Y17.698
G1 F787.5 X32 Y202.301 E137.30219
G0 F9000 X33.6 Y203.19
G1 F787.5 X33.6 Y16.816 E158.13024
G0 F9000 X35.2 Y16.163
G1 F787.5 X35.2 Y203.829 E179.10268
G0 F9000 X36.8 Y204.273
G1 F787.5 X36.8 Y15.731 E200.17301
G0 F9000 X38.4 Y15.477
G1 F787.5 X38.4 Y204.518 E221.29911
G0 F9000 X40 Y204.599
G1 F787.5 X40 Y15.401 E242.44276
G0 F9000 X41.6 Y15.401
G1 F787.5 X41.6 Y204.599 E263.5864
G0 F9000 X43.2 Y204.599
G1 F787.5 X43.2 Y15.401 E284.73004
G0 F9000 X44.8 Y15.401
G1 F787.5 X44.8 Y204.599 E305.87369
G0 F9000 X46.4 Y204.599
G1 F787.5 X46.4 Y15.401 E327.01733
G0 F9000 X48 Y15.401
G1 F787.5 X48 Y204.599 E348.16097
G0 F9000 X49.6 Y204.599
G1 F787.5 X49.6 Y15.401 E369.30462
G0 F9000 X51.2 Y15.401
G1 F787.5 X51.2 Y204.599 E390.44826
G0 F9000 X52.8 Y204.599
G1 F787.5 X52.8 Y15.401 E411.5919
G0 F9000 X54.4 Y15.401
G1 F787.5 X54.4 Y204.599 E432.73555
G0 F9000 X56 Y204.599
G1 F787.5 X56 Y15.401 E453.87919
G0 F9000 X57.6 Y15.401
G1 F787.5 X57.6 Y204.599 E475.02283
G0 F9000 X59.2 Y204.599
G1 F787.5 X59.2 Y15.401 E496.16648
G0 F9000 X60.8 Y15.401
G1 F787.5 X60.8 Y204.599 E517.31012
G0 F9000 X62.4 Y204.599
G1 F787.5 X62.4 Y15.401 E538.45376
G0 F9000 X64 Y15.401
G1 F787.5 X64 Y204.599 E559.59741
G0 F9000 X65.6 Y204.599
G1 F787.5 X65.6 Y15.401 E580.74105
G0 F9000 X67.2 Y15.401
G1 F787.5 X67.2 Y204.599 E601.88469
G0 F9000 X68.8 Y204.599
G1 F787.5 X68.8 Y15.401 E623.02834
G0 F9000 X70.4 Y15.401
G1 F787.5 X70.4 Y204.599 E644.17198
G0 F9000 X72 Y204.599
G1 F787.5 X72 Y15.401 E665.31562
G0 F9000 X73.6 Y15.401
G1 F787.5 X73.6 Y204.599 E686.45927
G0 F9000 X75.2 Y204.599
G1 F787.5 X75.2 Y15.401 E707.60291
G0 F9000 X76.8 Y15.401
G1 F787.5 X76.8 Y204.599 E728.74655
G0 F9000 X78.4 Y204.599
G1 F787.5 X78.4 Y15.401 E749.8902
G0 F9000 X80 Y15.401
G1 F787.5 X80 Y204.599 E771.03384
G0 F9000 X81.6 Y204.599
G1 F787.5 X81.6 Y15.401 E792.17749
G0 F9000 X83.2 Y15.401
G1 F787.5 X83.2 Y204.599 E813.32113
G0 F9000 X84.8 Y204.599
G1 F787.5 X84.8 Y15.401 E834.46477
G0 F9000 X86.4 Y15.401
G1 F787.5 X86.4 Y204.599 E855.60842
G0 F9000 X88 Y204.599
G1 F787.5 X88 Y15.401 E876.75206
G0 F9000 X89.6 Y15.401
G1 F787.5 X89.6 Y204.599 E897.8957
G0 F9000 X91.2 Y204.599
G1 F787.5 X91.2 Y15.401 E919.03935
G0 F9000 X92.8 Y15.401
G1 F787.5 X92.8 Y204.599 E940.18299
G0 F9000 X94.4 Y204.599
G1 F787.5 X94.4 Y15.401 E961.32663
G0 F9000 X96 Y15.401
G1 F787.5 X96 Y204.599 E982.47028
G0 F9000 X97.6 Y204.599
G1 F787.5 X97.6 Y15.401 E1003.61392
G0 F9000 X99.2 Y15.401
G1 F787.5 X99.2 Y204.599 E1024.75756
G0 F9000 X100.8 Y204.599
G1 F787.5 X100.8 Y15.401 E1045.90121
G0 F9000 X102.4 Y15.401
G1 F787.5 X102.4 Y204.599 E1067.04485
G0 F9000 X104 Y204.599
G1 F787.5 X104 Y15.401 E1088.18849
G0 F9000 X105.6 Y15.401
G1 F787.5 X105.6 Y204.599 E1109.33214
G0 F9000 X107.2 Y204.599
G1 F787.5 X107.2 Y15.401 E1130.47578
G0 F9000 X108.8 Y15.401
G1 F787.5 X108.8 Y204.599 E1151.61942
G0 F9000 X110.4 Y204.599
G1 F787.5 X110.4 Y15.401 E1172.76307
G0 F9000 X112 Y15.401
G1 F787.5 X112 Y204.599 E1193.90671
G0 F9000 X113.6 Y204.599
G1 F787.5 X113.6 Y15.401 E1215.05035
G0 F9000 X115.2 Y15.401
G1 F787.5 X115.2 Y204.599 E1236.194
G0 F9000 X116.8 Y204.599
G1 F787.5 X116.8 Y15.401 E1257.33764
G0 F9000 X118.4 Y15.401
G1 F787.5 X118.4 Y204.599 E1278.48129
G0 F9000 X120 Y204.599
G1 F787.5 X120 Y15.401 E1299.62493
G0 F9000 X121.6 Y15.401
G1 F787.5 X121.6 Y204.599 E1320.76857
G0 F9000 X123.2 Y204.599
G1 F787.5 X123.2 Y15.401 E1341.91222
G0 F9000 X124.8 Y15.401
G1 F787.5 X124.8 Y204.599 E1363.05586
G0 F9000 X126.4 Y204.599
G1 F787.5 X126.4 Y15.401 E1384.1995
G0 F9000 X128 Y15.401
G1 F787.5 X128 Y204.599 E1405.34315
G0 F9000 X129.6 Y204.599
G1 F787.5 X129.6 Y15.401 E1426.48679
G0 F9000 X131.2 Y15.401
G1 F787.5 X131.2 Y204.599 E1447.63043
G0 F9000 X132.8 Y204.599
G1 F787.5 X132.8 Y15.401 E1468.77408
G0 F9000 X134.4 Y15.401
G1 F787.5 X134.4 Y204.599 E1489.91772
G0 F9000 X136 Y204.599
G1 F787.5 X136 Y15.401 E1511.06136
G0 F9000 X137.6 Y15.401
G1 F787.5 X137.6 Y204.599 E1532.20501
G0 F9000 X139.2 Y204.599
G1 F787.5 X139.2 Y15.401 E1553.34865
G0 F9000 X140.8 Y15.401
G1 F787.5 X140.8 Y204.599 E1574.49229
G0 F9000 X142.4 Y204.599
G1 F787.5 X142.4 Y15.401 E1595.63594
G0 F9000 X144 Y15.401
G1 F787.5 X144 Y204.599 E1616.77958
G0 F9000 X145.6 Y204.599
G1 F787.5 X145.6 Y15.401 E1637.92322
G0 F9000 X147.2 Y15.401
G1 F787.5 X147.2 Y204.599 E1659.06687
G0 F9000 X148.8 Y204.599
G1 F787.5 X148.8 Y15.401 E1680.21051
G0 F9000 X150.4 Y15.401
G1 F787.5 X150.4 Y204.599 E1701.35415
G0 F9000 X152 Y204.599
G1 F787.5 X152 Y15.401 E1722.4978
G0 F9000 X153.6 Y15.401
G1 F787.5 X153.6 Y204.599 E1743.64144
G0 F9000 X155.2 Y204.599
G1 F787.5 X155.2 Y15.401 E1764.78508
G0 F9000 X156.8 Y15.401
G1 F787.5 X156.8 Y204.599 E1785.92873
G0 F9000 X158.4 Y204.599
G1 F787.5 X158.4 Y15.401 E1807.07237
G0 F9000 X160 Y15.401
G1 F787.5 X160 Y204.599 E1828.21602
G0 F9000 X161.6 Y204.599
G1 F787.5 X161.6 Y15.401 E1849.35966
G0 F9000 X163.2 Y15.401
G1 F787.5 X163.2 Y204.599 E1870.5033
G0 F9000 X164.8 Y204.599
G1 F787.5 X164.8 Y15.401 E1891.64695
G0 F9000 X166.4 Y15.401
G1 F787.5 X166.4 Y204.599 E1912.79059
G0 F9000 X168 Y204.599
G1 F787.5 X168 Y15.401 E1933.93423
G0 F9000 X169.6 Y15.401
G1 F787.5 X169.6 Y204.599 E1955.07788
G0 F9000 X171.2 Y204.599
G1 F787.5 X171.2 Y15.401 E1976.22152
G0 F9000 X172.8 Y15.401
G1 F787.5 X172.8 Y204.599 E1997.36516
G0 F9000 X174.4 Y204.599
G1 F787.5 X174.4 Y15.401 E2018.50881
G0 F9000 X176 Y15.425
G1 F787.5 X176 Y204.582 E2039.64787
G0 F9000 X177.6 Y204.416
G1 F787.5 X177.6 Y15.579 E2060.75117
G0 F9000 X179.2 Y15.928
G1 F787.5 X179.2 Y204.077 E2081.77758
G0 F9000 X180.8 Y203.536
G1 F787.5 X180.8 Y16.464 E2102.68364
G0 F9000 X182.4 Y17.219
G1 F787.5 X182.4 Y202.774 E2123.42016
G0 F9000 X184 Y201.755
G1 F787.5 X184 Y18.249 E2143.9277
G0 F9000 X185.6 Y19.616
G1 F787.5 X185.6 Y200.391 E2164.13004
G0 F9000 X187.2 Y198.512
G1 F787.5 X187.2 Y21.478 E2183.9143
G0 F9000 X188.8 Y24.33
G1 F787.5 X188.8 Y195.654 E2203.06046
G1 F1500 E2196.56046
G0 F9000 X189.78 Y196.069
G0 X188.963 Y197.743
G0 X187.816 Y199.481
G0 X186.958 Y200.514
G0 X185.453 Y201.968
G0 X184.373 Y202.799
G0 X182.607 Y203.878
G0 X181.389 Y204.45
G0 X179.423 Y205.121
G0 X178.108 Y205.417
G0 X176.04 Y205.646
G0 X38.793 Y205.626
G0 X37.467 Y205.479
G0 X35.44 Y205.027
G0 X34.15 Y204.587
G0 X32.27 Y203.705
G0 X31.111 Y202.996
G0 X29.467 Y201.725
G0 X28.51 Y200.802
G0 X27.431 Y199.506
G0 X26.435 Y198.082
G0 X27.2 Y197.269
G1 F1500 E2203.06046
G1 F787.5 X27.2 Y22.722 E2222.56679
G0 F9000 X25.6 Y26.836
G1 F787.5 X25.6 Y193.132 E2241.15104
G0 F300 X25.6 Y193.132 Z0.561
G0 F9000 X26.833 Y196.606
;TIME_ELAPSED:1546.099649
;LAYER:-6
;TYPE:SUPPORT
G1 F787.5 X26.905 Y196.745 E2241.16276
G1 X27.357 Y197.55 E2241.23185
G1 X27.43 Y197.67 E2241.24236
G1 X27.923 Y198.414 E2241.30915
G1 X28.028 Y198.561 E2241.32267
G1 X28.586 Y199.283 E2241.39096
G1 X28.683 Y199.401 E2241.40239
G1 X29.286 Y200.072 E2241.4699
G1 X29.405 Y200.197 E2241.48281
G1 X30.054 Y200.822 E2241.55024
G1 X30.168 Y200.922 E2241.56159
G1 X30.858 Y201.499 E2241.6289
G1 X31.007 Y201.612 E2241.6429
G1 X31.72 Y202.123 E2241.70854
G1 X31.871 Y202.223 E2241.7221
G1 X32.65 Y202.697 E2241.79034
G1 X32.767 Y202.764 E2241.80043
G1 X33.366 Y203.071 E2241.8508
G1 X26.774 Y196.48 E2242.5484
G1 X26.436 Y195.76 E2242.60792
G1 X26.39 Y195.647 E2242.61705
G1 X26.061 Y194.788 E2242.68589
G1 X26.004 Y194.624 E2242.69888
G1 X25.864 Y194.155 E2242.73551
G1 X35.701 Y203.993 E2243.77664
G1 X35.724 Y204 E2243.77844
G1 X36.618 Y204.234 E2243.8476
G1 X36.741 Y204.262 E2243.85704
G1 X37.529 Y204.406 E2243.91698
G1 X25.444 Y192.321 E2245.19598
G1 X25.349 Y191.676 E2245.24477
G1 X25.332 Y191.517 E2245.25673
G1 X25.274 Y190.737 E2245.31527
G1 X39.108 Y204.571 E2246.77936
G1 X39.846 Y204.598 E2246.83463
G1 X40.549 Y204.598 E2246.88724
G1 X25.25 Y189.298 E2248.50643
G1 X25.25 Y187.884 E2248.61225
G1 X41.963 Y204.598 E2250.38109
G1 X43.378 Y204.598 E2250.48698
G1 X25.25 Y186.47 E2252.40552
G1 X25.25 Y185.056 E2252.51134
G1 X44.792 Y204.598 E2254.57953
G1 X46.206 Y204.598 E2254.68535
G1 X25.25 Y183.641 E2256.90324
G1 X25.25 Y182.227 E2257.00905
G1 X47.62 Y204.598 E2259.37659
G1 X49.035 Y204.598 E2259.48249
G1 X25.25 Y180.813 E2261.99973
G1 X25.25 Y179.399 E2262.10554
G1 X50.449 Y204.598 E2264.77243
G1 X51.863 Y204.598 E2264.87825
G1 X25.25 Y177.985 E2267.69479
G1 X25.25 Y176.57 E2267.80068
G1 X53.277 Y204.598 E2270.76691
G1 X54.691 Y204.598 E2270.87273
G1 X25.25 Y175.156 E2273.98862
G1 X25.25 Y173.742 E2274.09443
G1 X56.106 Y204.598 E2277.36002
G1 X57.52 Y204.598 E2277.46584
G1 X25.25 Y172.328 E2280.88107
G1 X25.25 Y170.914 E2280.98689
G1 X58.934 Y204.598 E2284.55177
G1 X60.348 Y204.598 E2284.65759
G1 X25.25 Y169.499 E2288.37217
G1 X25.25 Y168.085 E2288.47799
G1 X61.762 Y204.598 E2292.34222
G1 X63.177 Y204.598 E2292.44811
G1 X25.25 Y166.671 E2296.46204
G1 X25.25 Y165.257 E2296.56786
G1 X64.591 Y204.598 E2300.73144
G1 X66.005 Y204.598 E2300.83726
G1 X25.25 Y163.843 E2305.15049
G1 X25.25 Y162.428 E2305.25638
G1 X67.419 Y204.598 E2309.71931
G1 X68.834 Y204.598 E2309.8252
G1 X25.25 Y161.014 E2314.43783
G1 X25.25 Y159.6 E2314.54365
G1 X70.248 Y204.598 E2319.30592
G1 X71.662 Y204.598 E2319.41174
G1 X25.25 Y158.186 E2324.32367
G1 X25.25 Y156.771 E2324.42956
G1 X73.076 Y204.598 E2329.49119
G1 X74.49 Y204.598 E2329.597
G1 X25.25 Y155.357 E2334.80828
G1 X25.25 Y153.943 E2334.91409
G1 X75.905 Y204.598 E2340.27507
G1 X77.319 Y204.598 E2340.38089
G1 X25.25 Y152.529 E2345.89151
G1 X25.25 Y151.115 E2345.99733
G1 X78.733 Y204.598 E2351.6576
G1 X80.147 Y204.598 E2351.76342
G1 X25.25 Y149.7 E2357.57339
G1 X25.25 Y148.286 E2357.67921
G1 X81.561 Y204.598 E2363.63883
G1 X82.976 Y204.598 E2363.74472
G1 X25.25 Y146.872 E2369.85404
G1 X25.25 Y145.458 E2369.95986
G1 X84.39 Y204.598 E2376.21883
G1 X85.804 Y204.598 E2376.32465
