;FLAVOR:Marlin
;TIME:9193
;Filament used: 4.01584m
;Layer height: 0.15
;MINX:59.336
;MINY:77.023
;MINZ:0.336
;MAXX:160.665
;MAXY:143.165
;MAXZ:6.541
;Generated with Cura_SteamEngine 4.12.1
M140 S80
M105
M190 S80
M104 S200
M105
M109 S200
M82 ;absolute extrusion mode
; Ender 3 Custom Start G-code
G92 E0 ; Reset Extruder
G28 ; Home all axes
G1 Z2.0 F3000 ; Move Z Axis up little to prevent scratching of Heat Bed
G1 X0.1 Y20 Z0.3 F5000.0 ; Move to start position
G1 X0.1 Y200.0 Z0.3 F1500.0 E15 ; Draw the first line
G1 X0.4 Y200.0 Z0.3 F5000.0 ; Move to side a little
G1 X0.4 Y20 Z0.3 F1500.0 E30 ; Draw the second line
G92 E0 ; Reset Extruder
G1 Z2.0 F3000 ; Move Z Axis up little to prevent scratching of Heat Bed
G1 X5 Y20 Z0.3 F5000.0 ; Move over to prevent blob squish
G92 E0
G92 E0
G1 F1500 E-6.5
;LAYER_COUNT:37
;LAYER:-7
M107
G0 F9000 X65.714 Y81.237 Z0.336
;TYPE:SUPPORT-INTERFACE
G1 F1500 E0
G1 F787.5 X66.426 Y80.687 E0.10054
G1 X66.585 Y80.574 E0.12234
G1 X67.323 Y80.084 E0.22134
G1 X67.449 Y80.008 E0.23779
G1 X68.243 Y79.562 E0.33956
G1 X68.393 Y79.484 E0.35845
G1 X69.208 Y79.101 E0.45909
G1 X69.351 Y79.041 E0.47642
G1 X70.21 Y78.712 E0.57922
G1 X70.36 Y78.66 E0.59696
G1 X71.21 Y78.405 E0.69613
G1 X71.383 Y78.358 E0.71617
G1 X72.278 Y78.158 E0.81865
G1 X72.408 Y78.135 E0.83341
G1 X73.313 Y78.001 E0.93565
G1 X73.482 Y77.983 E0.95464
G1 X74.371 Y77.917 E1.05426
G1 X74.555 Y77.908 E1.07485
G1 X75.06 Y77.9 E1.13129
G1 X145.003 Y77.901 E8.94771
G1 X146.004 Y77.937 E9.05964
G1 X146.127 Y77.946 E9.07343
G1 X147.044 Y78.048 E9.17654
G1 X147.219 Y78.073 E9.19629
G1 X148.108 Y78.237 E9.29732
G1 X148.231 Y78.265 E9.31142
G1 X149.125 Y78.499 E9.41469
G1 X149.288 Y78.548 E9.43371
G1 X150.13 Y78.834 E9.53309
G1 X150.296 Y78.898 E9.55297
G1 X151.099 Y79.239 E9.65046
G1 X151.288 Y79.327 E9.67376
G1 X152.082 Y79.735 E9.77352
G1 X152.199 Y79.802 E9.78859
G1 X152.978 Y80.276 E9.8905
G1 X153.129 Y80.376 E9.91074
G1 X153.843 Y80.887 E10.00886
G1 X153.991 Y81 E10.02967
G1 X154.682 Y81.576 E10.1302
G1 X154.795 Y81.677 E10.14714
G1 X155.444 Y82.302 E10.24783
G1 X155.564 Y82.427 E10.2672
G1 X156.167 Y83.098 E10.36801
G1 X156.263 Y83.214 E10.38484
G1 X156.822 Y83.938 E10.48706
G1 X156.916 Y84.069 E10.50508
G1 X157.416 Y84.823 E10.60619
G1 X157.492 Y84.949 E10.62263
G1 X157.938 Y85.743 E10.7244
G1 X158.016 Y85.893 E10.7433
G1 X158.399 Y86.708 E10.84393
G1 X158.459 Y86.851 E10.86126
G1 X158.788 Y87.71 E10.96406
G1 X158.84 Y87.86 E10.9818
G1 X159.095 Y88.71 E11.08097
G1 X159.142 Y88.883 E11.10101
G1 X159.34 Y89.769 E11.20247
G1 X159.365 Y89.908 E11.21825
G1 X159.498 Y90.807 E11.31981
G1 X159.516 Y90.969 E11.33802
G1 X159.583 Y91.871 E11.4391
G1 X159.592 Y92.055 E11.45969
G1 X159.6 Y92.556 E11.51569
G1 X159.6 Y125.485 E15.19564
G1 X159.563 Y126.502 E15.30937
G1 X159.553 Y126.653 E15.32628
G1 X159.508 Y127.131 E15.37993
G1 X159.457 Y127.58 E15.43043
G1 X159.316 Y128.526 E15.53732
G1 X159.281 Y128.718 E15.55913
G1 X159.085 Y129.592 E15.65923
G1 X159.047 Y129.735 E15.67576
G1 X158.742 Y130.727 E15.79175
G1 X158.612 Y131.106 E15.83652
G1 X158.57 Y131.219 E15.85
G1 X158.223 Y132.108 E15.95664
G1 X158.167 Y132.239 E15.97257
G1 X157.773 Y133.064 E16.07474
G1 X157.696 Y133.21 E16.09318
G1 X157.189 Y134.093 E16.20697
G1 X156.972 Y134.441 E16.2528
G1 X156.898 Y134.555 E16.26799
G1 X156.368 Y135.334 E16.37329
G1 X156.288 Y135.443 E16.3884
G1 X155.713 Y136.169 E16.49189
G1 X155.624 Y136.274 E16.50728
G1 X154.878 Y137.081 E16.63009
G1 X154.552 Y137.406 E16.68154
G1 X153.855 Y138.052 E16.78774
G1 X153.721 Y138.167 E16.80747
G1 X153.048 Y138.708 E16.90397
G1 X152.871 Y138.839 E16.92858
G1 X152.062 Y139.393 E17.03816
G1 X151.941 Y139.472 E17.05431
G1 X151.598 Y139.686 E17.09949
G1 X150.786 Y140.156 E17.20433
G1 X150.629 Y140.239 E17.22418
G1 X149.831 Y140.625 E17.32325
G1 X149.67 Y140.696 E17.34291
G1 X148.721 Y141.07 E17.4569
G1 X148.332 Y141.207 E17.50299
G1 X148.223 Y141.244 E17.51586
G1 X147.323 Y141.522 E17.62112
G1 X147.171 Y141.563 E17.63872
G1 X146.287 Y141.768 E17.74013
G1 X146.116 Y141.8 E17.75957
G1 X145.117 Y141.952 E17.8725
G1 X145.032 Y141.964 E17.88209
G1 X144.596 Y142.011 E17.9311
G1 X143.634 Y142.084 E18.03892
G1 X143.488 Y142.09 E18.05525
G1 X142.943 Y142.1 E18.11616
G1 X76.997 Y142.099 E25.48589
G1 X75.997 Y142.063 E25.59772
G1 X75.838 Y142.052 E25.61553
G1 X75.381 Y142.009 E25.66683
G1 X74.958 Y141.962 E25.71439
G1 X73.948 Y141.812 E25.8285
G1 X73.792 Y141.784 E25.84621
G1 X72.915 Y141.587 E25.94667
G1 X72.738 Y141.539 E25.96716
G1 X71.773 Y141.242 E26.07999
G1 X71.351 Y141.097 E26.12986
G1 X70.392 Y140.723 E26.24489
G1 X70.255 Y140.664 E26.26156
G1 X69.436 Y140.273 E26.36299
G1 X69.283 Y140.192 E26.38233
G1 X68.408 Y139.689 E26.49512
G1 X68.063 Y139.475 E26.54049
G1 X67.939 Y139.394 E26.55705
G1 X67.166 Y138.868 E26.66153
G1 X67.043 Y138.778 E26.67857
G1 X66.33 Y138.212 E26.7803
G1 X66.224 Y138.122 E26.79584
G1 X65.418 Y137.377 E26.9185
G1 X65.094 Y137.052 E26.96979
G1 X64.446 Y136.354 E27.07622
G1 X64.329 Y136.217 E27.09636
G1 X63.789 Y135.544 E27.19278
G1 X63.661 Y135.371 E27.21683
G1 X63.102 Y134.555 E27.32737
G1 X63.018 Y134.426 E27.34457
G1 X62.814 Y134.098 E27.38774
G1 X62.343 Y133.284 E27.49284
G1 X62.261 Y133.129 E27.51244
G1 X61.875 Y132.331 E27.6115
G1 X61.803 Y132.168 E27.63141
G1 X61.427 Y131.213 E27.74611
G1 X61.292 Y130.83 E27.7915
G1 X61.256 Y130.723 E27.80411
G1 X60.976 Y129.817 E27.91009
G1 X60.937 Y129.671 E27.92698
G1 X60.732 Y128.787 E28.02839
G1 X60.7 Y128.616 E28.04783
G1 X60.536 Y127.533 E28.17024
G1 X60.488 Y127.087 E28.22037
G1 X60.415 Y126.122 E28.32852
G1 X60.41 Y125.988 E28.34351
G1 X60.4 Y125.447 E28.40397
G1 X60.4 Y92.514 E32.08437
G1 X60.436 Y91.508 E32.19687
G1 X60.446 Y91.373 E32.212
G1 X60.548 Y90.456 E32.31511
G1 X60.573 Y90.281 E32.33486
G1 X60.735 Y89.403 E32.43464
G1 X60.765 Y89.269 E32.44998
G1 X60.996 Y88.384 E32.5522
G1 X61.048 Y88.212 E32.57228
G1 X61.334 Y87.37 E32.67166
G1 X61.398 Y87.204 E32.69154
G1 X61.739 Y86.401 E32.78903
G1 X61.82 Y86.226 E32.81058
G1 X62.235 Y85.418 E32.9121
G1 X62.302 Y85.301 E32.92716
G1 X62.776 Y84.522 E33.02907
G1 X62.876 Y84.371 E33.04931
G1 X63.387 Y83.657 E33.14743
G1 X63.5 Y83.509 E33.16824
G1 X64.076 Y82.818 E33.26877
G1 X64.177 Y82.705 E33.28571
G1 X64.802 Y82.056 E33.3864
G1 X64.927 Y81.936 E33.40577
G1 X65.598 Y81.333 E33.50658
G1 X65.714 Y81.237 E33.52341
G0 F9000 X65.6 Y81.331
G1 F787.5 X65.6 Y137.545 E39.80555
G0 F9000 X67.2 Y138.891
G1 F787.5 X67.2 Y80.165 E46.36842
G0 F9000 X68.8 Y79.292
G1 F787.5 X68.8 Y139.914 E53.14318
G0 F9000 X70.4 Y140.726
G1 F787.5 X70.4 Y78.648 E60.08064
G0 F9000 X72 Y78.22
G1 F787.5 X72 Y141.311 E67.13132
G0 F9000 X73.6 Y141.74
G1 F787.5 X73.6 Y77.974 E74.25743
G0 F9000 X75.2 Y77.901
G1 F787.5 X75.2 Y141.988 E81.41941
G0 F9000 X76.8 Y142.091
G1 F787.5 X76.8 Y77.901 E88.5929
G0 F9000 X78.4 Y77.901
G1 F787.5 X78.4 Y142.099 E95.76729
G0 F9000 X80 Y142.099
G1 F787.5 X80 Y77.901 E102.94168
G0 F9000 X81.6 Y77.901
G1 F787.5 X81.6 Y142.099 E110.11606
G0 F9000 X83.2 Y142.099
G1 F787.5 X83.2 Y77.901 E117.29045
G0 F9000 X84.8 Y77.901
G1 F787.5 X84.8 Y142.099 E124.46484
G0 F9000 X86.4 Y142.099
G1 F787.5 X86.4 Y77.901 E131.63922
G0 F9000 X88 Y77.901
G1 F787.5 X88 Y142.099 E138.81361
G0 F9000 X89.6 Y142.099
G1 F787.5 X89.6 Y77.901 E145.988
G0 F9000 X91.2 Y77.901
G1 F787.5 X91.2 Y142.099 E153.16238
G0 F9000 X92.8 Y142.099
G1 F787.5 X92.8 Y77.901 E160.33677
G0 F9000 X94.4 Y77.901
G1 F787.5 X94.4 Y142.099 E167.51116
G0 F9000 X96 Y142.099
G1 F787.5 X96 Y77.901 E174.68554
G0 F9000 X97.6 Y77.901
G1 F787.5 X97.6 Y142.099 E181.85993
G0 F9000 X99.2 Y142.099
G1 F787.5 X99.2 Y77.901 E189.03432
G0 F9000 X100.8 Y77.901
G1 F787.5 X100.8 Y142.099 E196.2087
G0 F9000 X102.4 Y142.099
G1 F787.5 X102.4 Y77.901 E203.38309
G0 F9000 X104 Y77.901
G1 F787.5 X104 Y142.099 E210.55748
G0 F9000 X105.6 Y142.099
G1 F787.5 X105.6 Y77.901 E217.73186
G0 F9000 X107.2 Y77.901
G1 F787.5 X107.2 Y142.099 E224.90625
G0 F9000 X108.8 Y142.099
G1 F787.5 X108.8 Y77.901 E232.08064
G0 F9000 X110.4 Y77.901
G1 F787.5 X110.4 Y142.099 E239.25502
G0 F9000 X112 Y142.099
G1 F787.5 X112 Y77.901 E246.42941
G0 F9000 X113.6 Y77.901
G1 F787.5 X113.6 Y142.099 E253.6038
G0 F9000 X115.2 Y142.099
G1 F787.5 X115.2 Y77.901 E260.77818
G0 F9000 X116.8 Y77.901
G1 F787.5 X116.8 Y142.099 E267.95257
G0 F9000 X118.4 Y142.099
G1 F787.5 X118.4 Y77.901 E275.12696
G0 F9000 X120 Y77.901
G1 F787.5 X120 Y142.099 E282.30134
G0 F9000 X121.6 Y142.099
G1 F787.5 X121.6 Y77.901 E289.47573
G0 F9000 X123.2 Y77.901
G1 F787.5 X123.2 Y142.099 E296.65012
G0 F9000 X124.8 Y142.099
G1 F787.5 X124.8 Y77.901 E303.8245
G0 F9000 X126.4 Y77.901
G1 F787.5 X126.4 Y142.099 E310.99889
G0 F9000 X128 Y142.099
G1 F787.5 X128 Y77.901 E318.17328
G0 F9000 X129.6 Y77.901
G1 F787.5 X129.6 Y142.099 E325.34767
G0 F9000 X131.2 Y142.099
G1 F787.5 X131.2 Y77.901 E332.52205
G0 F9000 X132.8 Y77.901
G1 F787.5 X132.8 Y142.099 E339.69644
G0 F9000 X134.4 Y142.099
G1 F787.5 X134.4 Y77.901 E346.87083
G0 F9000 X136 Y77.901
G1 F787.5 X136 Y142.099 E354.04521
G0 F9000 X137.6 Y142.099
G1 F787.5 X137.6 Y77.901 E361.2196
G0 F9000 X139.2 Y77.901
G1 F787.5 X139.2 Y142.099 E368.39399
G0 F9000 X140.8 Y142.099
G1 F787.5 X140.8 Y77.901 E375.56837
G0 F9000 X142.4 Y77.901
G1 F787.5 X142.4 Y142.099 E382.74276
G0 F9000 X144 Y142.057
G1 F787.5 X144 Y77.901 E389.91245
G0 F9000 X145.6 Y77.923
G1 F787.5 X145.6 Y141.879 E397.05979
G0 F9000 X147.2 Y141.556
G1 F787.5 X147.2 Y78.071 E404.1545
G0 F9000 X148.8 Y78.414
G1 F787.5 X148.8 Y141.039 E411.1531
G0 F9000 X150.4 Y140.35
G1 F787.5 X150.4 Y78.943 E418.01558
G0 F9000 X152 Y79.693
G1 F787.5 X152 Y139.434 E424.69188
G0 F9000 X153.6 Y138.265
G1 F787.5 X153.6 Y80.714 E431.12344
G0 F9000 X155.2 Y82.068
G1 F787.5 X155.2 Y136.733 E437.23247
G0 F9000 X156.8 Y134.7
G1 F787.5 X156.8 Y83.91 E442.90846
G0 F9000 X158.4 Y86.711
G1 F787.5 X158.4 Y131.655 E447.93113
G1 F1500 E441.43113
G0 F9000 X159.392 Y132.042
G0 X158.633 Y133.718
G0 X157.782 Y135.148
G0 X156.531 Y136.849
G0 X155.289 Y138.174
G0 X153.692 Y139.556
G0 X152.147 Y140.598
G0 X150.271 Y141.594
G0 X148.557 Y142.256
G0 X146.513 Y142.809
G0 X144.683 Y143.072
G0 X142.95 Y143.165
G0 X75.948 Y143.126
G0 X73.577 Y142.826
G0 X71.446 Y142.256
G0 X69.808 Y141.63
G0 X67.862 Y140.603
G0 X66.404 Y139.629
G0 X65.511 Y138.913
G0 X64.552 Y138.004
G0 X63.17 Y136.474
G0 X64 Y135.806
G1 F1500 E447.93113
G1 F787.5 X64 Y82.909 E453.84259
G0 F9000 X62.4 Y85.139
G1 F787.5 X62.4 Y133.382 E459.23394
G1 F1500 E452.73394
G0 F9000 X61.308 Y133.604
G0 X60.522 Y131.798
G0 X59.903 Y129.922
G0 X60.8 Y129.08
G1 F1500 E459.23394
G1 F787.5 X60.8 Y89.134 E463.69807
G1 F1500 E457.19807
G0 F300 X60.8 Y89.134 Z0.561
G0 F9000 X59.694 Y89.184
G0 X59.387 Y91.269
G0 X59.336 Y92.489
G0 X59.353 Y126.19
G0 X59.489 Y127.73
G0 X59.691 Y129.013
G0 X60.286 Y131.177
G0 X60.637 Y132.08
G0 X61.301 Y133.591
G0 X62.26 Y133.128
;TIME_ELAPSED:330.935275
;LAYER:-6
;TYPE:SUPPORT
G1 F1500 E463.69807
G1 F787.5 X62.343 Y133.283 E463.71122
G1 X62.813 Y134.097 E463.78156
G1 X63.017 Y134.425 E463.81047
G1 X63.102 Y134.553 E463.82197
G1 X63.66 Y135.369 E463.89595
G1 X63.788 Y135.543 E463.91211
G1 X64.329 Y136.216 E463.97673
G1 X64.446 Y136.353 E463.99021
G1 X65.094 Y137.05 E464.06143
G1 X65.417 Y137.375 E464.09572
G1 X66.224 Y138.121 E464.17797
G1 X66.33 Y138.211 E464.18837
G1 X67.042 Y138.777 E464.25644
G1 X67.166 Y138.867 E464.26791
G1 X67.938 Y139.393 E464.33782
G1 X68.063 Y139.473 E464.34892
G1 X68.407 Y139.688 E464.37928
G1 X69.283 Y140.191 E464.45487
G1 X69.435 Y140.272 E464.46776
G1 X69.676 Y140.386 E464.48771
G1 X62.113 Y132.824 E465.28808
G1 X61.875 Y132.33 E465.32911
G1 X61.803 Y132.167 E465.34245
G1 X61.427 Y131.212 E465.41926
G1 X61.292 Y130.828 E465.44972
G1 X61.255 Y130.722 E465.45812
G1 X61.18 Y130.476 E465.47736
G1 X72.021 Y141.318 E466.62475
G1 X72.737 Y141.538 E466.68081
G1 X72.914 Y141.586 E466.69453
G1 X73.792 Y141.783 E466.76187
G1 X73.925 Y141.807 E466.77198
G1 X60.693 Y128.576 E468.17232
G1 X60.535 Y127.532 E468.25133
G1 X60.488 Y127.086 E468.28489
G1 X60.476 Y126.944 E468.29556
G1 X75.556 Y142.024 E469.89152
G1 X75.837 Y142.051 E469.91265
G1 X75.997 Y142.061 E469.92464
G1 X76.996 Y142.098 E469.99946
G1 X77.044 Y142.098 E470.00305
G1 X60.399 Y125.453 E471.76464
G1 X60.399 Y125.446 E471.76516
G1 X60.399 Y124.039 E471.87046
G1 X78.459 Y142.098 E473.78175
G1 X79.873 Y142.098 E473.88757
G1 X60.399 Y122.625 E475.94851
G1 X60.399 Y121.21 E476.0544
G1 X81.287 Y142.098 E478.26504
G1 X82.701 Y142.098 E478.37086
G1 X60.399 Y119.796 E480.73115
G1 X60.399 Y118.382 E480.83697
G1 X84.116 Y142.098 E483.34696
G1 X85.53 Y142.098 E483.45277
G1 X60.399 Y116.968 E486.11241
G1 X60.399 Y115.553 E486.21831
G1 X86.944 Y142.098 E489.02764
G1 X88.358 Y142.098 E489.13346
G1 X60.399 Y114.139 E492.09245
G1 X60.399 Y112.725 E492.19827
G1 X89.772 Y142.098 E495.3069
G1 X91.187 Y142.098 E495.41279
G1 X60.399 Y111.311 E498.67113
G1 X60.399 Y109.897 E498.77695
G1 X92.601 Y142.098 E502.18493
G1 X94.015 Y142.098 E502.29075
G1 X60.399 Y108.482 E505.84844
G1 X60.399 Y107.068 E505.95425
G1 X95.429 Y142.098 E509.66159
G1 X96.843 Y142.098 E509.7674
G1 X60.399 Y105.654 E513.62438
G1 X60.399 Y104.24 E513.7302
G1 X98.258 Y142.098 E517.73688
G1 X99.672 Y142.098 E517.8427
G1 X60.399 Y102.826 E521.99903
G1 X60.399 Y101.411 E522.10492
G1 X101.086 Y142.098 E526.41096
G1 X102.5 Y142.098 E526.51677
G1 X60.399 Y99.997 E530.97245
G1 X60.399 Y98.583 E531.07827
G1 X103.914 Y142.098 E535.6836
G1 X105.329 Y142.098 E535.78949
G1 X60.399 Y97.169 E540.54452
G1 X60.399 Y95.754 E540.65041
G1 X106.743 Y142.098 E545.55514
G1 X108.157 Y142.098 E545.66096
G1 X60.399 Y94.34 E550.71533
G1 X60.399 Y92.926 E550.82115
G1 X109.571 Y142.098 E556.02517
G1 X110.986 Y142.098 E556.13107
G1 X60.433 Y91.546 E561.48119
G1 X60.435 Y91.507 E561.48412
G1 X60.446 Y91.372 E561.49425
G1 X60.547 Y90.455 E561.56329
G1 X60.572 Y90.279 E561.5766
G1 X60.573 Y90.272 E561.57712
G1 X112.4 Y142.098 E567.06208
G1 X113.814 Y142.098 E567.1679
G1 X60.81 Y89.094 E572.77748
G1 X60.995 Y88.383 E572.83246
G1 X61.048 Y88.21 E572.846
G1 X61.121 Y87.991 E572.86327
G1 X115.228 Y142.098 E578.58959
G1 X116.642 Y142.098 E578.6954
G1 X61.502 Y86.957 E584.53109
G1 X61.738 Y86.399 E584.57643
G1 X61.82 Y86.225 E584.59083
G1 X61.943 Y85.984 E584.61108
G1 X118.057 Y142.098 E590.54979
G1 X119.471 Y142.098 E590.65561
G1 X62.442 Y85.069 E596.69117
G1 X62.776 Y84.521 E596.73919
G1 X62.875 Y84.37 E596.75271
G1 X62.992 Y84.205 E596.76784
G1 X120.885 Y142.098 E602.89484
G1 X122.299 Y142.098 E603.00066
G1 X63.595 Y83.394 E609.21348
G1 X64.075 Y82.817 E609.26965
G1 X64.177 Y82.704 E609.28104
G1 X64.247 Y82.631 E609.28861
G1 X123.713 Y142.098 E615.58214
G1 X125.128 Y142.098 E615.68803
G1 X64.947 Y81.917 E622.05717
G1 X65.597 Y81.332 E622.12261
G1 X65.695 Y81.252 E622.13208
G1 X126.542 Y142.098 E628.57165
G1 X127.956 Y142.098 E628.67747
G1 X66.495 Y80.637 E635.18208
G1 X66.585 Y80.573 E635.19034
G1 X67.322 Y80.083 E635.25657
G1 X67.343 Y80.071 E635.25838
G1 X129.37 Y142.098 E641.82289
G1 X130.785 Y142.098 E641.92879
G1 X68.245 Y79.559 E648.54753
G1 X68.392 Y79.483 E648.55992
G1 X69.203 Y79.103 E648.62694
G1 X132.199 Y142.098 E655.29395
G1 X133.613 Y142.098 E655.39977
G1 X70.222 Y78.707 E662.10863
G1 X70.36 Y78.659 E662.11957
G1 X71.209 Y78.403 E662.18593
G1 X71.306 Y78.377 E662.19344
G1 X135.027 Y142.098 E668.93724
G1 X136.441 Y142.098 E669.04305
G1 X72.468 Y78.125 E675.81351
G1 X73.313 Y78 E675.87744
G1 X73.481 Y77.981 E675.89009
G1 X73.721 Y77.964 E675.9081
G1 X137.856 Y142.098 E682.69565
G1 X139.27 Y142.098 E682.80147
G1 X75.072 Y77.9 E689.59574
G1 X76.486 Y77.9 E689.70156
G1 X140.684 Y142.098 E696.49583
G1 X142.098 Y142.098 E696.60165
G1 X77.9 Y77.9 E703.39592
G1 X79.314 Y77.9 E703.50174
G1 X143.503 Y142.089 E710.29506
G1 X143.633 Y142.083 E710.3048
G1 X144.594 Y142.011 E710.37692
G1 X144.815 Y141.987 E710.39355
G1 X80.728 Y77.9 E717.17608
G1 X82.143 Y77.9 E717.28197
G1 X146.052 Y141.809 E724.04566
G1 X146.115 Y141.8 E724.05042
G1 X146.286 Y141.767 E724.06345
G1 X147.17 Y141.562 E724.13136
G1 X147.209 Y141.552 E724.13438
