;FLAVOR:Marlin
;TIME:2558
;Filament used: 0.721563m
;Layer height: 0.2
;MINX:91.099
;MINY:93.666
;MINZ:0.12
;MAXX:133.166
;MAXY:133.171
;MAXZ:32.92
;Generated with Cura_SteamEngine 4.12.1
M140 S80
M105
M190 S80
M104 S200
M105
M109 S200
M82 ;absolute extrusion mode
; Ender 3 Custom Start G-code
G92 E0 ; Reset Extruder
G28 ; Home all axes
G1 Z2.0 F3000 ; Move Z Axis up little to prevent scratching of Heat Bed
G1 X0.1 Y20 Z0.3 F5000.0 ; Move to start position
G1 X0.1 Y200.0 Z0.3 F1500.0 E15 ; Draw the first line
G1 X0.4 Y200.0 Z0.3 F5000.0 ; Move to side a little
G1 X0.4 Y20 Z0.3 F1500.0 E30 ; Draw the second line
G92 E0 ; Reset Extruder
G1 Z2.0 F3000 ; Move Z Axis up little to prevent scratching of Heat Bed
G1 X5 Y20 Z0.3 F5000.0 ; Move over to prevent blob squish
G92 E0
G92 E0
G1 F1500 E-6.5
;LAYER_COUNT:166
;LAYER:0
M107
G0 F6000 X96.876 Y98.63 Z0.12
;TYPE:SKIRT
G1 F1500 E0
G1 F1200 X97.548 Y97.976 E0.01871
G1 X98.252 Y97.397 E0.0369
G1 X98.827 Y96.963 E0.05128
G1 X99.129 Y96.743 E0.05874
G1 X99.59 Y96.419 E0.06998
G1 X100.38 Y95.913 E0.0887
G1 X101.209 Y95.476 E0.1074
G1 X102.073 Y95.112 E0.12611
G1 X102.965 Y94.822 E0.14483
G1 X103.879 Y94.609 E0.16356
G1 X104.807 Y94.475 E0.18227
G1 X105.695 Y94.421 E0.20003
G1 X108.384 Y94.337 E0.25371
G1 X110.851 Y94.189 E0.30303
G1 X114.485 Y93.847 E0.37587
G1 X115.458 Y93.737 E0.39542
G1 X116.649 Y93.667 E0.41922
G1 X116.867 Y93.666 E0.42357
G1 X117.804 Y93.702 E0.44229
G1 X118.734 Y93.817 E0.46099
G1 X119.363 Y93.941 E0.47378
G1 X119.591 Y93.993 E0.47845
G1 X120.496 Y94.241 E0.49717
G1 X121.376 Y94.564 E0.51588
G1 X121.979 Y94.837 E0.52909
G1 X122.21 Y94.95 E0.53422
G1 X123.034 Y95.398 E0.55294
G1 X124.04 Y96.079 E0.57718
G1 X124.149 Y96.162 E0.57992
G1 X124.87 Y96.762 E0.59864
G1 X125.696 Y97.594 E0.62203
G1 X125.852 Y97.769 E0.62671
G1 X126.259 Y98.254 E0.63935
G1 X126.305 Y98.312 E0.64082
G1 X126.752 Y98.916 E0.65582
G1 X127.174 Y99.53 E0.67069
G1 X128.138 Y100.984 E0.7055
G1 X129.598 Y103.063 E0.7562
G1 X130.588 Y104.404 E0.78946
G1 X131.112 Y105.182 E0.80818
G1 X131.568 Y106.001 E0.82689
G1 X131.953 Y106.857 E0.84562
G1 X132.143 Y107.369 E0.85652
G1 X132.398 Y108.113 E0.87221
G1 X132.494 Y108.406 E0.87836
G1 X132.676 Y108.99 E0.89057
G1 X132.916 Y109.897 E0.90929
G1 X133.079 Y110.82 E0.928
G1 X133.162 Y111.754 E0.94671
G1 X133.166 Y112.692 E0.96543
G1 X133.089 Y113.627 E0.98415
G1 X132.933 Y114.552 E1.00287
G1 X132.691 Y115.487 E1.02215
G1 X132.451 Y116.27 E1.03849
G1 X132.339 Y116.614 E1.04571
G1 X132.148 Y117.171 E1.05746
G1 X131.806 Y118.044 E1.07617
G1 X131.392 Y118.886 E1.09489
G1 X130.907 Y119.688 E1.1136
G1 X130.565 Y120.174 E1.12546
G1 X129.783 Y121.224 E1.15158
G1 X129.694 Y121.354 E1.15473
G1 X128.499 Y122.939 E1.19434
G1 X128.123 Y123.46 E1.20716
G1 X127.541 Y124.196 E1.22589
G1 X126.914 Y124.924 E1.24506
G1 X126.024 Y125.929 E1.27185
G1 X125.373 Y126.604 E1.29057
G1 X124.667 Y127.221 E1.30928
G1 X123.701 Y127.912 E1.33298
G1 X122.981 Y128.369 E1.35
G1 X121.443 Y129.311 E1.38599
G1 X120.857 Y129.659 E1.39959
G1 X120.031 Y130.103 E1.4183
G1 X118.895 Y130.576 E1.44286
G1 X117.632 Y131.02 E1.46958
G1 X117.244 Y131.15 E1.47774
G1 X117.133 Y131.19 E1.4801
G1 X116.341 Y131.462 E1.49681
G1 X115.468 Y131.721 E1.51498
G1 X114.647 Y131.929 E1.53188
G1 X112.317 Y132.552 E1.58001
G1 X112.105 Y132.606 E1.58438
G1 X111.187 Y132.798 E1.6031
G1 X110.514 Y132.888 E1.61665
G1 X109.419 Y132.999 E1.63861
G1 X108.296 Y133.093 E1.6611
G1 X107.667 Y133.138 E1.67368
G1 X107 Y133.165 E1.68701
G1 X106.442 Y133.171 E1.69814
G1 X106.143 Y133.171 E1.70411
G1 X105.778 Y133.165 E1.71139
G1 X104.842 Y133.109 E1.73011
G1 X103.914 Y132.974 E1.74882
G1 X103.001 Y132.761 E1.76753
G1 X102.109 Y132.47 E1.78625
G1 X101.245 Y132.105 E1.80497
G1 X100.416 Y131.667 E1.82368
G1 X99.618 Y131.155 E1.8426
G1 X98.912 Y130.657 E1.85984
G1 X98.653 Y130.468 E1.86624
G1 X98.093 Y130.048 E1.88021
G1 X97.367 Y129.454 E1.89893
G1 X96.695 Y128.8 E1.91764
G1 X96.081 Y128.091 E1.93636
G1 X95.529 Y127.333 E1.95507
G1 X94.895 Y126.247 E1.98017
G1 X94.619 Y125.673 E1.99288
G1 X94.316 Y124.99 E2.00779
G1 X93.911 Y124.05 E2.02822
G1 X93.658 Y123.442 E2.04136
G1 X93.341 Y122.579 E2.0597
G1 X93.191 Y122.108 E2.06957
G1 X92.59 Y120.126 E2.1109
G1 X91.717 Y117.512 E2.1659
G1 X91.458 Y116.611 E2.18461
G1 X91.321 Y115.958 E2.19792
G1 X91.27 Y115.672 E2.20372
G1 X91.145 Y114.743 E2.22243
G1 X91.099 Y113.806 E2.24115
G1 X91.147 Y112.714 E2.26296
G1 X91.171 Y112.458 E2.26809
G1 X91.298 Y111.529 E2.2868
G1 X91.504 Y110.614 E2.30552
G1 X91.907 Y109.407 E2.33091
G1 X92.543 Y107.817 E2.36509
G1 X92.642 Y107.581 E2.3702
G1 X93.555 Y105.213 E2.42084
G1 X94.289 Y103.148 E2.46458
G1 X94.471 Y102.616 E2.4758
G1 X94.812 Y101.743 E2.4945
G1 X95.227 Y100.901 E2.51323
G1 X95.711 Y100.098 E2.53195
G1 X96.262 Y99.34 E2.55065
G1 X96.876 Y98.63 E2.56938
G0 F6000 X97.225 Y98.844
G1 F1200 X97.89 Y98.207 E2.58776
G1 X98.493 Y97.716 E2.60327
G1 X99.068 Y97.282 E2.61765
G1 X99.359 Y97.071 E2.62482
G1 X99.82 Y96.747 E2.63607
G1 X100.595 Y96.25 E2.65444
G1 X101.411 Y95.823 E2.67282
G1 X102.261 Y95.469 E2.69119
G1 X103.138 Y95.189 E2.70957
G1 X104.036 Y94.987 E2.72793
G1 X104.948 Y94.863 E2.7463
G1 X105.703 Y94.821 E2.76139
G1 X108.42 Y94.735 E2.81564
G1 X110.911 Y94.586 E2.86544
G1 X114.518 Y94.247 E2.93774
G1 X115.503 Y94.135 E2.95752
G1 X116.65 Y94.067 E2.98045
G1 X116.868 Y94.066 E2.9848
G1 X117.788 Y94.102 E3.00318
G1 X118.702 Y94.217 E3.02156
G1 X119.274 Y94.331 E3.0332
G1 X119.502 Y94.383 E3.03787
G1 X120.39 Y94.627 E3.05624
G1 X121.253 Y94.947 E3.07461
G1 X121.803 Y95.196 E3.08666
G1 X122.034 Y95.309 E3.09179
G1 X122.843 Y95.749 E3.11017
G1 X123.798 Y96.398 E3.13321
G1 X123.907 Y96.481 E3.13595
G1 X124.614 Y97.07 E3.15431
G1 X125.398 Y97.861 E3.17653
G1 X125.554 Y98.036 E3.18121
G1 X125.946 Y98.502 E3.19337
G1 X125.992 Y98.56 E3.19484
G1 X126.423 Y99.143 E3.20931
G1 X126.845 Y99.757 E3.22418
G1 X127.81 Y101.213 E3.25904
G1 X129.275 Y103.297 E3.30987
G1 X130.266 Y104.641 E3.3432
G1 X130.78 Y105.405 E3.36157
G1 X131.226 Y106.211 E3.37996
G1 X131.6 Y107.052 E3.39832
G1 X131.764 Y107.498 E3.40781
G1 X132.019 Y108.242 E3.4235
G1 X132.112 Y108.525 E3.42945
G1 X132.294 Y109.109 E3.44165
G1 X132.529 Y109.999 E3.46002
G1 X132.687 Y110.906 E3.4784
G1 X132.765 Y111.824 E3.49678
G1 X132.763 Y112.744 E3.51514
G1 X132.681 Y113.661 E3.53351
G1 X132.52 Y114.568 E3.5519
G1 X132.309 Y115.369 E3.56843
G1 X132.069 Y116.152 E3.58477
G1 X131.961 Y116.484 E3.59174
G1 X131.77 Y117.041 E3.60349
G1 X131.434 Y117.898 E3.62186
G1 X131.024 Y118.723 E3.64024
G1 X130.545 Y119.509 E3.65861
G1 X130.244 Y119.935 E3.66902
G1 X129.523 Y120.902 E3.69309
G1 X129.375 Y121.113 E3.69824
G1 X128.141 Y122.749 E3.73913
G1 X127.798 Y123.225 E3.75084
G1 X127.238 Y123.936 E3.7689
G1 X126.615 Y124.659 E3.78795
G1 X125.725 Y125.664 E3.81474
G1 X125.085 Y126.326 E3.83311
G1 X124.39 Y126.93 E3.85149
G1 X123.486 Y127.575 E3.87365
G1 X122.772 Y128.028 E3.89052
G1 X121.238 Y128.967 E3.92641
G1 X120.652 Y129.315 E3.94002
G1 X119.841 Y129.75 E3.95838
G1 X118.762 Y130.199 E3.9817
G1 X117.504 Y130.641 E4.00831
G1 X117.109 Y130.773 E4.01662
G1 X116.211 Y131.083 E4.03558
G1 X115.37 Y131.334 E4.0531
G1 X114.525 Y131.548 E4.07049
G1 X112.218 Y132.164 E4.11814
G1 X112.006 Y132.218 E4.12251
G1 X111.105 Y132.406 E4.14088
G1 X110.473 Y132.491 E4.1536
G1 X109.577 Y132.583 E4.17158
G1 X108.267 Y132.694 E4.19781
G1 X107.638 Y132.739 E4.2104
G1 X106.996 Y132.765 E4.22322
G1 X106.438 Y132.771 E4.23436
G1 X106.15 Y132.771 E4.2401
G1 X105.785 Y132.765 E4.24739
G1 X104.866 Y132.709 E4.26576
G1 X103.955 Y132.575 E4.28414
G1 X103.059 Y132.362 E4.30252
G1 X102.186 Y132.072 E4.32087
G1 X101.34 Y131.707 E4.33926
G1 X100.53 Y131.27 E4.35763
G1 X99.849 Y130.828 E4.37383
G1 X99.143 Y130.33 E4.39107
G1 X98.893 Y130.148 E4.39724
G1 X98.333 Y129.728 E4.41121
G1 X97.621 Y129.144 E4.42959
G1 X96.963 Y128.501 E4.44795
G1 X96.362 Y127.803 E4.46633
G1 X95.825 Y127.055 E4.48471
G1 X95.251 Y126.065 E4.50754
G1 X94.984 Y125.51 E4.51983
G1 X94.683 Y124.832 E4.53464
G1 X94.28 Y123.896 E4.55497
G1 X94.027 Y123.288 E4.56812
G1 X93.721 Y122.456 E4.58581
G1 X93.574 Y121.992 E4.59552
G1 X92.98 Y120.031 E4.63641
G1 X92.096 Y117.386 E4.69206
G1 X91.843 Y116.5 E4.71045
G1 X91.715 Y115.888 E4.72293
G1 X91.664 Y115.602 E4.72873
G1 X91.542 Y114.689 E4.74711
G1 X91.499 Y113.77 E4.76547
G1 X91.545 Y112.752 E4.7858
G1 X91.569 Y112.496 E4.79093
G1 X91.695 Y111.584 E4.80931
G1 X91.899 Y110.686 E4.82768
G1 X92.278 Y109.555 E4.85149
G1 X92.842 Y108.142 E4.88185
G1 X93.015 Y107.725 E4.89086
G1 X93.921 Y105.375 E4.94112
G1 X94.708 Y103.161 E4.98801
G1 X94.85 Y102.746 E4.99676
G1 X95.185 Y101.889 E5.01513
G1 X95.594 Y101.064 E5.0335
G1 X96.073 Y100.277 E5.05189
G1 X96.618 Y99.535 E5.07026
G1 X97.225 Y98.844 E5.08862
G0 F6000 X97.574 Y99.058
G1 F1200 X98.232 Y98.44 E5.10663
G1 X98.734 Y98.036 E5.11949
G1 X99.309 Y97.602 E5.13387
G1 X99.589 Y97.398 E5.14078
G1 X100.05 Y97.074 E5.15202
G1 X100.811 Y96.588 E5.17004
G1 X101.612 Y96.171 E5.18806
G1 X102.447 Y95.827 E5.20609
G1 X103.309 Y95.557 E5.22411
G1 X104.192 Y95.366 E5.24214
G1 X105.088 Y95.253 E5.26016
G1 X105.711 Y95.221 E5.27261
G1 X108.422 Y95.136 E5.32674
G1 X110.945 Y94.985 E5.37718
G1 X114.545 Y94.646 E5.44934
G1 X115.548 Y94.532 E5.46948
G1 X116.652 Y94.467 E5.49155
G1 X116.87 Y94.466 E5.4959
G1 X117.773 Y94.502 E5.51394
G1 X118.668 Y94.617 E5.53195
G1 X119.185 Y94.721 E5.54247
G1 X119.413 Y94.773 E5.54714
G1 X120.284 Y95.013 E5.56517
G1 X121.13 Y95.329 E5.58319
G1 X121.627 Y95.556 E5.59409
G1 X121.858 Y95.669 E5.59922
G1 X122.651 Y96.101 E5.61725
G1 X123.555 Y96.716 E5.63906
G1 X123.664 Y96.799 E5.6418
G1 X124.358 Y97.377 E5.65982
G1 X125.099 Y98.127 E5.68086
G1 X125.255 Y98.302 E5.68554
G1 X125.633 Y98.751 E5.69725
G1 X125.679 Y98.809 E5.69873
G1 X126.093 Y99.37 E5.71265
G1 X126.616 Y100.134 E5.73112
G1 X127.465 Y101.418 E5.76184
G1 X128.946 Y103.525 E5.81324
G1 X129.945 Y104.879 E5.84681
G1 X130.448 Y105.629 E5.86484
G1 X130.883 Y106.42 E5.88285
G1 X131.386 Y107.628 E5.90896
G1 X131.641 Y108.372 E5.92466
G1 X131.73 Y108.644 E5.93037
G1 X131.912 Y109.228 E5.94258
G1 X132.142 Y110.101 E5.96059
G1 X132.294 Y110.992 E5.97863
G1 X132.367 Y111.892 E5.99665
G1 X132.36 Y112.795 E6.01467
G1 X132.273 Y113.694 E6.0327
G1 X132.107 Y114.581 E6.0507
G1 X131.926 Y115.252 E6.06457
G1 X131.686 Y116.035 E6.08092
G1 X131.582 Y116.355 E6.08763
G1 X131.391 Y116.912 E6.09938
G1 X131.061 Y117.752 E6.11739
G1 X130.658 Y118.56 E6.13541
G1 X129.923 Y119.696 E6.16241
G1 X129.127 Y120.764 E6.18899
G1 X129.056 Y120.872 E6.19157
G1 X127.823 Y122.507 E6.23244
G1 X127.474 Y122.991 E6.24435
G1 X126.935 Y123.675 E6.26173
G1 X126.411 Y124.284 E6.27776
G1 X125.425 Y125.398 E6.30745
G1 X124.797 Y126.047 E6.32547
G1 X124.114 Y126.638 E6.34349
G1 X123.271 Y127.238 E6.36414
G1 X122.714 Y127.593 E6.37732
G1 X121.157 Y128.549 E6.41379
G1 X120.448 Y128.971 E6.43025
G1 X119.652 Y129.397 E6.44827
G1 X118.629 Y129.821 E6.47037
G1 X117.377 Y130.261 E6.49685
G1 X117.031 Y130.377 E6.50413
G1 X116.081 Y130.705 E6.52419
G1 X115.272 Y130.946 E6.54103
G1 X114.385 Y131.171 E6.5593
G1 X112.12 Y131.776 E6.60608
G1 X111.908 Y131.83 E6.61045
G1 X111.024 Y132.014 E6.62847
G1 X110.432 Y132.093 E6.64039
G1 X109.536 Y132.185 E6.65836
G1 X108.369 Y132.285 E6.68173
G1 X107.61 Y132.34 E6.69692
G1 X106.992 Y132.365 E6.70926
G1 X106.434 Y132.371 E6.7204
G1 X106.156 Y132.371 E6.72595
G1 X105.791 Y132.365 E6.73323
G1 X104.89 Y132.31 E6.75125
G1 X103.997 Y132.175 E6.76927
G1 X103.119 Y131.963 E6.78729
G1 X102.264 Y131.673 E6.80531
G1 X101.437 Y131.309 E6.82334
G1 X100.646 Y130.873 E6.84137
G1 X100.08 Y130.501 E6.85488
G1 X99.374 Y130.003 E6.87213
G1 X99.133 Y129.828 E6.87807
G1 X98.573 Y129.408 E6.89204
G1 X97.875 Y128.835 E6.91006
G1 X97.231 Y128.202 E6.92808
G1 X96.645 Y127.515 E6.9461
G1 X96.122 Y126.778 E6.96414
G1 X95.607 Y125.884 E6.98472
G1 X95.35 Y125.348 E6.99659
G1 X95.05 Y124.673 E7.01133
G1 X94.65 Y123.743 E7.03153
G1 X94.397 Y123.135 E7.04467
G1 X94.102 Y122.334 E7.06171
G1 X93.957 Y121.876 E7.07129
G1 X93.356 Y119.894 E7.11263
G1 X92.476 Y117.259 E7.16806
G1 X92.228 Y116.39 E7.1861
G1 X92.108 Y115.818 E7.19776
G1 X92.057 Y115.532 E7.20356
G1 X91.938 Y114.636 E7.2216
G1 X91.899 Y113.734 E7.23961
G1 X91.944 Y112.789 E7.25849
G1 X91.968 Y112.533 E7.26363
G1 X92.092 Y111.638 E7.28166
G1 X92.294 Y110.758 E7.29967
G1 X92.65 Y109.704 E7.32188
G1 X93.281 Y108.126 E7.35579
G1 X93.391 Y107.863 E7.36148
G1 X94.289 Y105.537 E7.41124
G1 X95.066 Y103.347 E7.45761
G1 X95.228 Y102.875 E7.46757
G1 X95.558 Y102.035 E7.48558
G1 X95.961 Y101.226 E7.50362
G1 X96.434 Y100.457 E7.52163
G1 X96.973 Y99.732 E7.53966
G1 X97.574 Y99.058 E7.55768
G0 F6000 X113.335 Y117.922
G1 F1200 X114.289 Y117.352 E7.57986
G1 X114.317 Y117.349 E7.58042
G1 X114.756 Y117.225 E7.58952
G1 X115.097 Y117.066 E7.59703
G1 X115.753 Y116.7 E7.61202
G1 X115.655 Y116.908 E7.61661
G1 X114.293 Y117.743 E7.64849
G1 X113.335 Y117.922 E7.66794
G0 F6000 X113.109 Y118.371
G1 F1200 X112.706 Y118.487 E7.67631
G1 X112.218 Y118.755 E7.68742
G1 X111.949 Y118.951 E7.69406
G1 X109.871 Y119.209 E7.73585
G1 X109.462 Y119.3 E7.74421
G1 X109.078 Y119.467 E7.75257
G1 X108.847 Y119.613 E7.75802
G1 X108.556 Y119.825 E7.76521
G1 X106.742 Y119.979 E7.80154
G1 X106.67 Y119.978 E7.80298
G1 X106.465 Y119.83 E7.80802
G1 X106.312 Y119.473 E7.81577
G1 X107.321 Y119.524 E7.83593
G1 X107.74 Y119.505 E7.8443
G1 X108.1 Y119.423 E7.85167
G1 X110.339 Y118.708 E7.89858
G1 X110.633 Y118.708 E7.90444
G1 X111.05 Y118.668 E7.9128
G1 X111.452 Y118.55 E7.92116
G1 X111.762 Y118.396 E7.92807
G1 X114.162 Y116.961 E7.98388
G1 X114.293 Y116.946 E7.98651
G1 X114.693 Y116.819 E7.99488
G1 X114.902 Y116.717 E7.99952
G1 X116.84 Y115.637 E8.0438
G1 X117.185 Y115.399 E8.05216
G1 X117.478 Y115.1 E8.06052
G1 X117.71 Y114.751 E8.06888
G1 X117.871 Y114.364 E8.07724
G1 X117.956 Y113.953 E8.08562
G1 X117.96 Y113.698 E8.09071
G1 X118.245 Y113.564 E8.09699
G1 X118.224 Y113.609 E8.09798
G1 X117.405 Y115.632 E8.14154
G1 X116.7 Y116.167 E8.1592
G1 X116.391 Y116.451 E8.16757
G1 X116.142 Y116.788 E8.17594
G1 X115.959 Y117.191 E8.18477
G1 X114.44 Y118.123 E8.22033
G1 X113.109 Y118.371 E8.24735
G0 F6000 X113.183 Y118.765
G1 F1200 X112.82 Y118.873 E8.25491
G1 X112.454 Y119.079 E8.26329
G1 X112.102 Y119.335 E8.27198
G1 X109.92 Y119.606 E8.31586
G1 X109.551 Y119.692 E8.32342
G1 X109.083 Y119.937 E8.33396
G1 X108.703 Y120.213 E8.34333
G1 X106.752 Y120.379 E8.38241
G1 X106.539 Y120.378 E8.38666
G1 X106.142 Y120.09 E8.39645
G1 X105.718 Y119.106 E8.41783
G1 X105.779 Y119.047 E8.41952
G1 X107.341 Y119.125 E8.45073
G1 X107.719 Y119.104 E8.45829
G1 X107.979 Y119.042 E8.46362
G1 X110.278 Y118.308 E8.51178
G1 X110.633 Y118.308 E8.51887
G1 X111.01 Y118.268 E8.52643
G1 X111.37 Y118.15 E8.53399
G1 X111.557 Y118.053 E8.5382
G1 X114.027 Y116.576 E8.59563
G1 X114.298 Y116.533 E8.6011
G1 X114.707 Y116.367 E8.60991
G1 X116.645 Y115.287 E8.65419
G1 X116.955 Y115.069 E8.66175
G1 X117.212 Y114.791 E8.6693
G1 X117.405 Y114.465 E8.67686
G1 X117.526 Y114.106 E8.68442
G1 X117.569 Y113.729 E8.692
G1 X117.536 Y113.397 E8.69866
G1 X117.893 Y113.296 E8.70606
G1 X118.309 Y113.059 E8.71561
G1 X119.819 Y111.912 E8.75346
G1 X120.03 Y111.912 E8.75767
G1 X120.221 Y112.051 E8.76238
G1 X120.294 Y112.273 E8.76704
G1 X120.26 Y112.377 E8.76923
G1 X119.389 Y112.861 E8.78911
G1 X119.079 Y113.079 E8.79668
G1 X118.821 Y113.357 E8.80424
G1 X118.594 Y113.759 E8.81346
G1 X117.734 Y115.885 E8.85922
G1 X116.941 Y116.486 E8.87908
G1 X116.665 Y116.745 E8.88663
G1 X116.449 Y117.057 E8.89421
G1 X116.318 Y117.362 E8.90083
G1 X116.286 Y117.46 E8.90289
G1 X114.585 Y118.503 E8.94271
G1 X113.183 Y118.765 E8.97117
G0 F6000 X113.256 Y119.158
G1 F1200 X112.937 Y119.258 E8.97784
G1 X112.689 Y119.402 E8.98356
G1 X112.253 Y119.72 E8.99433
G1 X109.97 Y120.003 E9.04024
G1 X109.645 Y120.083 E9.04692
G1 X109.318 Y120.26 E9.05434
G1 X108.847 Y120.603 E9.06597
G1 X106.773 Y120.779 E9.10751
G1 X106.409 Y120.778 E9.11477
G1 X105.818 Y120.348 E9.12936
G1 X105.291 Y119.125 E9.15593
G1 X105.384 Y118.839 E9.16193
