;FLAVOR:Marlin
;TIME:2544
;Filament used: 0.343609m
;Layer height: 0.15
;MINX:87.124
;MINY:84.875
;MINZ:0.2
;MAXX:133.751
;MAXY:135.126
;MAXZ:6.05
;Generated with Cura_SteamEngine 4.12.1
M140 S60
M105
M190 S60
M104 S220
M105
M109 S220
M82 ;absolute extrusion mode
; Ender 3 Custom Start G-code
G92 E0 ; Reset Extruder
G28 ; Home all axes
G1 Z2.0 F3000 ; Move Z Axis up little to prevent scratching of Heat Bed
G1 X0.1 Y20 Z0.3 F5000.0 ; Move to start position
G1 X0.1 Y200.0 Z0.3 F1500.0 E15 ; Draw the first line
G1 X0.4 Y200.0 Z0.3 F5000.0 ; Move to side a little
G1 X0.4 Y20 Z0.3 F1500.0 E30 ; Draw the second line
G92 E0 ; Reset Extruder
G1 Z2.0 F3000 ; Move Z Axis up little to prevent scratching of Heat Bed
G1 X5 Y20 Z0.3 F5000.0 ; Move over to prevent blob squish
G92 E0
G92 E0
G1 F1500 E-6.5
;LAYER_COUNT:40
;LAYER:0
M107
G0 F6000 X90.33 Y90.137 Z0.2
;TYPE:SKIRT
G1 F1500 E0
G1 F1200 X91.001 Y89.515 E0.03043
G1 X91.534 Y89.061 E0.05372
G1 X91.884 Y88.775 E0.06875
G1 X92.184 Y88.54 E0.08143
G1 X92.616 Y88.214 E0.09943
G1 X92.828 Y88.059 E0.10816
G1 X93.405 Y87.648 E0.13172
G1 X93.661 Y87.471 E0.14208
G1 X93.831 Y87.357 E0.14888
G1 X94.135 Y87.16 E0.16093
G1 X94.454 Y86.961 E0.17344
G1 X94.76 Y86.777 E0.18531
G1 X95.055 Y86.606 E0.19665
G1 X95.396 Y86.416 E0.20964
G1 X95.713 Y86.247 E0.22159
G1 X96.559 Y85.842 E0.25278
G1 X97.436 Y85.51 E0.28397
G1 X98.338 Y85.254 E0.31516
G1 X99.449 Y85.048 E0.35274
G1 X100.711 Y84.954 E0.39483
G1 X102.931 Y84.915 E0.46868
G1 X104.13 Y84.88 E0.50857
G1 X104.453 Y84.875 E0.51932
G1 X105.044 Y84.875 E0.53897
G1 X105.906 Y84.886 E0.56765
G1 X106.216 Y84.895 E0.57796
G1 X107.65 Y84.957 E0.6257
G1 X107.736 Y84.962 E0.62857
G1 X110.284 Y85.034 E0.71335
G1 X112.801 Y85.034 E0.79706
G1 X114.598 Y84.99 E0.85685
G1 X115.528 Y84.959 E0.8878
G1 X117.931 Y84.916 E0.96774
G1 X119.13 Y84.881 E1.00763
G1 X119.453 Y84.876 E1.01838
G1 X120.201 Y84.877 E1.04325
G1 X120.903 Y84.887 E1.06661
G1 X121.839 Y84.94 E1.09779
G1 X122.767 Y85.073 E1.12897
G1 X123.681 Y85.285 E1.16017
G1 X124.574 Y85.573 E1.19138
G1 X125.438 Y85.937 E1.22256
G1 X126.269 Y86.373 E1.25378
G1 X127.059 Y86.878 E1.28496
G1 X127.803 Y87.448 E1.31614
G1 X128.227 Y87.821 E1.33492
G1 X128.379 Y87.962 E1.34181
G1 X128.58 Y88.153 E1.35104
G1 X128.837 Y88.406 E1.36303
G1 X130.164 Y89.734 E1.42547
G1 X130.622 Y90.206 E1.44735
G1 X131.246 Y90.906 E1.47854
G1 X131.808 Y91.657 E1.50973
G1 X132.304 Y92.453 E1.54093
G1 X132.73 Y93.288 E1.57211
G1 X133.084 Y94.157 E1.60332
G1 X133.362 Y95.053 E1.63452
G1 X133.563 Y95.969 E1.66571
G1 X133.662 Y96.659 E1.68889
G1 X133.68 Y96.822 E1.69435
G1 X133.745 Y97.895 E1.7301
G1 X133.751 Y98.438 E1.74816
G1 X133.75 Y98.821 E1.7609
G1 X133.74 Y99.529 E1.78445
G1 X133.731 Y99.842 E1.79487
G1 X133.691 Y100.785 E1.82626
G1 X133.618 Y103.328 E1.91088
G1 X133.618 Y105.852 E1.99482
G1 X133.689 Y108.408 E2.07987
G1 X133.708 Y108.778 E2.09219
G1 X133.738 Y109.602 E2.11962
G1 X133.744 Y109.876 E2.12873
G1 X133.75 Y110.437 E2.14739
G1 X133.749 Y110.821 E2.16016
G1 X133.739 Y111.529 E2.18371
G1 X133.73 Y111.842 E2.19413
G1 X133.69 Y112.785 E2.22552
G1 X133.617 Y115.328 E2.31014
G1 X133.617 Y117.852 E2.39409
G1 X133.688 Y120.408 E2.47913
G1 X133.707 Y120.779 E2.49149
G1 X133.737 Y121.606 E2.51901
G1 X133.743 Y121.866 E2.52766
G1 X133.749 Y122.4 E2.54542
G1 X133.748 Y122.793 E2.55849
G1 X133.738 Y123.511 E2.58238
G1 X133.685 Y124.448 E2.61359
G1 X133.552 Y125.376 E2.64477
G1 X133.341 Y126.29 E2.67597
G1 X133.053 Y127.182 E2.70715
G1 X132.69 Y128.047 E2.73835
G1 X132.254 Y128.878 E2.76956
G1 X131.749 Y129.668 E2.80075
G1 X131.179 Y130.413 E2.83195
G1 X130.547 Y131.106 E2.86314
G1 X129.859 Y131.743 E2.89433
G1 X129.119 Y132.319 E2.92552
G1 X128.332 Y132.83 E2.95673
G1 X127.505 Y133.272 E2.98791
G1 X126.732 Y133.608 E3.01595
G1 X126.578 Y133.668 E3.02144
G1 X126.109 Y133.838 E3.03804
G1 X124.442 Y134.401 E3.09656
G1 X123.85 Y134.591 E3.11724
G1 X122.945 Y134.839 E3.14845
G1 X122.023 Y135.009 E3.17963
G1 X120.801 Y135.113 E3.22042
G1 X120.485 Y135.122 E3.23094
G1 X120.168 Y135.126 E3.24148
G1 X117.262 Y135.124 E3.33813
G1 X116.599 Y135.115 E3.36019
G1 X116.278 Y135.106 E3.37087
G1 X115.039 Y135.053 E3.41211
G1 X114.815 Y135.052 E3.41957
G1 X113.747 Y135.005 E3.45512
G1 X111.175 Y134.963 E3.54068
G1 X108.693 Y134.994 E3.62324
G1 X106.112 Y135.102 E3.70916
G1 X105.484 Y135.12 E3.73005
G1 X105.169 Y135.125 E3.74053
G1 X102.284 Y135.124 E3.83649
G1 X101.583 Y135.114 E3.8598
G1 X100.647 Y135.061 E3.89098
G1 X99.435 Y134.871 E3.93179
G1 X98.146 Y134.595 E3.97563
G1 X96.262 Y134.215 E4.03956
G1 X95.832 Y134.123 E4.05418
G1 X94.924 Y133.887 E4.08539
G1 X94.039 Y133.576 E4.11659
G1 X93.184 Y133.19 E4.14779
G1 X92.365 Y132.733 E4.17898
G1 X91.588 Y132.207 E4.21019
G1 X90.859 Y131.618 E4.24136
G1 X90.183 Y130.968 E4.27255
G1 X89.564 Y130.263 E4.30376
G1 X89.008 Y129.508 E4.33494
G1 X88.518 Y128.709 E4.36612
G1 X88.097 Y127.87 E4.39734
G1 X87.75 Y126.999 E4.42852
G1 X87.478 Y126.101 E4.45973
G1 X87.284 Y125.184 E4.4909
G1 X87.169 Y124.253 E4.5221
G1 X87.137 Y123.655 E4.54202
G1 X87.128 Y123.312 E4.55343
G1 X87.124 Y123.048 E4.56222
G1 X87.124 Y122.424 E4.58297
G1 X87.134 Y121.719 E4.60642
G1 X87.143 Y121.417 E4.61647
G1 X87.186 Y120.381 E4.65096
G1 X87.258 Y117.749 E4.73853
G1 X87.256 Y115.266 E4.82111
G1 X87.18 Y113.107 E4.89297
G1 X87.129 Y111.341 E4.95173
G1 X87.124 Y111.048 E4.96148
G1 X87.124 Y110.424 E4.98223
G1 X87.134 Y109.719 E5.00568
G1 X87.143 Y109.411 E5.01593
G1 X87.186 Y108.38 E5.05025
G1 X87.259 Y105.756 E5.13756
G1 X87.257 Y103.23 E5.22157
G1 X87.183 Y100.676 E5.30656
G1 X87.154 Y100.1 E5.32574
G1 X87.144 Y99.849 E5.33409
G1 X87.129 Y99.294 E5.35256
G1 X87.125 Y99.023 E5.36157
G1 X87.125 Y98.421 E5.3816
G1 X87.135 Y97.73 E5.40458
G1 X87.189 Y96.793 E5.4358
G1 X87.322 Y95.865 E5.46698
G1 X87.533 Y94.951 E5.49818
G1 X87.822 Y94.059 E5.52936
G1 X88.186 Y93.195 E5.56055
G1 X88.622 Y92.364 E5.59176
G1 X89.127 Y91.574 E5.62295
G1 X89.698 Y90.83 E5.65414
G1 X90.33 Y90.137 E5.68533
G0 F6000 X90.722 Y90.312
G1 F1200 X91.261 Y89.82 E5.70961
G1 X91.794 Y89.366 E5.73289
G1 X92.13 Y89.09 E5.74736
G1 X92.43 Y88.855 E5.76003
G1 X92.856 Y88.534 E5.77777
G1 X93.06 Y88.384 E5.78619
G1 X93.637 Y87.973 E5.80976
G1 X93.883 Y87.803 E5.8197
G1 X94.053 Y87.689 E5.82651
G1 X94.347 Y87.499 E5.83815
G1 X94.666 Y87.3 E5.85066
G1 X94.96 Y87.123 E5.86207
G1 X95.255 Y86.952 E5.87341
G1 X95.584 Y86.769 E5.88593
G1 X95.901 Y86.6 E5.89788
G1 X96.732 Y86.203 E5.92851
G1 X97.594 Y85.879 E5.95914
G1 X98.48 Y85.631 E5.98974
G1 X99.502 Y85.445 E6.02429
G1 X100.718 Y85.354 E6.06485
G1 X102.95 Y85.315 E6.1391
G1 X104.142 Y85.28 E6.17876
G1 X104.453 Y85.275 E6.18911
G1 X105.044 Y85.275 E6.20876
G1 X105.9 Y85.286 E6.23724
G1 X106.199 Y85.295 E6.24719
G1 X107.628 Y85.356 E6.29476
G1 X107.738 Y85.362 E6.29842
G1 X110.273 Y85.434 E6.38277
G1 X112.81 Y85.434 E6.46715
G1 X114.621 Y85.39 E6.5274
G1 X115.541 Y85.359 E6.55802
G1 X117.95 Y85.316 E6.63816
G1 X119.142 Y85.281 E6.67782
G1 X119.453 Y85.276 E6.68816
G1 X120.195 Y85.277 E6.71284
G1 X120.897 Y85.287 E6.73619
G1 X121.816 Y85.34 E6.76681
G1 X122.727 Y85.473 E6.79743
G1 X123.623 Y85.684 E6.82805
G1 X124.498 Y85.972 E6.85869
G1 X125.344 Y86.335 E6.88931
G1 X126.155 Y86.77 E6.91992
G1 X126.926 Y87.274 E6.95055
G1 X127.955 Y88.115 E6.99475
G1 X128.107 Y88.256 E7.00165
G1 X128.3 Y88.44 E7.01052
G1 X128.554 Y88.689 E7.02235
G1 X129.877 Y90.012 E7.08458
G1 X130.335 Y90.484 E7.10645
G1 X130.947 Y91.172 E7.13708
G1 X131.497 Y91.911 E7.16772
G1 X131.981 Y92.694 E7.19833
G1 X132.395 Y93.516 E7.22895
G1 X132.735 Y94.372 E7.25958
G1 X133.001 Y95.253 E7.29019
G1 X133.189 Y96.154 E7.3208
G1 X133.264 Y96.703 E7.33923
G1 X133.282 Y96.866 E7.34469
G1 X133.345 Y97.899 E7.37911
G1 X133.351 Y98.438 E7.39704
G1 X133.35 Y98.816 E7.40961
G1 X133.34 Y99.524 E7.43316
G1 X133.331 Y99.825 E7.44317
G1 X133.295 Y100.665 E7.47114
G1 X133.218 Y103.352 E7.56055
G1 X133.218 Y105.863 E7.64406
G1 X133.289 Y108.403 E7.72858
G1 X133.308 Y108.792 E7.74153
G1 X133.338 Y109.616 E7.76895
G1 X133.344 Y109.88 E7.77774
G1 X133.35 Y110.437 E7.79626
G1 X133.349 Y110.816 E7.80887
G1 X133.339 Y111.524 E7.83242
G1 X133.33 Y111.825 E7.84244
G1 X133.294 Y112.665 E7.8704
G1 X133.217 Y115.352 E7.95981
G1 X133.217 Y117.863 E8.04332
G1 X133.288 Y120.403 E8.12784
G1 X133.307 Y120.794 E8.14086
G1 X133.337 Y121.621 E8.16838
G1 X133.343 Y121.871 E8.1767
G1 X133.349 Y122.4 E8.19429
G1 X133.348 Y122.788 E8.2072
G1 X133.338 Y123.506 E8.23108
G1 X133.285 Y124.425 E8.2617
G1 X133.153 Y125.336 E8.29231
G1 X132.942 Y126.232 E8.32293
G1 X132.654 Y127.107 E8.35357
G1 X132.291 Y127.953 E8.38419
G1 X131.857 Y128.764 E8.41478
G1 X131.353 Y129.535 E8.44542
G1 X130.785 Y130.259 E8.47602
G1 X130.156 Y130.931 E8.50664
G1 X129.47 Y131.546 E8.53728
G1 X128.734 Y132.1 E8.56792
G1 X127.953 Y132.587 E8.59853
G1 X127.133 Y133.004 E8.62913
G1 X126.587 Y133.235 E8.64885
G1 X126.433 Y133.295 E8.65435
G1 X125.981 Y133.459 E8.67034
G1 X124.319 Y134.02 E8.72868
G1 X123.727 Y134.21 E8.74936
G1 X122.839 Y134.453 E8.77998
G1 X121.934 Y134.618 E8.81058
G1 X120.79 Y134.713 E8.84876
G1 X120.474 Y134.722 E8.85927
G1 X120.168 Y134.726 E8.86945
G1 X117.267 Y134.724 E8.96594
G1 X116.604 Y134.715 E8.98799
G1 X116.295 Y134.706 E8.99828
G1 X115.227 Y134.66 E9.03383
G1 X114.832 Y134.653 E9.04697
G1 X113.733 Y134.605 E9.08356
G1 X111.177 Y134.563 E9.16858
G1 X108.671 Y134.594 E9.25194
G1 X106.101 Y134.703 E9.33749
G1 X105.473 Y134.721 E9.35839
G1 X105.169 Y134.725 E9.3685
G1 X102.29 Y134.724 E9.46426
G1 X101.589 Y134.714 E9.48757
G1 X100.67 Y134.661 E9.51819
G1 X99.518 Y134.48 E9.55698
G1 X98.214 Y134.2 E9.60134
G1 X96.345 Y133.823 E9.66475
G1 X95.915 Y133.731 E9.67938
G1 X95.024 Y133.5 E9.70999
G1 X94.157 Y133.192 E9.74059
G1 X93.319 Y132.81 E9.77123
G1 X92.518 Y132.356 E9.80185
G1 X91.759 Y131.835 E9.83247
G1 X91.048 Y131.25 E9.86309
G1 X90.39 Y130.606 E9.89372
G1 X89.791 Y129.907 E9.92433
G1 X89.255 Y129.158 E9.95497
G1 X88.786 Y128.366 E9.98558
G1 X88.388 Y127.536 E10.0162
G1 X88.063 Y126.675 E10.04681
G1 X87.814 Y125.788 E10.07745
G1 X87.642 Y124.884 E10.10805
G1 X87.537 Y123.644 E10.14944
G1 X87.528 Y123.301 E10.16086
G1 X87.524 Y123.047 E10.16931
G1 X87.524 Y122.43 E10.18983
G1 X87.534 Y121.725 E10.21328
G1 X87.542 Y121.433 E10.22299
G1 X87.588 Y120.34 E10.25938
G1 X87.658 Y117.759 E10.34525
G1 X87.656 Y115.252 E10.42864
G1 X87.579 Y113.095 E10.50043
G1 X87.528 Y111.329 E10.55919
G1 X87.524 Y111.047 E10.56857
G1 X87.524 Y110.43 E10.58909
G1 X87.534 Y109.725 E10.61254
G1 X87.542 Y109.428 E10.62242
G1 X87.588 Y108.34 E10.65864
G1 X87.659 Y105.767 E10.74425
G1 X87.657 Y103.253 E10.82787
G1 X87.582 Y100.658 E10.91421
G1 X87.553 Y100.08 E10.93346
G1 X87.544 Y99.838 E10.94152
G1 X87.529 Y99.283 E10.95998
G1 X87.525 Y99.022 E10.96867
G1 X87.525 Y98.427 E10.98846
G1 X87.535 Y97.736 E11.01144
G1 X87.588 Y96.817 E11.04206
G1 X87.721 Y95.905 E11.07271
G1 X87.933 Y95.009 E11.10334
G1 X88.221 Y94.135 E11.13394
G1 X88.584 Y93.289 E11.16456
G1 X89.019 Y92.478 E11.19517
G1 X89.523 Y91.707 E11.22581
G1 X90.092 Y90.983 E11.25643
G1 X90.722 Y90.312 E11.28705
G0 F6000 X91.113 Y90.49
G1 F1200 X91.52 Y90.124 E11.30525
G1 X92.053 Y89.67 E11.32854
G1 X92.377 Y89.405 E11.34246
G1 X92.677 Y89.17 E11.35514
G1 X93.095 Y88.854 E11.37256
G1 X93.292 Y88.71 E11.38068
G1 X93.869 Y88.299 E11.40424
G1 X94.106 Y88.135 E11.41383
G1 X94.276 Y88.021 E11.42064
G1 X94.558 Y87.839 E11.4318
G1 X94.877 Y87.64 E11.4443
G1 X95.161 Y87.469 E11.45533
G1 X95.456 Y87.298 E11.46667
G1 X95.772 Y87.122 E11.4787
G1 X96.089 Y86.953 E11.49065
G1 X96.904 Y86.564 E11.52069
G1 X97.751 Y86.248 E11.55075
G1 X98.621 Y86.009 E11.58076
G1 X99.555 Y85.841 E11.61233
G1 X100.725 Y85.754 E11.65135
G1 X102.894 Y85.716 E11.7235
G1 X104.153 Y85.679 E11.76539
G1 X104.453 Y85.675 E11.77537
G1 X105.044 Y85.675 E11.79503
G1 X105.894 Y85.686 E11.8233
G1 X106.182 Y85.694 E11.83288
G1 X107.456 Y85.748 E11.8753
G1 X107.703 Y85.762 E11.88352
G1 X110.262 Y85.834 E11.96867
G1 X112.82 Y85.834 E12.05375
G1 X114.645 Y85.79 E12.11447
G1 X115.555 Y85.759 E12.14475
G1 X117.894 Y85.717 E12.22256
G1 X119.153 Y85.68 E12.26445
G1 X119.453 Y85.676 E12.27443
G1 X120.189 Y85.677 E12.29891
G1 X120.891 Y85.687 E12.32226
G1 X121.793 Y85.74 E12.35231
G1 X122.686 Y85.872 E12.38234
G1 X123.564 Y86.083 E12.41237
G1 X124.42 Y86.371 E12.44241
G1 X125.248 Y86.733 E12.47247
G1 X126.04 Y87.167 E12.5025
G1 X126.79 Y87.67 E12.53254
G1 X127.683 Y88.408 E12.57107
G1 X127.835 Y88.549 E12.57797
G1 X128.021 Y88.726 E12.58651
G1 X128.272 Y88.972 E12.5982
G1 X129.59 Y90.291 E12.66022
G1 X130.048 Y90.763 E12.68209
G1 X130.648 Y91.438 E12.71213
G1 X131.185 Y92.164 E12.74216
G1 X131.657 Y92.934 E12.7722
G1 X132.058 Y93.743 E12.80223
G1 X132.386 Y94.585 E12.83229
G1 X132.638 Y95.452 E12.86232
G1 X132.866 Y96.746 E12.90602
G1 X132.884 Y96.909 E12.91147
G1 X132.945 Y97.904 E12.94463
G1 X132.951 Y98.438 E12.96239
G1 X132.95 Y98.81 E12.97476
G1 X132.94 Y99.518 E12.99831
G1 X132.932 Y99.808 E13.00796
G1 X132.893 Y100.728 E13.03859
G1 X132.818 Y103.34 E13.1255
G1 X132.818 Y105.874 E13.20978
G1 X132.89 Y108.435 E13.295
G1 X132.908 Y108.807 E13.30738
G1 X132.938 Y109.631 E13.33481
G1 X132.944 Y109.885 E13.34326
G1 X132.95 Y110.437 E13.36162
G1 X132.949 Y110.81 E13.37403
G1 X132.939 Y111.518 E13.39758
G1 X132.931 Y111.808 E13.40722
G1 X132.892 Y112.728 E13.43785
G1 X132.817 Y115.34 E13.52476
G1 X132.817 Y117.874 E13.60904
G1 X132.889 Y120.435 E13.69426
G1 X132.907 Y120.808 E13.70668
G1 X132.937 Y121.635 E13.7342
G1 X132.943 Y121.876 E13.74222
G1 X132.949 Y122.4 E13.75965
G1 X132.948 Y122.782 E13.77235
G1 X132.938 Y123.5 E13.79624
G1 X132.885 Y124.402 E13.82629
G1 X132.753 Y125.295 E13.85631
G1 X132.543 Y126.173 E13.88634
G1 X132.255 Y127.029 E13.91638
G1 X131.893 Y127.857 E13.94644
G1 X131.46 Y128.649 E13.97646
G1 X130.957 Y129.399 E14.00649
G1 X130.391 Y130.103 E14.03654
G1 X129.764 Y130.753 E14.06658
G1 X129.083 Y131.345 E14.09659
G1 X128.351 Y131.875 E14.12665
G1 X127.576 Y132.338 E14.15667
G1 X126.442 Y132.862 E14.19822
G1 X126.288 Y132.922 E14.20372
G1 X125.853 Y133.08 E14.21911
G1 X124.197 Y133.639 E14.27724
G1 X123.605 Y133.829 E14.29792
G1 X122.734 Y134.067 E14.32795
G1 X121.845 Y134.226 E14.35799
G1 X120.778 Y134.313 E14.3936
G1 X120.462 Y134.322 E14.40411
G1 X120.168 Y134.326 E14.41389
G1 X117.273 Y134.324 E14.51018
G1 X116.61 Y134.315 E14.53223
G1 X116.312 Y134.307 E14.54215
G1 X115.009 Y134.251 E14.58553
G1 X114.85 Y134.253 E14.59081
G1 X113.758 Y134.205 E14.62717
G1 X111.178 Y134.163 E14.71299
G1 X108.683 Y134.194 E14.79598
G1 X106.089 Y134.303 E14.88234
G1 X105.461 Y134.321 E14.90323
G1 X105.169 Y134.325 E14.91294
G1 X102.296 Y134.324 E15.0085
G1 X101.595 Y134.314 E15.03182
G1 X100.693 Y134.261 E15.06187
G1 X99.602 Y134.088 E15.09861
G1 X98.375 Y133.825 E15.14035
G1 X96.429 Y133.432 E15.20638
G1 X95.999 Y133.34 E15.221
G1 X95.125 Y133.112 E15.25105
G1 X94.275 Y132.808 E15.28107
G1 X93.455 Y132.43 E15.3111
G1 X92.671 Y131.981 E15.34115
G1 X91.931 Y131.464 E15.37118
G1 X91.239 Y130.883 E15.40123
G1 X90.601 Y130.244 E15.43126
G1 X90.022 Y129.551 E15.4613
G1 X89.507 Y128.809 E15.49134
G1 X89.059 Y128.025 E15.52137
G1 X88.683 Y127.204 E15.55141
G1 X88.38 Y126.353 E15.58145
G1 X88.154 Y125.479 E15.61148
G1 X88.006 Y124.588 E15.64152
G1 X87.937 Y123.634 E15.67333
G1 X87.928 Y123.291 E15.68474
G1 X87.924 Y123.046 E15.69289
G1 X87.924 Y122.435 E15.71321
G1 X87.934 Y121.73 E15.73667
G1 X87.942 Y121.45 E15.74598
G1 X87.987 Y120.368 E15.782
G1 X88.058 Y117.769 E15.86848
G1 X88.056 Y115.265 E15.95176
G1 X87.979 Y113.083 E16.02438
G1 X87.928 Y111.317 E16.08314
G1 X87.924 Y111.046 E16.09215
G1 X87.924 Y110.435 E16.11248
G1 X87.934 Y109.73 E16.13593
G1 X87.942 Y109.445 E16.14541
G1 X87.987 Y108.368 E16.18126
G1 X88.059 Y105.778 E16.26744
G1 X88.057 Y103.242 E16.35179
G1 X87.981 Y100.625 E16.43887
G1 X87.953 Y100.06 E16.45768
G1 X87.944 Y99.828 E16.4654
G1 X87.929 Y99.273 E16.48387
G1 X87.925 Y99.021 E16.49225
G1 X87.925 Y98.432 E16.51184
G1 X87.935 Y97.741 E16.53483
G1 X87.988 Y96.84 E16.56485
