;FLAVOR:Marlin
;TIME:3221
;Filament used: 1.35148m
;Layer height: 0.2
;MINX:76.771
;MINY:76.52
;MINZ:0.2
;MAXX:140.351
;MAXY:144.178
;MAXZ:13.6
;Generated with Cura_SteamEngine 4.12.1
M140 S60
M105
M190 S60
M104 S220
M105
M109 S220
M82 ;absolute extrusion mode
; Ender 3 Custom Start G-code
G92 E0 ; Reset Extruder
G28 ; Home all axes
G1 Z2.0 F3000 ; Move Z Axis up little to prevent scratching of Heat Bed
G1 X0.1 Y20 Z0.3 F5000.0 ; Move to start position
G1 X0.1 Y200.0 Z0.3 F1500.0 E15 ; Draw the first line
G1 X0.4 Y200.0 Z0.3 F5000.0 ; Move to side a little
G1 X0.4 Y20 Z0.3 F1500.0 E30 ; Draw the second line
G92 E0 ; Reset Extruder
G1 Z2.0 F3000 ; Move Z Axis up little to prevent scratching of Heat Bed
G1 X5 Y20 Z0.3 F5000.0 ; Move over to prevent blob squish
G92 E0
G92 E0
G1 F1500 E-6.5
;LAYER_COUNT:68
;LAYER:0
M107
G0 F6000 X87.015 Y91.906 Z0.2
;TYPE:SKIRT
G1 F1500 E0
G1 F1200 X87.355 Y91.602 E0.01517
G1 X87.81 Y91.217 E0.03499
G1 X88.001 Y91.064 E0.04313
G1 X88.208 Y90.902 E0.05188
G1 X88.608 Y90.597 E0.06861
G1 X89.344 Y90.082 E0.09848
G1 X89.511 Y89.975 E0.10508
G1 X89.873 Y89.753 E0.1192
G1 X91.999 Y88.504 E0.20121
G1 X92.211 Y88.382 E0.20935
G1 X92.478 Y88.233 E0.21952
G1 X92.628 Y88.157 E0.22511
G1 X92.891 Y88.003 E0.23525
G1 X93.144 Y87.859 E0.24493
G1 X93.419 Y87.707 E0.25538
G1 X93.689 Y87.562 E0.26558
G1 X94.341 Y87.225 E0.28999
G1 X95.049 Y86.89 E0.31604
G1 X95.561 Y86.67 E0.33457
G1 X96.026 Y86.483 E0.35124
G1 X96.512 Y86.306 E0.36845
G1 X96.747 Y86.227 E0.37669
G1 X97.282 Y86.062 E0.39531
G1 X97.68 Y85.955 E0.40902
G1 X99.108 Y85.597 E0.45799
G1 X99.302 Y85.538 E0.46473
G1 X100.544 Y85.228 E0.50731
G1 X102.965 Y84.548 E0.59094
G1 X105.365 Y83.801 E0.67455
G1 X107.761 Y82.98 E0.75879
G1 X110.092 Y82.108 E0.84156
G1 X112.444 Y81.15 E0.92603
G1 X114.743 Y80.137 E1.00959
G1 X117.01 Y79.061 E1.09305
G1 X119.286 Y77.902 E1.178
G1 X119.5 Y77.79 E1.18604
G1 X120.348 Y77.39 E1.21722
G1 X121.227 Y77.064 E1.2484
G1 X122.131 Y76.814 E1.2796
G1 X123.053 Y76.642 E1.31079
G1 X124.129 Y76.542 E1.34674
G1 X124.487 Y76.531 E1.35865
G1 X125.201 Y76.52 E1.3824
G1 X128.627 Y76.52 E1.49635
G1 X128.853 Y76.522 E1.50387
G1 X129.535 Y76.536 E1.52655
G1 X130.471 Y76.596 E1.55775
G1 X131.398 Y76.734 E1.58892
G1 X132.311 Y76.951 E1.62013
G1 X133.201 Y77.246 E1.65132
G1 X134.063 Y77.615 E1.6825
G1 X134.891 Y78.056 E1.71371
G1 X135.678 Y78.566 E1.7449
G1 X136.419 Y79.141 E1.77609
G1 X137.108 Y79.777 E1.80728
G1 X137.741 Y80.469 E1.83847
G1 X138.312 Y81.213 E1.86967
G1 X138.817 Y82.003 E1.90085
G1 X139.254 Y82.833 E1.93205
G1 X139.618 Y83.698 E1.96326
G1 X139.908 Y84.59 E1.99446
G1 X140.12 Y85.503 E2.02563
G1 X140.254 Y86.431 E2.05682
G1 X140.307 Y87.323 E2.08654
G1 X140.324 Y88.209 E2.11601
G1 X140.326 Y88.412 E2.12277
G1 X140.351 Y122.456 E3.25508
G1 X140.348 Y124.557 E3.32495
G1 X140.338 Y125.251 E3.34804
G1 X140.284 Y126.188 E3.37926
G1 X140.151 Y127.116 E3.41044
G1 X139.94 Y128.03 E3.44164
G1 X139.651 Y128.922 E3.47282
G1 X139.287 Y129.787 E3.50404
G1 X138.851 Y130.617 E3.53522
G1 X138.346 Y131.407 E3.5664
G1 X137.776 Y132.152 E3.5976
G1 X137.144 Y132.845 E3.6288
G1 X136.455 Y133.481 E3.65999
G1 X135.715 Y134.057 E3.69118
G1 X134.928 Y134.567 E3.72237
G1 X134.1 Y135.009 E3.75358
G1 X132.999 Y135.466 E3.79323
G1 X131.832 Y135.877 E3.83438
G1 X131.688 Y135.925 E3.83943
G1 X129.359 Y136.779 E3.92194
G1 X126.986 Y137.726 E4.00692
G1 X124.699 Y138.715 E4.08979
G1 X122.434 Y139.771 E4.17291
G1 X119.692 Y141.152 E4.27502
G1 X118.784 Y141.629 E4.30914
G1 X118.357 Y141.841 E4.32499
G1 X118.098 Y141.963 E4.33452
G1 X117.631 Y142.17 E4.35151
G1 X117.087 Y142.396 E4.3711
G1 X116.028 Y142.774 E4.4085
G1 X115.838 Y142.831 E4.4151
G1 X115.405 Y142.951 E4.43004
G1 X114.807 Y143.102 E4.45055
G1 X112.754 Y143.583 E4.52069
G1 X112.167 Y143.717 E4.54071
G1 X111.234 Y143.904 E4.57236
G1 X110.201 Y144.061 E4.60711
G1 X109.759 Y144.103 E4.62188
G1 X109.355 Y144.134 E4.63536
G1 X108.908 Y144.159 E4.65025
G1 X108.423 Y144.171 E4.66638
G1 X106.573 Y144.174 E4.72792
G1 X105.969 Y144.17 E4.74801
G1 X104.663 Y144.178 E4.79144
G1 X104.153 Y144.169 E4.80841
G1 X103.931 Y144.16 E4.8158
G1 X103.386 Y144.124 E4.83397
G1 X102.977 Y144.087 E4.84762
G1 X102.402 Y144.02 E4.86688
G1 X102.249 Y143.998 E4.87202
G1 X101.748 Y143.914 E4.88892
G1 X101.45 Y143.857 E4.89901
G1 X101.011 Y143.764 E4.91393
G1 X100.558 Y143.658 E4.92941
G1 X100.016 Y143.516 E4.94804
G1 X99.197 Y143.28 E4.97639
G1 X97.288 Y142.754 E5.04225
G1 X96.896 Y142.638 E5.05585
G1 X96.133 Y142.397 E5.08246
G1 X95.769 Y142.275 E5.09523
G1 X95.425 Y142.153 E5.10737
G1 X95.094 Y142.03 E5.11911
G1 X94.864 Y141.94 E5.12733
G1 X94.441 Y141.765 E5.14255
G1 X93.951 Y141.543 E5.16044
G1 X93.73 Y141.436 E5.16861
G1 X93.277 Y141.203 E5.18555
G1 X92.879 Y140.987 E5.20062
G1 X92.568 Y140.812 E5.21248
G1 X90.942 Y139.86 E5.27515
G1 X90.743 Y139.74 E5.28288
G1 X90.108 Y139.35 E5.30767
G1 X89.843 Y139.182 E5.3181
G1 X89.603 Y139.025 E5.32764
G1 X89.288 Y138.811 E5.34031
G1 X88.824 Y138.484 E5.35919
G1 X88.465 Y138.22 E5.37401
G1 X88.306 Y138.098 E5.38068
G1 X87.829 Y137.711 E5.40111
G1 X87.436 Y137.373 E5.41835
G1 X87.179 Y137.145 E5.42977
G1 X87.072 Y137.047 E5.4346
G1 X86.823 Y136.811 E5.44601
G1 X86.464 Y136.461 E5.46269
G1 X84.666 Y134.663 E5.54726
G1 X84.323 Y134.315 E5.56351
G1 X83.924 Y133.888 E5.58295
G1 X83.318 Y133.204 E5.61334
G1 X82.843 Y132.63 E5.63812
G1 X82.684 Y132.424 E5.64678
G1 X82.336 Y131.947 E5.66641
G1 X82.125 Y131.641 E5.67878
G1 X81.896 Y131.298 E5.69249
G1 X81.557 Y130.747 E5.71401
G1 X81.265 Y130.24 E5.73347
G1 X80.999 Y129.761 E5.75169
G1 X80.332 Y128.587 E5.7966
G1 X80.133 Y128.22 E5.81049
G1 X80.02 Y128.016 E5.81825
G1 X79.711 Y127.445 E5.83984
G1 X79.533 Y127.102 E5.85269
G1 X79.17 Y126.371 E5.87984
G1 X78.997 Y126.006 E5.89327
G1 X78.927 Y125.851 E5.89893
G1 X78.762 Y125.467 E5.91283
G1 X78.651 Y125.194 E5.92263
G1 X78.474 Y124.73 E5.93915
G1 X78.386 Y124.482 E5.9479
G1 X78.216 Y123.96 E5.96616
G1 X78.133 Y123.683 E5.97578
G1 X77.976 Y123.101 E5.99583
G1 X77.728 Y122.071 E6.03107
G1 X77.571 Y121.431 E6.05298
G1 X77.328 Y120.457 E6.08637
G1 X77.256 Y120.147 E6.09696
G1 X77.204 Y119.909 E6.10506
G1 X77.139 Y119.591 E6.11586
G1 X77.102 Y119.394 E6.12252
G1 X77.035 Y118.996 E6.13595
G1 X76.972 Y118.576 E6.15007
G1 X76.895 Y117.938 E6.17145
G1 X76.846 Y117.398 E6.18948
G1 X76.817 Y116.996 E6.20288
G1 X76.806 Y116.792 E6.20968
G1 X76.792 Y116.39 E6.22306
G1 X76.78 Y115.695 E6.24618
G1 X76.778 Y115.454 E6.25419
G1 X76.783 Y114.414 E6.28878
G1 X76.771 Y113.285 E6.32634
G1 X76.777 Y112.834 E6.34134
G1 X76.8 Y112.115 E6.36527
G1 X76.818 Y111.742 E6.37769
G1 X76.832 Y111.53 E6.38475
G1 X76.859 Y111.202 E6.3957
G1 X76.884 Y110.942 E6.40439
G1 X76.918 Y110.631 E6.41479
G1 X76.94 Y110.455 E6.42069
G1 X77.037 Y109.825 E6.44189
G1 X77.145 Y109.239 E6.46171
G1 X77.369 Y108.271 E6.49476
G1 X78.126 Y105.559 E6.58841
G1 X78.298 Y104.957 E6.60923
G1 X78.372 Y104.708 E6.61787
G1 X78.533 Y104.191 E6.63588
G1 X78.713 Y103.662 E6.65447
G1 X78.96 Y102.991 E6.67825
G1 X79.11 Y102.607 E6.69196
G1 X79.256 Y102.252 E6.70473
G1 X79.406 Y101.905 E6.7173
G1 X79.472 Y101.759 E6.72263
G1 X79.763 Y101.163 E6.74469
G1 X79.881 Y100.939 E6.75311
G1 X80.111 Y100.523 E6.76892
G1 X80.286 Y100.223 E6.78047
G1 X80.493 Y99.883 E6.79371
G1 X80.724 Y99.518 E6.80808
G1 X81.386 Y98.457 E6.84967
G1 X81.95 Y97.564 E6.8848
G1 X82.257 Y97.104 E6.90319
G1 X82.65 Y96.546 E6.92589
G1 X83.246 Y95.775 E6.95831
G1 X83.532 Y95.437 E6.97303
G1 X83.763 Y95.172 E6.98473
G1 X83.976 Y94.936 E6.9953
G1 X84.386 Y94.506 E7.01506
G1 X85.286 Y93.611 E7.05728
G1 X85.501 Y93.394 E7.06744
G1 X86.576 Y92.321 E7.11795
G1 X87.015 Y91.906 E7.13805
G0 F6000 X87.282 Y92.204
G1 F1200 X87.622 Y91.9 E7.15322
G1 X88.06 Y91.529 E7.17231
G1 X88.251 Y91.376 E7.18045
G1 X88.451 Y91.22 E7.18888
G1 X88.851 Y90.915 E7.20561
G1 X89.559 Y90.419 E7.23437
G1 X89.726 Y90.312 E7.24096
G1 X90.076 Y90.098 E7.25461
G1 X92.202 Y88.849 E7.33662
G1 X92.406 Y88.732 E7.34444
G1 X92.673 Y88.583 E7.35461
G1 X92.821 Y88.508 E7.36013
G1 X93.094 Y88.348 E7.37065
G1 X93.337 Y88.209 E7.37996
G1 X93.612 Y88.057 E7.39041
G1 X93.873 Y87.917 E7.40027
G1 X94.525 Y87.58 E7.42468
G1 X95.207 Y87.258 E7.44976
G1 X95.719 Y87.038 E7.4683
G1 X96.058 Y86.899 E7.48048
G1 X96.171 Y86.855 E7.48452
G1 X96.639 Y86.686 E7.50106
G1 X96.874 Y86.607 E7.50931
G1 X97.39 Y86.448 E7.52727
G1 X97.778 Y86.343 E7.54064
G1 X99.116 Y86.007 E7.58652
G1 X99.399 Y85.926 E7.59631
G1 X100.653 Y85.613 E7.6393
G1 X103.078 Y84.932 E7.72308
G1 X105.508 Y84.175 E7.80773
G1 X107.883 Y83.362 E7.89122
G1 X110.247 Y82.477 E7.97518
G1 X112.577 Y81.528 E8.05886
G1 X114.91 Y80.5 E8.14365
G1 X117.213 Y79.407 E8.22844
G1 X119.386 Y78.301 E8.30954
G1 X119.685 Y78.144 E8.32077
G1 X120.519 Y77.752 E8.35142
G1 X121.383 Y77.434 E8.38204
G1 X122.271 Y77.193 E8.41264
G1 X123.177 Y77.029 E8.44327
G1 X124.147 Y76.942 E8.47566
G1 X124.494 Y76.931 E8.4872
G1 X125.201 Y76.92 E8.51072
G1 X128.627 Y76.92 E8.62467
G1 X128.845 Y76.922 E8.63192
G1 X129.527 Y76.936 E8.65461
G1 X130.445 Y76.995 E8.68521
G1 X131.356 Y77.133 E8.71585
G1 X132.25 Y77.35 E8.74645
G1 X133.123 Y77.644 E8.77709
G1 X133.967 Y78.012 E8.80771
G1 X134.775 Y78.452 E8.83831
G1 X135.543 Y78.961 E8.86896
G1 X136.263 Y79.534 E8.89956
G1 X136.931 Y80.168 E8.93019
G1 X137.542 Y80.857 E8.96082
G1 X138.09 Y81.596 E8.99142
G1 X138.572 Y82.381 E9.02206
G1 X138.984 Y83.204 E9.05267
G1 X139.323 Y84.06 E9.0833
G1 X139.587 Y84.942 E9.11392
G1 X139.773 Y85.843 E9.14452
G1 X139.881 Y86.758 E9.17516
G1 X139.907 Y87.331 E9.19424
G1 X139.924 Y88.217 E9.22371
G1 X139.926 Y88.412 E9.2302
G1 X139.951 Y122.456 E10.36251
G1 X139.948 Y124.552 E10.43222
G1 X139.938 Y125.246 E10.4553
G1 X139.885 Y126.165 E10.48592
G1 X139.752 Y127.076 E10.51654
G1 X139.541 Y127.972 E10.54716
G1 X139.252 Y128.846 E10.57778
G1 X138.889 Y129.692 E10.60839
G1 X138.454 Y130.504 E10.63903
G1 X137.95 Y131.274 E10.66964
G1 X137.381 Y131.998 E10.70027
G1 X136.752 Y132.67 E10.73088
G1 X136.066 Y133.285 E10.76153
G1 X135.33 Y133.837 E10.79213
G1 X134.549 Y134.324 E10.82274
G1 X133.728 Y134.742 E10.85338
G1 X132.866 Y135.089 E10.88429
G1 X131.705 Y135.497 E10.92522
G1 X131.593 Y135.535 E10.92915
G1 X129.191 Y136.415 E11.01423
G1 X126.845 Y137.352 E11.09826
G1 X124.551 Y138.344 E11.18138
G1 X122.25 Y139.416 E11.26581
G1 X119.505 Y140.799 E11.36804
G1 X118.598 Y141.275 E11.40211
G1 X118.187 Y141.479 E11.41737
G1 X117.928 Y141.601 E11.4269
G1 X117.478 Y141.801 E11.44328
G1 X116.934 Y142.027 E11.46287
G1 X115.913 Y142.391 E11.49892
G1 X115.723 Y142.448 E11.50552
G1 X115.306 Y142.564 E11.51991
G1 X114.931 Y142.66 E11.53279
G1 X114.716 Y142.712 E11.54015
G1 X112.654 Y143.196 E11.61059
G1 X112.088 Y143.325 E11.6299
G1 X111.155 Y143.512 E11.66155
G1 X110.16 Y143.663 E11.69502
G1 X109.728 Y143.704 E11.70945
G1 X109.324 Y143.735 E11.72293
G1 X108.89 Y143.76 E11.73739
G1 X108.422 Y143.771 E11.75296
G1 X106.576 Y143.774 E11.81436
G1 X105.97 Y143.77 E11.83451
G1 X104.661 Y143.778 E11.87805
G1 X104.17 Y143.769 E11.89439
G1 X103.948 Y143.76 E11.90178
G1 X103.422 Y143.726 E11.91931
G1 X103.013 Y143.689 E11.93297
G1 X102.459 Y143.624 E11.95152
G1 X102.306 Y143.602 E11.95666
G1 X101.824 Y143.521 E11.97292
G1 X101.526 Y143.464 E11.98301
G1 X101.102 Y143.374 E11.99742
G1 X100.649 Y143.268 E12.0129
G1 X100.126 Y143.132 E12.03087
G1 X99.228 Y142.873 E12.06196
G1 X97.394 Y142.368 E12.12523
G1 X97.016 Y142.257 E12.13833
G1 X96.253 Y142.016 E12.16494
G1 X95.903 Y141.898 E12.17723
G1 X95.559 Y141.776 E12.18937
G1 X95.239 Y141.657 E12.20072
G1 X95.009 Y141.567 E12.20894
G1 X94.724 Y141.451 E12.21917
G1 X94.597 Y141.397 E12.22376
G1 X94.126 Y141.183 E12.24097
G1 X93.905 Y141.076 E12.24913
G1 X93.468 Y140.851 E12.26548
G1 X93.07 Y140.635 E12.28054
G1 X92.77 Y140.466 E12.292
G1 X91.144 Y139.514 E12.35466
G1 X90.953 Y139.399 E12.36208
G1 X90.318 Y139.009 E12.38687
G1 X90.062 Y138.848 E12.39692
G1 X89.822 Y138.691 E12.40646
G1 X89.519 Y138.485 E12.41865
G1 X89.055 Y138.158 E12.43753
G1 X88.708 Y137.903 E12.45185
G1 X88.549 Y137.781 E12.45852
G1 X88.09 Y137.408 E12.47819
G1 X87.697 Y137.07 E12.49543
G1 X87.343 Y136.752 E12.51126
G1 X87.102 Y136.525 E12.52227
G1 X86.594 Y136.027 E12.54593
G1 X86.316 Y135.745 E12.5591
G1 X84.951 Y134.382 E12.62326
G1 X84.608 Y134.034 E12.63951
G1 X84.223 Y133.622 E12.65826
G1 X83.617 Y132.938 E12.68866
G1 X83.16 Y132.386 E12.71249
G1 X83.001 Y132.18 E12.72115
G1 X82.665 Y131.72 E12.7401
G1 X82.454 Y131.414 E12.75246
G1 X82.231 Y131.078 E12.76587
G1 X81.904 Y130.547 E12.78661
G1 X81.612 Y130.04 E12.80607
G1 X81.372 Y129.608 E12.82251
G1 X80.68 Y128.39 E12.8691
G1 X80.523 Y128.098 E12.88013
G1 X80.372 Y127.826 E12.89048
G1 X80.063 Y127.255 E12.91207
G1 X79.891 Y126.924 E12.92448
G1 X79.528 Y126.193 E12.95162
G1 X79.361 Y125.842 E12.96455
G1 X79.291 Y125.687 E12.97021
G1 X79.133 Y125.316 E12.98362
G1 X79.022 Y125.043 E12.99342
G1 X78.851 Y124.596 E13.00934
G1 X78.763 Y124.348 E13.01809
G1 X78.599 Y123.846 E13.03566
G1 X78.516 Y123.569 E13.04527
G1 X78.365 Y123.007 E13.06463
G1 X78.127 Y122.021 E13.09837
G1 X77.959 Y121.336 E13.12182
G1 X77.716 Y120.36 E13.15528
G1 X77.646 Y120.062 E13.16546
G1 X77.594 Y119.824 E13.17356
G1 X77.532 Y119.518 E13.18395
G1 X77.495 Y119.321 E13.19061
G1 X77.43 Y118.936 E13.2036
G1 X77.367 Y118.516 E13.21772
G1 X77.293 Y117.902 E13.23829
G1 X77.244 Y117.362 E13.25633
G1 X77.216 Y116.975 E13.26923
G1 X77.205 Y116.771 E13.27603
G1 X77.192 Y116.383 E13.28894
G1 X77.18 Y115.688 E13.31206
G1 X77.178 Y115.456 E13.31978
G1 X77.183 Y114.412 E13.3545
G1 X77.171 Y113.281 E13.39212
G1 X77.176 Y112.847 E13.40656
G1 X77.199 Y112.128 E13.43048
G1 X77.217 Y111.769 E13.44244
G1 X77.231 Y111.557 E13.4495
G1 X77.257 Y111.24 E13.46008
G1 X77.282 Y110.98 E13.46877
G1 X77.315 Y110.68 E13.47881
G1 X77.337 Y110.504 E13.48471
G1 X77.431 Y109.898 E13.5051
G1 X77.539 Y109.312 E13.52492
G1 X77.754 Y108.379 E13.55677
G1 X78.511 Y105.669 E13.65035
G1 X78.683 Y105.067 E13.67118
G1 X78.754 Y104.827 E13.6795
G1 X78.915 Y104.31 E13.69751
G1 X79.089 Y103.8 E13.71543
G1 X79.336 Y103.129 E13.73922
G1 X79.48 Y102.759 E13.75242
G1 X79.626 Y102.404 E13.76519
G1 X79.77 Y102.07 E13.77729
G1 X79.836 Y101.924 E13.78261
G1 X80.117 Y101.35 E13.80387
G1 X80.235 Y101.126 E13.81229
G1 X80.457 Y100.725 E13.82754
G1 X80.632 Y100.425 E13.83909
G1 X80.831 Y100.097 E13.85185
G1 X81.062 Y99.732 E13.86621
G1 X81.691 Y98.724 E13.90573
G1 X82.288 Y97.778 E13.94294
G1 X82.584 Y97.334 E13.96069
G1 X82.977 Y96.776 E13.98339
G1 X83.551 Y96.033 E14.01461
G1 X83.837 Y95.695 E14.02934
G1 X84.06 Y95.44 E14.04061
G1 X84.273 Y95.204 E14.05118
G1 X84.668 Y94.79 E14.07021
G1 X85.514 Y93.948 E14.10991
G1 X86.859 Y92.604 E14.17315
G1 X87.282 Y92.204 E14.19252
G0 F6000 X87.548 Y92.502
G1 F1200 X87.888 Y92.198 E14.20769
G1 X88.31 Y91.841 E14.22607
G1 X88.693 Y91.538 E14.24231
G1 X89.093 Y91.233 E14.25904
G1 X89.775 Y90.756 E14.28673
G1 X89.942 Y90.649 E14.29332
G1 X90.278 Y90.442 E14.30645
G1 X92.404 Y89.193 E14.38846
G1 X92.867 Y88.932 E14.40614
G1 X93.007 Y88.862 E14.41134
G1 X93.296 Y88.692 E14.42249
G1 X93.531 Y88.559 E14.43148
G1 X93.806 Y88.407 E14.44193
G1 X94.057 Y88.273 E14.45139
G1 X94.709 Y87.936 E14.4758
G1 X95.365 Y87.626 E14.49993
G1 X95.877 Y87.406 E14.51847
G1 X96.203 Y87.272 E14.53019
G1 X96.316 Y87.228 E14.53422
G1 X96.767 Y87.065 E14.55017
G1 X97.002 Y86.986 E14.55842
G1 X97.498 Y86.833 E14.57568
G1 X97.875 Y86.731 E14.58867
G1 X99.363 Y86.357 E14.6397
G1 X99.496 Y86.315 E14.64434
G1 X100.72 Y86.009 E14.68631
G1 X103.2 Y85.313 E14.77198
G1 X105.62 Y84.56 E14.85627
G1 X108.005 Y83.743 E14.94013
G1 X110.401 Y82.846 E15.02522
G1 X112.741 Y81.893 E15.10925
G1 X115.093 Y80.857 E15.19473
G1 X117.358 Y79.781 E15.27814
G1 X119.608 Y78.636 E15.36211
G1 X119.871 Y78.498 E15.37198
G1 X120.689 Y78.115 E15.40203
G1 X121.537 Y77.805 E15.43206
G1 X122.409 Y77.572 E15.46208
G1 X123.299 Y77.416 E15.49213
G1 X124.164 Y77.342 E15.521
G1 X124.501 Y77.33 E15.53222
G1 X125.026 Y77.321 E15.54968
G1 X128.627 Y77.32 E15.66945
G1 X128.836 Y77.322 E15.6764
